(.../pcb-gcode-3.6.2.4/pcb-gcode.ulp)
(Copyright 2005 - 2012 by John Johnson)
(See readme.txt for licensing terms.)
(This file generated from the board:)
(.../new_object/object_1_milling.brd)
(Current profile is .../pcb-gcode-3.6.2.4/profiles/turbocnc.pp  )
(This file generated 16/11/2018 18:48)
(Settings from pcb-machine.h)
(spindle on time = 3.0000)
(spindle speed = 15000.0000)
(milling depth = -1.6000)
(tool change at 0.0000 0.0000 25.4000 )
(feed rate xy = F254.00 )
(feed rate z  = F127.00 )
(Z Axis Settings)
(  High     Up        Down     Drill)
(12.7000 	2.5400 	-0.0800 	-2.0000 )
(Settings from pcb-defaults.h)
(isolate min = 0.0254)
(isolate max = 0.3000)
(isolate step = 0.0254)
(Generated bottom outlines, bottom drill, )
(Unit of measure: mm)
(Metric Mode)
G21
(Absolute Coordinates)
G90
G97 S15000
G00 Z12.7000 
G00 X0.0000 Y0.0000 
M03
G04 P3.000000
G00 Z2.5400 
G00 X5.3340 Y18.0340 
G01 Z-1.6000 F127.00 
G01 X5.3340 Y29.2100 F254.00 
G00 Z2.5400 
G00 X5.3340 Y31.7500 
G01 Z-1.6000 F127.00 
G01 X5.3340 Y42.8625 F254.00 
G01 X14.2240 Y42.8625 
G00 Z2.5400 
G00 X14.2875 Y42.9260 
G01 Z-1.6000 F127.00 
G01 X14.9225 Y43.5610 F254.00 
G01 X44.0690 Y43.5610 
G01 X45.2755 Y44.7675 
G01 X54.3560 Y44.7675 
G01 X54.3560 Y45.0850 
G01 X54.4195 Y45.1485 
G01 X54.4195 Y45.4660 
G01 X54.6100 Y45.6565 
G01 X54.6100 Y45.9105 
G01 X54.8640 Y46.1645 
G01 X54.8640 Y46.2915 
G01 X55.9435 Y47.3710 
G01 X56.0705 Y47.3710 
G01 X56.3245 Y47.6250 
G01 X56.5150 Y47.6250 
G01 X56.7055 Y47.8155 
G01 X57.0230 Y47.8155 
G01 X57.1500 Y47.9425 
G01 X59.0550 Y47.9425 
G01 X59.1185 Y47.8790 
G01 X59.3725 Y47.8790 
G01 X59.5630 Y47.6885 
G01 X59.8170 Y47.6885 
G01 X60.1345 Y47.3710 
G01 X60.3250 Y47.3710 
G01 X61.0870 Y46.6090 
G01 X61.0870 Y46.5455 
G01 X61.3410 Y46.2915 
G01 X61.3410 Y46.2280 
G01 X61.5315 Y46.0375 
G01 X61.5315 Y45.8470 
G01 X61.7220 Y45.6565 
G01 X61.7220 Y45.4025 
G01 X61.8490 Y45.2755 
G01 X61.8490 Y45.0215 
G01 X61.9125 Y44.9580 
G01 X61.9125 Y31.7500 
G00 Z2.5400 
G00 X61.9125 Y29.2100 
G01 Z-1.6000 F127.00 
G01 X61.9125 Y16.1925 F254.00 
G01 X61.8490 Y16.1290 
G01 X61.8490 Y15.7480 
G01 X61.6585 Y15.5575 
G01 X61.6585 Y15.3035 
G01 X61.4045 Y15.0495 
G01 X61.4045 Y14.9225 
G01 X61.1505 Y14.6685 
G01 X61.1505 Y14.6050 
G01 X60.5155 Y13.9700 
G01 X60.4520 Y13.9700 
G01 X60.2615 Y13.7795 
G01 X60.1980 Y13.7795 
G01 X60.0075 Y13.5890 
G01 X59.8805 Y13.5890 
G01 X59.6900 Y13.3985 
G01 X59.3725 Y13.3985 
G01 X59.2455 Y13.2715 
G01 X58.9915 Y13.2715 
G01 X58.9280 Y13.2080 
G01 X58.6740 Y13.2080 
G01 X58.6105 Y13.1445 
G01 X57.6580 Y13.1445 
G01 X57.5945 Y13.2080 
G01 X57.1500 Y13.2080 
G01 X57.0230 Y13.3350 
G01 X56.7055 Y13.3350 
G01 X56.5150 Y13.5255 
G01 X56.3245 Y13.5255 
G01 X56.0705 Y13.7795 
G01 X55.9435 Y13.7795 
G01 X54.9910 Y14.7320 
G01 X54.9910 Y14.7955 
G01 X54.7370 Y15.0495 
G01 X54.7370 Y15.2400 
G01 X54.4830 Y15.4940 
G01 X54.4830 Y15.8115 
G01 X54.3560 Y15.9385 
G01 X54.3560 Y16.1290 
G01 X51.6890 Y16.1290 
G01 X50.4190 Y17.3990 
G01 X14.9860 Y17.3990 
G01 X14.3510 Y18.0340 
G01 X5.3340 Y18.0340 
G00 Z12.7000 
M05
M02
