(.../pcb-gcode-3.6.2.4/pcb-gcode.ulp)
(Copyright 2005 - 2012 by John Johnson)
(See readme.txt for licensing terms.)
(This file generated from the board:)
(.../eagle/object_1/object_1_milling.brd)
(Current profile is .../pcb-gcode-3.6.2.4/profiles/turbocnc.pp  )
(This file generated 06/11/2018 12:14)
(Settings from pcb-machine.h)
(spindle on time = 3.0000)
(spindle speed = 20000.0000)
(tool change at 0.0000 0.0000 25.4000 )
(feed rate xy = F0.00  )
(feed rate z  = F508.00 )
(Z Axis Settings)
(  High     Up        Down     Drill)
(12.7000 	2.5400 	-0.0800 	-2.0000 )
(Settings from pcb-defaults.h)
(isolate min = 0.0254)
(isolate max = 0.2000)
(isolate step = 0.0254)
(Generated bottom outlines, bottom drill, )
(Unit of measure: mm)
( Tool|       Size       |  Min Sub |  Max Sub |   Count )
( T01 | 0.800mm 0.0315in | 0.0000in | 0.0000in |       0 )
( T02 | 1.000mm 0.0394in | 0.0000in | 0.0000in |       0 )
( T03 | 1.016mm 0.0400in | 0.0000in | 0.0000in |       0 )
( T04 | 1.200mm 0.0472in | 0.0000in | 0.0000in |       0 )
( T05 | 2.500mm 0.0984in | 0.0000in | 0.0000in |       0 )
( T06 | 2.540mm 0.1000in | 0.0000in | 0.0000in |       0 )
(Metric Mode)
G21
(Absolute Coordinates)
G90
G97 S20000
G00 Z12.7000 
G00 X0.0000 Y0.0000 
M03
G04 P3.000000
M05
G00 Z25.4000 
M06 T01  ; 0.8000 
G01 Z0.0000 F508.00 
M06 
G00 Z2.5400 
M03
G04 P3.000000
G00 X-8.8900 Y24.1300 
G01 Z-2.0000 F508.00 
G00 Z2.5400 
G00 X-11.4300 Y24.1300 
G01 Z-2.0000 F508.00 
G00 Z2.5400 
G00 X-13.9700 Y24.1300 
G01 Z-2.0000 F508.00 
G00 Z2.5400 
G00 X-16.5100 Y24.1300 
G01 Z-2.0000 F508.00 
G00 Z2.5400 
G00 X-19.0500 Y24.1300 
G01 Z-2.0000 F508.00 
G00 Z2.5400 
G00 X-21.5900 Y24.1300 
G01 Z-2.0000 F508.00 
G00 Z2.5400 
G00 X-24.1300 Y24.1300 
G01 Z-2.0000 F508.00 
G00 Z2.5400 
G00 X-26.6700 Y24.1300 
G01 Z-2.0000 F508.00 
G00 Z2.5400 
G00 X-29.2100 Y34.2900 
G01 Z-2.0000 F508.00 
G00 Z2.5400 
G00 X-35.5600 Y38.1000 
G01 Z-2.0000 F508.00 
G00 Z2.5400 
G00 X-46.9900 Y38.1000 
G01 Z-2.0000 F508.00 
G00 Z2.5400 
G00 X-8.8900 Y34.2900 
G01 Z-2.0000 F508.00 
G00 Z2.5400 
M05
G00 Z25.4000 
G00 X0.0000 Y0.0000 
M06 T02  ; 1.0000 
G01 Z0.0000 F508.00 
M06 
G00 Z2.5400 
M03
G04 P3.000000
G00 X-7.6200 Y20.3200 
G01 Z-2.0000 F508.00 
G00 Z2.5400 
G00 X-10.1600 Y20.3200 
G01 Z-2.0000 F508.00 
G00 Z2.5400 
G00 X-12.7000 Y20.3200 
G01 Z-2.0000 F508.00 
G00 Z2.5400 
G00 X-15.2400 Y20.3200 
G01 Z-2.0000 F508.00 
G00 Z2.5400 
G00 X-17.7800 Y20.3200 
G01 Z-2.0000 F508.00 
G00 Z2.5400 
G00 X-20.3200 Y20.3200 
G01 Z-2.0000 F508.00 
G00 Z2.5400 
G00 X-22.8600 Y20.3200 
G01 Z-2.0000 F508.00 
G00 Z2.5400 
G00 X-25.4000 Y20.3200 
G01 Z-2.0000 F508.00 
G00 Z2.5400 
G00 X-27.9400 Y20.3200 
G01 Z-2.0000 F508.00 
G00 Z2.5400 
G00 X-30.4800 Y20.3200 
G01 Z-2.0000 F508.00 
G00 Z2.5400 
G00 X-33.0200 Y20.3200 
G01 Z-2.0000 F508.00 
G00 Z2.5400 
G00 X-35.5600 Y20.3200 
G01 Z-2.0000 F508.00 
G00 Z2.5400 
G00 X-38.1000 Y20.3200 
G01 Z-2.0000 F508.00 
G00 Z2.5400 
G00 X-40.6400 Y20.3200 
G01 Z-2.0000 F508.00 
G00 Z2.5400 
G00 X-43.1800 Y20.3200 
G01 Z-2.0000 F508.00 
G00 Z2.5400 
G00 X-45.7200 Y20.3200 
G01 Z-2.0000 F508.00 
G00 Z2.5400 
G00 X-45.7200 Y40.6400 
G01 Z-2.0000 F508.00 
G00 Z2.5400 
G00 X-43.1800 Y40.6400 
G01 Z-2.0000 F508.00 
G00 Z2.5400 
G00 X-40.6400 Y40.6400 
G01 Z-2.0000 F508.00 
G00 Z2.5400 
G00 X-38.1000 Y40.6400 
G01 Z-2.0000 F508.00 
G00 Z2.5400 
G00 X-35.5600 Y40.6400 
G01 Z-2.0000 F508.00 
G00 Z2.5400 
G00 X-33.0200 Y40.6400 
G01 Z-2.0000 F508.00 
G00 Z2.5400 
G00 X-30.4800 Y40.6400 
G01 Z-2.0000 F508.00 
G00 Z2.5400 
G00 X-27.9400 Y40.6400 
G01 Z-2.0000 F508.00 
G00 Z2.5400 
G00 X-25.4000 Y40.6400 
G01 Z-2.0000 F508.00 
G00 Z2.5400 
G00 X-22.8600 Y40.6400 
G01 Z-2.0000 F508.00 
G00 Z2.5400 
G00 X-20.3200 Y40.6400 
G01 Z-2.0000 F508.00 
G00 Z2.5400 
G00 X-17.7800 Y40.6400 
G01 Z-2.0000 F508.00 
G00 Z2.5400 
M05
G00 Z25.4000 
G00 X0.0000 Y0.0000 
M06 T03  ; 1.0160 
G01 Z0.0000 F508.00 
M06 
G00 Z2.5400 
M03
G04 P3.000000
G00 X-31.7500 Y26.6700 
G01 Z-2.0000 F508.00 
G00 Z2.5400 
G00 X-31.7500 Y29.2100 
G01 Z-2.0000 F508.00 
G00 Z2.5400 
G00 X-31.7500 Y31.7500 
G01 Z-2.0000 F508.00 
G00 Z2.5400 
G00 X-31.7500 Y34.2900 
G01 Z-2.0000 F508.00 
G00 Z2.5400 
M05
G00 Z25.4000 
G00 X0.0000 Y0.0000 
M06 T04  ; 1.2000 
G01 Z0.0000 F508.00 
M06 
G00 Z2.5400 
M03
G04 P3.000000
G00 X-54.6100 Y19.0500 
G01 Z-2.0000 F508.00 
G00 Z2.5400 
G00 X-54.6100 Y21.5900 
G01 Z-2.0000 F508.00 
G00 Z2.5400 
G00 X-54.6100 Y24.1300 
G01 Z-2.0000 F508.00 
G00 Z2.5400 
G00 X-54.6100 Y26.6700 
G01 Z-2.0000 F508.00 
G00 Z2.5400 
G00 X-54.6100 Y29.2100 
G01 Z-2.0000 F508.00 
G00 Z2.5400 
G00 X-54.6100 Y31.7500 
G01 Z-2.0000 F508.00 
G00 Z2.5400 
G00 X-54.6100 Y34.2900 
G01 Z-2.0000 F508.00 
G00 Z2.5400 
G00 X-54.6100 Y36.8300 
G01 Z-2.0000 F508.00 
G00 Z2.5400 
G00 X-54.6100 Y39.3700 
G01 Z-2.0000 F508.00 
G00 Z2.5400 
G00 X-54.6100 Y41.9100 
G01 Z-2.0000 F508.00 
G00 Z2.5400 
M05
G00 Z25.4000 
G00 X0.0000 Y0.0000 
M06 T05  ; 2.5000 
G01 Z0.0000 F508.00 
M06 
G00 Z2.5400 
M03
G04 P3.000000
G00 X-3.8100 Y21.5900 
G01 Z-2.0000 F508.00 
G00 Z2.5400 
G00 X-3.8100 Y39.3700 
G01 Z-2.0000 F508.00 
G00 Z2.5400 
M05
G00 Z25.4000 
G00 X0.0000 Y0.0000 
M06 T06  ; 2.5400 
G01 Z0.0000 F508.00 
M06 
G00 Z2.5400 
M03
G04 P3.000000
G00 X-49.5300 Y21.5900 
G01 Z-2.0000 F508.00 
G00 Z2.5400 
G00 X-49.5300 Y39.3700 
G01 Z-2.0000 F508.00 
G00 Z2.5400 
T01 
G00 Z12.7000 
M05
M02
