(.../pcb-gcode-3.6.2.4/pcb-gcode.ulp)
(Copyright 2005 - 2012 by John Johnson)
(See readme.txt for licensing terms.)
(This file generated from the board:)
(.../eagle/object_1/object_1_milling.brd)
(Current profile is .../pcb-gcode-3.6.2.4/profiles/turbocnc.pp  )
(This file generated 06/11/2018 12:11)
(Settings from pcb-machine.h)
(spindle on time = 3.0000)
(  Tool Size)
(0.1000 )
(spindle speed = 30000.0000)
(tool change at 0.0000 0.0000 25.4000 )
(feed rate xy = F254.00 )
(feed rate z  = F254.00 )
(Z Axis Settings)
(  High     Up        Down     Drill)
(12.7000 	2.5400 	-0.0800 	-2.0000 )
(Settings from pcb-defaults.h)
(isolate min = 0.0254)
(isolate max = 0.2000)
(isolate step = 0.0254)
(Generated bottom outlines, bottom drill, )
(Unit of measure: mm)
(Metric Mode)
G21
(Absolute Coordinates)
G90
G97 S30000
G00 Z12.7000 
G00 X0.0000 Y0.0000 
M03
G04 P3.000000
G00 Z2.5400 
G00 X-5.0161 Y10.1173 
G01 Z-0.0800 F254.00 
G01 X-5.0373 Y10.0961 F254.00 
G01 X-5.0650 Y10.0846 
G01 X-62.2450 Y10.0846 
G01 X-62.2727 Y10.0961 
G01 X-62.2939 Y10.1173 
G01 X-62.3054 Y10.1450 
G01 X-62.3054 Y49.5450 
G01 X-62.2939 Y49.5727 
G01 X-62.2727 Y49.5939 
G01 X-62.2450 Y49.6054 
G01 X-62.2150 Y49.6054 
G01 X-5.0650 Y49.6054 
G01 X-5.0373 Y49.5939 
G01 X-5.0161 Y49.5727 
G01 X-5.0046 Y49.5450 
G01 X-5.0046 Y41.2101 
G01 X-5.0161 Y41.1824 
G01 X-5.0373 Y41.1612 
G01 X-5.6195 Y40.5790 
G01 X-5.9444 Y39.7946 
G01 X-5.9444 Y38.9454 
G01 X-5.6195 Y38.1609 
G01 X-5.0161 Y37.5576 
G01 X-5.0046 Y37.5298 
G01 X-5.0046 Y23.4302 
G01 X-5.0161 Y23.4024 
G01 X-5.0373 Y23.3812 
G01 X-5.6195 Y22.7990 
G01 X-5.9444 Y22.0146 
G01 X-5.9444 Y21.1654 
G01 X-5.6195 Y20.3809 
G01 X-5.0161 Y19.7776 
G01 X-5.0046 Y19.7498 
G01 X-5.0046 Y10.1450 
G01 X-5.0161 Y10.1173 
G00 Z2.5400 
G00 X-4.9126 Y19.9398 
G01 Z-0.0800 F254.00 
G01 X-5.1186 Y20.0979 F254.00 
G01 X-5.3021 Y20.2814 
G01 X-5.4602 Y20.4874 
G01 X-5.5900 Y20.7122 
G01 X-5.6893 Y20.9521 
G01 X-5.7565 Y21.2028 
G01 X-5.7904 Y21.4602 
G01 X-5.7904 Y21.7198 
G01 X-5.7565 Y21.9772 
G01 X-5.6893 Y22.2279 
G01 X-5.5900 Y22.4678 
G01 X-5.4602 Y22.6926 
G01 X-5.3021 Y22.8986 
G01 X-5.1186 Y23.0821 
G01 X-4.9126 Y23.2402 
G01 X-4.6878 Y23.3700 
G01 X-4.4479 Y23.4693 
G01 X-4.1972 Y23.5365 
G01 X-3.9398 Y23.5704 
G01 X-3.6802 Y23.5704 
G01 X-3.4228 Y23.5365 
G01 X-3.1721 Y23.4693 
G01 X-2.9322 Y23.3700 
G01 X-2.7074 Y23.2402 
G01 X-2.5014 Y23.0821 
G01 X-2.3179 Y22.8986 
G01 X-2.1598 Y22.6926 
G01 X-2.0300 Y22.4678 
G01 X-1.9307 Y22.2279 
G01 X-1.8635 Y21.9772 
G01 X-1.8296 Y21.7198 
G01 X-1.8296 Y21.4602 
G01 X-1.8635 Y21.2028 
G01 X-1.9307 Y20.9521 
G01 X-2.0300 Y20.7122 
G01 X-2.1598 Y20.4874 
G01 X-2.3179 Y20.2814 
G01 X-2.5014 Y20.0979 
G01 X-2.7074 Y19.9398 
G01 X-2.9322 Y19.8100 
G01 X-3.1721 Y19.7107 
G01 X-3.4228 Y19.6435 
G01 X-3.6802 Y19.6096 
G01 X-3.9398 Y19.6096 
G01 X-4.1972 Y19.6435 
G01 X-4.4479 Y19.7107 
G01 X-4.6878 Y19.8100 
G01 X-4.9126 Y19.9398 
G00 Z2.5400 
G00 X-6.5016 Y20.0975 
G01 Z-0.0800 F254.00 
G01 X-6.5016 Y20.5425 F254.00 
G01 X-6.6718 Y20.9535 
G01 X-6.9865 Y21.2681 
G01 X-7.3975 Y21.4384 
G01 X-7.8425 Y21.4384 
G01 X-8.2535 Y21.2681 
G01 X-8.5681 Y20.9535 
G01 X-8.7384 Y20.5425 
G01 X-8.7384 Y20.0975 
G01 X-8.5681 Y19.6865 
G01 X-8.2535 Y19.3718 
G01 X-7.8425 Y19.2016 
G01 X-7.3975 Y19.2016 
G01 X-6.9865 Y19.3718 
G01 X-6.6718 Y19.6865 
G01 X-6.5016 Y20.0975 
G00 Z2.5400 
G00 X-6.6927 Y20.0387 
G01 Z-0.0800 F254.00 
G01 X-6.7654 Y19.8632 F254.00 
G01 X-6.8709 Y19.7052 
G01 X-7.0052 Y19.5709 
G01 X-7.1632 Y19.4654 
G01 X-7.3387 Y19.3927 
G01 X-7.5250 Y19.3556 
G01 X-7.7150 Y19.3556 
G01 X-7.9013 Y19.3927 
G01 X-8.0768 Y19.4654 
G01 X-8.2348 Y19.5709 
G01 X-8.3691 Y19.7052 
G01 X-8.4746 Y19.8632 
G01 X-8.5473 Y20.0387 
G01 X-8.5844 Y20.2250 
G01 X-8.5844 Y20.4150 
G01 X-8.5473 Y20.6013 
G01 X-8.4746 Y20.7768 
G01 X-8.3691 Y20.9348 
G01 X-8.2348 Y21.0691 
G01 X-8.0768 Y21.1746 
G01 X-7.9013 Y21.2473 
G01 X-7.7150 Y21.2844 
G01 X-7.5250 Y21.2844 
G01 X-7.3387 Y21.2473 
G01 X-7.1632 Y21.1746 
G01 X-7.0052 Y21.0691 
G01 X-6.8709 Y20.9348 
G01 X-6.7654 Y20.7768 
G01 X-6.6927 Y20.6013 
G01 X-6.6556 Y20.4150 
G01 X-6.6556 Y20.2250 
G01 X-6.6927 Y20.0387 
G00 Z2.5400 
G00 X-9.0416 Y20.0975 
G01 Z-0.0800 F254.00 
G01 X-9.0416 Y20.5425 F254.00 
G01 X-9.2118 Y20.9535 
G01 X-9.5119 Y21.2535 
G01 X-9.5233 Y21.2812 
G01 X-9.5233 Y21.3112 
G01 X-9.5119 Y21.3390 
G01 X-9.4906 Y21.3602 
G01 X-8.3510 Y22.4998 
G01 X-8.2542 Y22.7335 
G01 X-8.2542 Y23.1679 
G01 X-8.2427 Y23.1956 
G01 X-8.2215 Y23.2168 
G01 X-7.9418 Y23.4965 
G01 X-7.7716 Y23.9075 
G01 X-7.7716 Y24.3525 
G01 X-7.9418 Y24.7635 
G01 X-8.2215 Y25.0432 
G01 X-8.2377 Y25.0594 
G01 X-8.2427 Y25.0644 
G01 X-8.2542 Y25.0921 
G01 X-8.2542 Y33.3970 
G01 X-8.2427 Y33.4247 
G01 X-8.2215 Y33.4459 
G01 X-8.1938 Y33.4574 
G01 X-8.0574 Y33.5918 
G01 X-8.0574 Y34.9882 
G01 X-8.1918 Y35.1226 
G01 X-9.5882 Y35.1226 
G01 X-9.7226 Y34.9882 
G01 X-9.7226 Y33.5918 
G01 X-9.5882 Y33.4574 
G01 X-9.5585 Y33.4459 
G01 X-9.5373 Y33.4247 
G01 X-9.5258 Y33.3970 
G01 X-9.5258 Y25.0921 
G01 X-9.5373 Y25.0644 
G01 X-9.8382 Y24.7635 
G01 X-10.0084 Y24.3525 
G01 X-10.0084 Y23.9075 
G01 X-9.8382 Y23.4965 
G01 X-9.5594 Y23.2177 
G01 X-9.5431 Y23.2014 
G01 X-9.5381 Y23.1965 
G01 X-9.5267 Y23.1687 
G01 X-9.5267 Y23.1388 
G01 X-9.5381 Y23.1110 
G01 X-9.5594 Y23.0898 
G01 X-10.5202 Y22.1290 
G01 X-10.6990 Y21.9502 
G01 X-10.7958 Y21.7165 
G01 X-10.7958 Y21.2821 
G01 X-10.8073 Y21.2544 
G01 X-10.8285 Y21.2332 
G01 X-11.1082 Y20.9535 
G01 X-11.2784 Y20.5425 
G01 X-11.2784 Y20.0975 
G01 X-11.1082 Y19.6865 
G01 X-10.7935 Y19.3718 
G01 X-10.3825 Y19.2016 
G01 X-9.9375 Y19.2016 
G01 X-9.5265 Y19.3718 
G01 X-9.2118 Y19.6865 
G01 X-9.0416 Y20.0975 
G00 Z2.5400 
G00 X-9.2327 Y20.0387 
G01 Z-0.0800 F254.00 
G01 X-9.3054 Y19.8632 F254.00 
G01 X-9.4109 Y19.7052 
G01 X-9.5452 Y19.5709 
G01 X-9.7032 Y19.4654 
G01 X-9.8787 Y19.3927 
G01 X-10.0650 Y19.3556 
G01 X-10.2550 Y19.3556 
G01 X-10.4413 Y19.3927 
G01 X-10.6168 Y19.4654 
G01 X-10.7748 Y19.5709 
G01 X-10.9091 Y19.7052 
G01 X-11.0146 Y19.8632 
G01 X-11.0873 Y20.0387 
G01 X-11.1244 Y20.2250 
G01 X-11.1244 Y20.4150 
G01 X-11.0873 Y20.6013 
G01 X-11.0146 Y20.7768 
G01 X-10.9091 Y20.9348 
G01 X-10.7748 Y21.0691 
G01 X-10.6418 Y21.1579 
G01 X-10.6418 Y21.6534 
G01 X-10.6090 Y21.7760 
G01 X-10.5455 Y21.8858 
G01 X-10.4558 Y21.9755 
G01 X-9.3718 Y23.0596 
G01 X-9.3718 Y23.2921 
G01 X-9.5048 Y23.3809 
G01 X-9.6391 Y23.5152 
G01 X-9.7446 Y23.6732 
G01 X-9.8173 Y23.8487 
G01 X-9.8544 Y24.0350 
G01 X-9.8544 Y24.2250 
G01 X-9.8173 Y24.4113 
G01 X-9.7446 Y24.5868 
G01 X-9.6391 Y24.7448 
G01 X-9.5048 Y24.8791 
G01 X-9.3718 Y24.9679 
G01 X-9.3718 Y33.6114 
G01 X-9.5082 Y33.6114 
G01 X-9.5359 Y33.6229 
G01 X-9.5571 Y33.6441 
G01 X-9.5686 Y33.6718 
G01 X-9.5686 Y34.9082 
G01 X-9.5571 Y34.9359 
G01 X-9.5359 Y34.9571 
G01 X-9.5082 Y34.9686 
G01 X-8.2718 Y34.9686 
G01 X-8.2441 Y34.9571 
G01 X-8.2229 Y34.9359 
G01 X-8.2114 Y34.9082 
G01 X-8.2114 Y33.6718 
G01 X-8.2229 Y33.6441 
G01 X-8.2441 Y33.6229 
G01 X-8.2718 Y33.6114 
G01 X-8.4082 Y33.6114 
G01 X-8.4082 Y24.9679 
G01 X-8.2752 Y24.8791 
G01 X-8.1409 Y24.7448 
G01 X-8.0354 Y24.5868 
G01 X-7.9627 Y24.4113 
G01 X-7.9256 Y24.2250 
G01 X-7.9256 Y24.0350 
G01 X-7.9627 Y23.8487 
G01 X-8.0354 Y23.6732 
G01 X-8.1409 Y23.5152 
G01 X-8.2752 Y23.3809 
G01 X-8.4082 Y23.2921 
G01 X-8.4082 Y22.7966 
G01 X-8.4410 Y22.6740 
G01 X-8.5045 Y22.5642 
G01 X-9.6782 Y21.3904 
G01 X-9.6782 Y21.1579 
G01 X-9.5452 Y21.0691 
G01 X-9.4109 Y20.9348 
G01 X-9.3054 Y20.7768 
G01 X-9.2327 Y20.6013 
G01 X-9.1956 Y20.4150 
G01 X-9.1956 Y20.2250 
G01 X-9.2327 Y20.0387 
G00 Z2.5400 
G00 X-11.5816 Y20.0975 
G01 Z-0.0800 F254.00 
G01 X-11.5816 Y20.5425 F254.00 
G01 X-11.7518 Y20.9535 
G01 X-12.0665 Y21.2681 
G01 X-12.4775 Y21.4384 
G01 X-12.9225 Y21.4384 
G01 X-13.3335 Y21.2681 
G01 X-13.6481 Y20.9535 
G01 X-13.8184 Y20.5425 
G01 X-13.8184 Y20.0975 
G01 X-13.6481 Y19.6865 
G01 X-13.3335 Y19.3718 
G01 X-12.9225 Y19.2016 
G01 X-12.4775 Y19.2016 
G01 X-12.0665 Y19.3718 
G01 X-11.7518 Y19.6865 
G01 X-11.5816 Y20.0975 
G00 Z2.5400 
G00 X-11.7727 Y20.0387 
G01 Z-0.0800 F254.00 
G01 X-11.8454 Y19.8632 F254.00 
G01 X-11.9509 Y19.7052 
G01 X-12.0852 Y19.5709 
G01 X-12.2432 Y19.4654 
G01 X-12.4187 Y19.3927 
G01 X-12.6050 Y19.3556 
G01 X-12.7950 Y19.3556 
G01 X-12.9813 Y19.3927 
G01 X-13.1568 Y19.4654 
G01 X-13.3148 Y19.5709 
G01 X-13.4491 Y19.7052 
G01 X-13.5546 Y19.8632 
G01 X-13.6273 Y20.0387 
G01 X-13.6644 Y20.2250 
G01 X-13.6644 Y20.4150 
G01 X-13.6273 Y20.6013 
G01 X-13.5546 Y20.7768 
G01 X-13.4491 Y20.9348 
G01 X-13.3148 Y21.0691 
G01 X-13.1568 Y21.1746 
G01 X-12.9813 Y21.2473 
G01 X-12.7950 Y21.2844 
G01 X-12.6050 Y21.2844 
G01 X-12.4187 Y21.2473 
G01 X-12.2432 Y21.1746 
G01 X-12.0852 Y21.0691 
G01 X-11.9509 Y20.9348 
G01 X-11.8454 Y20.7768 
G01 X-11.7727 Y20.6013 
G01 X-11.7356 Y20.4150 
G01 X-11.7356 Y20.2250 
G01 X-11.7727 Y20.0387 
G00 Z2.5400 
G00 X-12.5208 Y21.7924 
G01 Z-0.0800 F254.00 
G01 X-12.2674 Y22.0458 F254.00 
G01 X-12.2674 Y23.6474 
G01 X-12.2846 Y23.6732 
G01 X-12.3573 Y23.8487 
G01 X-12.3944 Y24.0350 
G01 X-12.3944 Y24.2250 
G01 X-12.3573 Y24.4113 
G01 X-12.2846 Y24.5868 
G01 X-12.2674 Y24.6126 
G01 X-12.2674 Y30.6592 
G01 X-12.5208 Y30.9126 
G01 X-17.2870 Y30.9126 
G01 X-17.3147 Y30.9241 
G01 X-17.3359 Y30.9453 
G01 X-17.3474 Y30.9730 
G01 X-17.3474 Y34.9402 
G01 X-17.3359 Y34.9679 
G01 X-17.3147 Y34.9891 
G01 X-17.2870 Y35.0006 
G01 X-16.8850 Y35.0006 
G01 X-16.7506 Y35.1350 
G01 X-16.7506 Y35.3870 
G01 X-16.7391 Y35.4147 
G01 X-16.7179 Y35.4359 
G01 X-16.6902 Y35.4474 
G01 X-16.3298 Y35.4474 
G01 X-16.3021 Y35.4359 
G01 X-16.2809 Y35.4147 
G01 X-16.2694 Y35.3870 
G01 X-16.2694 Y35.0850 
G01 X-16.1350 Y34.9506 
G01 X-14.3450 Y34.9506 
G01 X-14.2106 Y35.0850 
G01 X-14.2106 Y35.3370 
G01 X-14.1991 Y35.3647 
G01 X-14.1779 Y35.3859 
G01 X-14.1502 Y35.3974 
G01 X-13.7898 Y35.3974 
G01 X-13.7621 Y35.3859 
G01 X-13.7409 Y35.3647 
G01 X-13.7294 Y35.3370 
G01 X-13.7294 Y35.1350 
G01 X-13.5950 Y35.0006 
G01 X-11.8050 Y35.0006 
G01 X-11.6706 Y35.1350 
G01 X-11.6706 Y36.6250 
G01 X-11.8050 Y36.7594 
G01 X-13.5950 Y36.7594 
G01 X-13.7294 Y36.6250 
G01 X-13.7294 Y36.3230 
G01 X-13.7409 Y36.2953 
G01 X-13.7621 Y36.2741 
G01 X-13.7898 Y36.2626 
G01 X-14.1502 Y36.2626 
G01 X-14.1779 Y36.2741 
G01 X-14.1991 Y36.2953 
G01 X-14.2106 Y36.3230 
G01 X-14.2106 Y36.5750 
G01 X-14.3450 Y36.7094 
G01 X-16.1350 Y36.7094 
G01 X-16.2694 Y36.5750 
G01 X-16.2694 Y36.3730 
G01 X-16.2809 Y36.3453 
G01 X-16.3021 Y36.3241 
G01 X-16.3298 Y36.3126 
G01 X-16.6902 Y36.3126 
G01 X-16.7179 Y36.3241 
G01 X-16.7391 Y36.3453 
G01 X-16.7506 Y36.3730 
G01 X-16.7506 Y36.6250 
G01 X-16.8916 Y36.7661 
G01 X-16.9098 Y36.7843 
G01 X-16.9128 Y36.7873 
G01 X-16.9243 Y36.8150 
G01 X-16.9243 Y36.8450 
G01 X-16.9128 Y36.8727 
G01 X-16.8916 Y36.8939 
G01 X-16.7506 Y37.0350 
G01 X-16.7506 Y38.5250 
G01 X-16.8850 Y38.6594 
G01 X-17.2870 Y38.6594 
G01 X-17.3147 Y38.6709 
G01 X-17.3359 Y38.6921 
G01 X-17.3474 Y38.7198 
G01 X-17.3474 Y39.5732 
G01 X-17.3359 Y39.6010 
G01 X-17.3147 Y39.6222 
G01 X-17.1465 Y39.6918 
G01 X-16.8318 Y40.0065 
G01 X-16.6616 Y40.4175 
G01 X-16.6616 Y40.8625 
G01 X-16.8318 Y41.2735 
G01 X-17.1465 Y41.5881 
G01 X-17.5575 Y41.7584 
G01 X-18.0025 Y41.7584 
G01 X-18.4135 Y41.5881 
G01 X-18.7281 Y41.2735 
G01 X-18.8984 Y40.8625 
G01 X-18.8984 Y40.4175 
G01 X-18.7281 Y40.0065 
G01 X-18.4135 Y39.6918 
G01 X-18.2453 Y39.6222 
G01 X-18.2241 Y39.6010 
G01 X-18.2126 Y39.5732 
G01 X-18.2126 Y38.7198 
G01 X-18.2241 Y38.6921 
G01 X-18.2453 Y38.6709 
G01 X-18.2730 Y38.6594 
G01 X-18.6750 Y38.6594 
G01 X-18.8094 Y38.5250 
G01 X-18.8094 Y37.0350 
G01 X-18.6472 Y36.8727 
G01 X-18.6357 Y36.8450 
G01 X-18.6357 Y36.8150 
G01 X-18.6472 Y36.7873 
G01 X-18.6684 Y36.7661 
G01 X-18.8094 Y36.6250 
G01 X-18.8094 Y35.1350 
G01 X-18.6750 Y35.0006 
G01 X-18.2730 Y35.0006 
G01 X-18.2453 Y34.9891 
G01 X-18.2241 Y34.9679 
G01 X-18.2126 Y34.9402 
G01 X-18.2126 Y30.3008 
G01 X-17.9592 Y30.0474 
G01 X-13.1930 Y30.0474 
G01 X-13.1653 Y30.0359 
G01 X-13.1441 Y30.0147 
G01 X-13.1326 Y29.9870 
G01 X-13.1326 Y25.0413 
G01 X-13.1438 Y25.0144 
G01 X-13.1653 Y24.9924 
G01 X-13.1930 Y24.9809 
G01 X-13.2230 Y24.9809 
G01 X-13.2499 Y24.9921 
G01 X-13.2719 Y25.0136 
G01 X-13.3365 Y25.0781 
G01 X-13.5555 Y25.1689 
G01 X-13.5767 Y25.1901 
G01 X-13.5882 Y25.2178 
G01 X-13.5882 Y28.0982 
G01 X-13.8118 Y28.3218 
G01 X-29.3681 Y28.3218 
G01 X-29.5918 Y28.0982 
G01 X-29.5918 Y25.0802 
G01 X-29.6033 Y25.0525 
G01 X-29.6245 Y25.0313 
G01 X-29.6522 Y25.0198 
G01 X-38.0388 Y25.0198 
G01 X-38.0665 Y25.0313 
G01 X-38.0877 Y25.0525 
G01 X-38.0992 Y25.0802 
G01 X-38.0992 Y25.4311 
G01 X-38.3228 Y25.6548 
G01 X-48.0878 Y25.6548 
G01 X-48.1155 Y25.6663 
G01 X-48.1367 Y25.6875 
G01 X-48.1482 Y25.7152 
G01 X-48.1482 Y27.6248 
G01 X-48.1367 Y27.6525 
G01 X-48.1155 Y27.6737 
G01 X-48.0878 Y27.6852 
G01 X-43.4262 Y27.6852 
G01 X-43.3985 Y27.6737 
G01 X-43.3773 Y27.6525 
G01 X-43.3592 Y27.6344 
G01 X-43.0008 Y27.6344 
G01 X-42.7474 Y27.8878 
G01 X-42.7474 Y39.5732 
G01 X-42.7359 Y39.6010 
G01 X-42.7147 Y39.6222 
G01 X-42.5465 Y39.6918 
G01 X-42.2318 Y40.0065 
G01 X-42.0616 Y40.4175 
G01 X-42.0616 Y40.8625 
G01 X-42.2318 Y41.2735 
G01 X-42.5465 Y41.5881 
G01 X-42.6870 Y41.6463 
G01 X-42.7147 Y41.6578 
G01 X-42.7359 Y41.6790 
G01 X-42.7474 Y41.7067 
G01 X-42.7474 Y43.3592 
G01 X-43.0008 Y43.6126 
G01 X-52.2492 Y43.6126 
G01 X-52.9703 Y42.8915 
G01 X-52.9796 Y42.8822 
G01 X-52.9915 Y42.8703 
G01 X-53.0193 Y42.8588 
G01 X-53.0493 Y42.8588 
G01 X-53.0770 Y42.8703 
G01 X-53.4853 Y43.0394 
G01 X-55.7347 Y43.0394 
G01 X-56.1498 Y42.8675 
G01 X-56.4675 Y42.5498 
G01 X-56.6394 Y42.1347 
G01 X-56.6394 Y41.6853 
G01 X-56.4675 Y41.2702 
G01 X-56.1498 Y40.9525 
G01 X-55.7347 Y40.7806 
G01 X-53.4853 Y40.7806 
G01 X-53.0702 Y40.9525 
G01 X-52.7525 Y41.2702 
G01 X-52.5806 Y41.6853 
G01 X-52.5806 Y42.0414 
G01 X-52.5691 Y42.0691 
G01 X-52.5479 Y42.0903 
G01 X-51.9023 Y42.7359 
G01 X-51.8746 Y42.7474 
G01 X-43.6730 Y42.7474 
G01 X-43.6453 Y42.7359 
G01 X-43.6241 Y42.7147 
G01 X-43.6126 Y42.6870 
G01 X-43.6126 Y41.7067 
G01 X-43.6241 Y41.6790 
G01 X-43.6453 Y41.6578 
G01 X-43.8135 Y41.5881 
G01 X-44.1281 Y41.2735 
G01 X-44.2984 Y40.8625 
G01 X-44.2984 Y40.4175 
G01 X-44.1281 Y40.0065 
G01 X-43.8135 Y39.6918 
G01 X-43.6453 Y39.6222 
G01 X-43.6241 Y39.6010 
G01 X-43.6126 Y39.5732 
G01 X-43.6126 Y28.5092 
G01 X-43.6241 Y28.4815 
G01 X-43.6453 Y28.4603 
G01 X-43.6730 Y28.4488 
G01 X-45.2270 Y28.4488 
G01 X-45.2547 Y28.4603 
G01 X-45.2759 Y28.4815 
G01 X-45.2874 Y28.5092 
G01 X-45.2874 Y39.5732 
G01 X-45.2759 Y39.6010 
G01 X-45.2547 Y39.6222 
G01 X-45.0865 Y39.6918 
G01 X-44.7718 Y40.0065 
G01 X-44.6016 Y40.4175 
G01 X-44.6016 Y40.8625 
G01 X-44.7718 Y41.2735 
G01 X-45.0865 Y41.5881 
G01 X-45.2547 Y41.6578 
G01 X-45.2759 Y41.6790 
G01 X-45.2874 Y41.7067 
G01 X-45.2874 Y42.0892 
G01 X-45.5408 Y42.3426 
G01 X-50.9792 Y42.3426 
G01 X-52.9915 Y40.3303 
G01 X-53.0193 Y40.3188 
G01 X-53.0493 Y40.3188 
G01 X-53.0770 Y40.3303 
G01 X-53.4853 Y40.4994 
G01 X-55.7347 Y40.4994 
G01 X-56.1498 Y40.3275 
G01 X-56.4675 Y40.0098 
G01 X-56.6394 Y39.5947 
G01 X-56.6394 Y39.1453 
G01 X-56.4675 Y38.7302 
G01 X-56.1498 Y38.4125 
G01 X-55.7347 Y38.2406 
G01 X-53.4853 Y38.2406 
G01 X-53.0702 Y38.4125 
G01 X-52.7525 Y38.7302 
G01 X-52.5806 Y39.1453 
G01 X-52.5806 Y39.5014 
G01 X-52.5691 Y39.5291 
G01 X-52.5479 Y39.5503 
G01 X-51.6107 Y40.4875 
G01 X-51.5829 Y40.4990 
G01 X-51.5529 Y40.4990 
G01 X-51.5252 Y40.4875 
G01 X-51.5040 Y40.4663 
G01 X-51.4925 Y40.4386 
G01 X-51.4925 Y40.4086 
G01 X-51.5040 Y40.3809 
G01 X-51.7406 Y39.8097 
G01 X-51.7406 Y38.9303 
G01 X-51.4041 Y38.1178 
G01 X-50.7822 Y37.4959 
G01 X-49.9697 Y37.1594 
G01 X-49.0903 Y37.1594 
G01 X-48.9820 Y37.2043 
G01 X-48.9520 Y37.2043 
G01 X-48.9242 Y37.1928 
G01 X-48.9034 Y37.1719 
G01 X-48.8916 Y37.1439 
G01 X-48.8916 Y37.1139 
G01 X-48.9030 Y37.0861 
G01 X-48.9237 Y37.0655 
G01 X-51.0519 Y34.9373 
G01 X-51.0796 Y34.9258 
G01 X-52.7323 Y34.9258 
G01 X-52.7601 Y34.9373 
G01 X-52.7813 Y34.9585 
G01 X-53.0702 Y35.2475 
G01 X-53.4853 Y35.4194 
G01 X-55.7347 Y35.4194 
G01 X-56.1498 Y35.2475 
G01 X-56.4675 Y34.9298 
G01 X-56.6394 Y34.5147 
G01 X-56.6394 Y34.0653 
G01 X-56.4675 Y33.6502 
G01 X-56.1498 Y33.3325 
G01 X-55.7347 Y33.1606 
G01 X-53.4853 Y33.1606 
G01 X-53.0702 Y33.3325 
G01 X-52.7813 Y33.6215 
G01 X-52.7652 Y33.6376 
G01 X-52.7601 Y33.6427 
G01 X-52.7323 Y33.6542 
G01 X-50.6735 Y33.6542 
G01 X-50.4398 Y33.7510 
G01 X-50.2398 Y33.9510 
G01 X-47.5407 Y36.6501 
G01 X-47.5130 Y36.6616 
G01 X-47.4830 Y36.6616 
G01 X-47.4553 Y36.6501 
G01 X-47.4341 Y36.6289 
G01 X-47.4226 Y36.6012 
G01 X-47.4226 Y29.7792 
G01 X-47.4341 Y29.7515 
G01 X-47.4553 Y29.7303 
G01 X-47.4830 Y29.7188 
G01 X-49.6882 Y29.7188 
G01 X-49.9118 Y29.4951 
G01 X-49.9118 Y27.2517 
G01 X-49.9233 Y27.2240 
G01 X-49.9445 Y27.2028 
G01 X-49.9722 Y27.1913 
G01 X-50.7500 Y27.1913 
G01 X-50.8568 Y27.0845 
G01 X-50.8756 Y27.0658 
G01 X-50.9058 Y27.0518 
G01 X-52.6103 Y27.0518 
G01 X-52.6380 Y27.0633 
G01 X-52.6592 Y27.0845 
G01 X-52.7525 Y27.3098 
G01 X-53.0702 Y27.6275 
G01 X-53.4853 Y27.7994 
G01 X-55.7347 Y27.7994 
G01 X-56.1498 Y27.6275 
G01 X-56.4675 Y27.3098 
G01 X-56.5397 Y27.1353 
G01 X-56.5609 Y27.1141 
G01 X-56.5887 Y27.1026 
G01 X-56.7332 Y27.1026 
G01 X-56.7609 Y27.1141 
G01 X-56.7821 Y27.1353 
G01 X-56.7936 Y27.1630 
G01 X-56.7936 Y27.4154 
G01 X-57.0396 Y27.6614 
G01 X-58.5298 Y27.6614 
G01 X-58.5446 Y27.6614 
G01 X-58.5591 Y27.6614 
G01 X-58.6507 Y27.6633 
G01 X-58.7151 Y27.5989 
G01 X-58.7257 Y27.5883 
G01 X-58.7358 Y27.5782 
G01 X-58.8018 Y27.5148 
G01 X-58.8018 Y27.4238 
G01 X-58.8018 Y27.4089 
G01 X-58.8018 Y27.3945 
G01 X-58.8027 Y27.3603 
G01 X-58.1978 Y26.7554 
G01 X-58.1694 Y26.7271 
G01 X-58.1541 Y26.6900 
G01 X-58.1541 Y26.6499 
G01 X-58.1694 Y26.6129 
G01 X-58.8027 Y25.9797 
G01 X-58.8021 Y25.9461 
G01 X-58.8018 Y25.9310 
G01 X-58.8016 Y25.9168 
G01 X-58.8018 Y25.8252 
G01 X-58.7364 Y25.7621 
G01 X-58.7256 Y25.7516 
G01 X-58.7153 Y25.7417 
G01 X-58.6507 Y25.6767 
G01 X-58.5597 Y25.6783 
G01 X-58.5446 Y25.6786 
G01 X-58.5304 Y25.6788 
G01 X-57.0396 Y25.6786 
G01 X-56.7936 Y25.9246 
G01 X-56.7936 Y26.1770 
G01 X-56.7821 Y26.2047 
G01 X-56.7609 Y26.2259 
G01 X-56.7332 Y26.2374 
G01 X-56.5887 Y26.2374 
G01 X-56.5609 Y26.2259 
G01 X-56.5397 Y26.2047 
G01 X-56.5382 Y26.2011 
G01 X-56.4675 Y26.0302 
G01 X-56.1498 Y25.7125 
G01 X-55.7347 Y25.5406 
G01 X-53.4853 Y25.5406 
G01 X-53.0702 Y25.7125 
G01 X-52.7525 Y26.0302 
G01 X-52.6592 Y26.2555 
G01 X-52.6380 Y26.2767 
G01 X-52.6103 Y26.2882 
G01 X-50.9448 Y26.2882 
G01 X-50.9171 Y26.2767 
G01 X-50.8959 Y26.2555 
G01 X-50.8844 Y26.2278 
G01 X-50.8844 Y25.8669 
G01 X-50.7500 Y25.7325 
G01 X-50.4722 Y25.7325 
G01 X-50.4445 Y25.7210 
G01 X-50.4233 Y25.6998 
G01 X-50.4118 Y25.6721 
G01 X-50.4118 Y24.5722 
G01 X-50.4233 Y24.5445 
G01 X-50.4445 Y24.5233 
G01 X-50.4722 Y24.5118 
G01 X-52.6103 Y24.5118 
G01 X-52.6380 Y24.5233 
G01 X-52.6592 Y24.5445 
G01 X-52.7525 Y24.7698 
G01 X-53.0702 Y25.0875 
G01 X-53.4853 Y25.2594 
G01 X-55.7347 Y25.2594 
G01 X-56.1498 Y25.0875 
G01 X-56.4675 Y24.7698 
G01 X-56.5397 Y24.5953 
G01 X-56.5609 Y24.5741 
G01 X-56.5887 Y24.5626 
G01 X-56.7332 Y24.5626 
G01 X-56.7609 Y24.5741 
G01 X-56.7821 Y24.5953 
G01 X-56.7936 Y24.6230 
G01 X-56.7936 Y24.8754 
G01 X-57.0396 Y25.1214 
G01 X-58.5298 Y25.1214 
G01 X-58.5446 Y25.1214 
G01 X-58.5591 Y25.1214 
G01 X-58.6507 Y25.1233 
G01 X-58.7151 Y25.0589 
G01 X-58.7257 Y25.0483 
G01 X-58.7358 Y25.0382 
G01 X-58.8018 Y24.9748 
G01 X-58.8018 Y24.8838 
G01 X-58.8018 Y24.8690 
G01 X-58.8018 Y24.8545 
G01 X-58.8027 Y24.8203 
G01 X-58.1978 Y24.2155 
G01 X-58.1694 Y24.1871 
G01 X-58.1541 Y24.1501 
G01 X-58.1541 Y24.1099 
G01 X-58.1694 Y24.0729 
G01 X-58.8027 Y23.4397 
G01 X-58.8021 Y23.4061 
G01 X-58.8018 Y23.3910 
G01 X-58.8016 Y23.3768 
G01 X-58.8018 Y23.2852 
G01 X-58.7364 Y23.2221 
G01 X-58.7256 Y23.2116 
G01 X-58.7153 Y23.2017 
G01 X-58.6507 Y23.1367 
G01 X-58.5597 Y23.1383 
G01 X-58.5446 Y23.1386 
G01 X-58.5304 Y23.1388 
G01 X-57.0396 Y23.1386 
G01 X-56.7936 Y23.3846 
G01 X-56.7936 Y23.6370 
G01 X-56.7821 Y23.6647 
G01 X-56.7609 Y23.6859 
G01 X-56.7332 Y23.6974 
G01 X-56.5887 Y23.6974 
G01 X-56.5609 Y23.6859 
G01 X-56.5397 Y23.6647 
G01 X-56.5382 Y23.6611 
G01 X-56.4675 Y23.4902 
G01 X-56.1498 Y23.1725 
G01 X-55.7347 Y23.0006 
G01 X-53.4853 Y23.0006 
G01 X-53.0702 Y23.1725 
G01 X-52.7525 Y23.4902 
G01 X-52.6592 Y23.7155 
G01 X-52.6380 Y23.7367 
G01 X-52.6103 Y23.7482 
G01 X-50.4604 Y23.7482 
G01 X-50.4327 Y23.7367 
G01 X-50.4114 Y23.7155 
G01 X-50.4000 Y23.6878 
G01 X-50.4000 Y23.6578 
G01 X-50.4114 Y23.6301 
G01 X-50.4327 Y23.6089 
G01 X-50.7822 Y23.4641 
G01 X-51.4041 Y22.8422 
G01 X-51.7406 Y22.0297 
G01 X-51.7406 Y21.1503 
G01 X-51.4041 Y20.3378 
G01 X-50.7822 Y19.7159 
G01 X-49.9697 Y19.3794 
G01 X-49.0903 Y19.3794 
G01 X-48.2778 Y19.7159 
G01 X-47.6559 Y20.3378 
G01 X-47.3194 Y21.1503 
G01 X-47.3194 Y22.0297 
G01 X-47.6559 Y22.8422 
G01 X-48.2778 Y23.4641 
G01 X-48.9340 Y23.7359 
G01 X-48.9552 Y23.7571 
G01 X-48.9666 Y23.7848 
G01 X-48.9666 Y23.8148 
G01 X-48.9552 Y23.8425 
G01 X-48.9340 Y23.8637 
G01 X-48.9062 Y23.8752 
G01 X-46.6564 Y23.8752 
G01 X-46.6287 Y23.8637 
G01 X-46.6075 Y23.8425 
G01 X-46.3409 Y23.5759 
G01 X-46.3294 Y23.5482 
G01 X-46.3294 Y22.6000 
G01 X-46.1950 Y22.4656 
G01 X-44.7050 Y22.4656 
G01 X-44.5706 Y22.6000 
G01 X-44.5706 Y24.3228 
G01 X-44.5591 Y24.3505 
G01 X-44.5379 Y24.3717 
G01 X-44.5102 Y24.3832 
G01 X-39.4312 Y24.3832 
G01 X-39.4035 Y24.3717 
G01 X-39.3823 Y24.3505 
G01 X-39.3708 Y24.3228 
G01 X-39.3708 Y23.9718 
G01 X-39.1472 Y23.7482 
G01 X-28.5438 Y23.7482 
G01 X-28.3202 Y23.9718 
G01 X-28.3202 Y26.9898 
G01 X-28.3087 Y27.0175 
G01 X-28.2875 Y27.0387 
G01 X-28.2598 Y27.0502 
G01 X-16.9522 Y27.0502 
G01 X-16.9245 Y27.0387 
G01 X-16.9033 Y27.0175 
G01 X-16.8918 Y26.9898 
G01 X-16.8918 Y25.2178 
G01 X-16.9033 Y25.1901 
G01 X-16.9245 Y25.1689 
G01 X-17.1435 Y25.0782 
G01 X-17.4581 Y24.7635 
G01 X-17.6284 Y24.3525 
G01 X-17.6284 Y23.9075 
G01 X-17.4581 Y23.4965 
G01 X-17.1435 Y23.1818 
G01 X-16.7325 Y23.0116 
G01 X-16.2875 Y23.0116 
G01 X-15.8765 Y23.1818 
G01 X-15.5618 Y23.4965 
G01 X-15.3916 Y23.9075 
G01 X-15.3916 Y24.3525 
G01 X-15.5618 Y24.7635 
G01 X-15.8765 Y25.0782 
G01 X-16.0955 Y25.1689 
G01 X-16.1167 Y25.1901 
G01 X-16.1282 Y25.2178 
G01 X-16.1282 Y27.4978 
G01 X-16.1167 Y27.5255 
G01 X-16.0955 Y27.5467 
G01 X-16.0678 Y27.5582 
G01 X-14.4122 Y27.5582 
G01 X-14.3845 Y27.5467 
G01 X-14.3633 Y27.5255 
G01 X-14.3518 Y27.4978 
G01 X-14.3518 Y25.2178 
G01 X-14.3633 Y25.1901 
G01 X-14.3845 Y25.1689 
G01 X-14.3871 Y25.1678 
G01 X-14.6035 Y25.0782 
G01 X-14.9182 Y24.7635 
G01 X-15.0884 Y24.3525 
G01 X-15.0884 Y23.9075 
G01 X-14.9182 Y23.4965 
G01 X-14.6035 Y23.1818 
G01 X-14.1925 Y23.0116 
G01 X-13.7475 Y23.0116 
G01 X-13.3365 Y23.1818 
G01 X-13.2719 Y23.2464 
G01 X-13.2515 Y23.2668 
G01 X-13.2230 Y23.2791 
G01 X-13.1930 Y23.2791 
G01 X-13.1653 Y23.2676 
G01 X-13.1444 Y23.2467 
G01 X-13.1326 Y23.2187 
G01 X-13.1326 Y22.7180 
G01 X-13.1441 Y22.6903 
G01 X-13.1653 Y22.6691 
G01 X-13.1930 Y22.6576 
G01 X-16.0542 Y22.6576 
G01 X-17.3104 Y21.4014 
G01 X-17.3316 Y21.3802 
G01 X-17.3593 Y21.3687 
G01 X-17.3893 Y21.3687 
G01 X-17.4170 Y21.3802 
G01 X-17.5575 Y21.4384 
G01 X-18.0025 Y21.4384 
G01 X-18.4135 Y21.2681 
G01 X-18.7281 Y20.9535 
G01 X-18.8984 Y20.5425 
G01 X-18.8984 Y20.0975 
G01 X-18.7281 Y19.6865 
G01 X-18.4135 Y19.3718 
G01 X-18.0025 Y19.2016 
G01 X-17.5575 Y19.2016 
G01 X-17.1465 Y19.3718 
G01 X-16.8318 Y19.6865 
G01 X-16.6616 Y20.0975 
G01 X-16.6616 Y20.5425 
G01 X-16.7198 Y20.6830 
G01 X-16.7306 Y20.7092 
G01 X-16.7313 Y20.7407 
G01 X-16.7198 Y20.7684 
G01 X-16.6986 Y20.7896 
G01 X-15.7073 Y21.7809 
G01 X-15.6796 Y21.7924 
G01 X-12.5208 Y21.7924 
G00 Z2.5400 
G00 X-12.5289 Y22.0021 
G01 Z-0.0800 F254.00 
G01 X-12.5925 Y21.9654 F254.00 
G01 X-12.6633 Y21.9464 
G01 X-15.7596 Y21.9464 
G01 X-16.9269 Y20.7791 
G01 X-16.8527 Y20.6013 
G01 X-16.8156 Y20.4150 
G01 X-16.8156 Y20.2250 
G01 X-16.8527 Y20.0387 
G01 X-16.9254 Y19.8632 
G01 X-17.0309 Y19.7052 
G01 X-17.1652 Y19.5709 
G01 X-17.3232 Y19.4654 
G01 X-17.4987 Y19.3927 
G01 X-17.6850 Y19.3556 
G01 X-17.8750 Y19.3556 
G01 X-18.0613 Y19.3927 
G01 X-18.2368 Y19.4654 
G01 X-18.3948 Y19.5709 
G01 X-18.5291 Y19.7052 
G01 X-18.6346 Y19.8632 
G01 X-18.7073 Y20.0387 
G01 X-18.7444 Y20.2250 
G01 X-18.7444 Y20.4150 
G01 X-18.7073 Y20.6013 
G01 X-18.6346 Y20.7768 
G01 X-18.5291 Y20.9348 
G01 X-18.3948 Y21.0691 
G01 X-18.2368 Y21.1746 
G01 X-18.0613 Y21.2473 
G01 X-17.8750 Y21.2844 
G01 X-17.6850 Y21.2844 
G01 X-17.4987 Y21.2473 
G01 X-17.3232 Y21.1746 
G01 X-16.0461 Y22.4479 
G01 X-15.9825 Y22.4846 
G01 X-15.9117 Y22.5036 
G01 X-12.9786 Y22.5036 
G01 X-12.9786 Y30.2014 
G01 X-17.8167 Y30.2014 
G01 X-17.8875 Y30.2204 
G01 X-17.9511 Y30.2571 
G01 X-18.0029 Y30.3089 
G01 X-18.0396 Y30.3725 
G01 X-18.0586 Y30.4433 
G01 X-18.0586 Y35.1546 
G01 X-18.5950 Y35.1546 
G01 X-18.6227 Y35.1661 
G01 X-18.6439 Y35.1873 
G01 X-18.6554 Y35.2150 
G01 X-18.6554 Y36.5450 
G01 X-18.6439 Y36.5727 
G01 X-18.6227 Y36.5939 
G01 X-18.5950 Y36.6054 
G01 X-16.9650 Y36.6054 
G01 X-16.9373 Y36.5939 
G01 X-16.9161 Y36.5727 
G01 X-16.9046 Y36.5450 
G01 X-16.9046 Y36.1586 
G01 X-16.1154 Y36.1586 
G01 X-16.1154 Y36.4950 
G01 X-16.1039 Y36.5227 
G01 X-16.0827 Y36.5439 
G01 X-16.0550 Y36.5554 
G01 X-14.4250 Y36.5554 
G01 X-14.3973 Y36.5439 
G01 X-14.3761 Y36.5227 
G01 X-14.3646 Y36.4950 
G01 X-14.3646 Y36.1086 
G01 X-13.5754 Y36.1086 
G01 X-13.5754 Y36.5450 
G01 X-13.5639 Y36.5727 
G01 X-13.5427 Y36.5939 
G01 X-13.5150 Y36.6054 
G01 X-11.8850 Y36.6054 
G01 X-11.8573 Y36.5939 
G01 X-11.8361 Y36.5727 
G01 X-11.8246 Y36.5450 
G01 X-11.8246 Y35.2150 
G01 X-11.8361 Y35.1873 
G01 X-11.8573 Y35.1661 
G01 X-11.8850 Y35.1546 
G01 X-13.5150 Y35.1546 
G01 X-13.5427 Y35.1661 
G01 X-13.5639 Y35.1873 
G01 X-13.5754 Y35.2150 
G01 X-13.5754 Y35.5514 
G01 X-14.3646 Y35.5514 
G01 X-14.3646 Y35.1650 
G01 X-14.3761 Y35.1373 
G01 X-14.3973 Y35.1161 
G01 X-14.4250 Y35.1046 
G01 X-16.0550 Y35.1046 
G01 X-16.0827 Y35.1161 
G01 X-16.1039 Y35.1373 
G01 X-16.1154 Y35.1650 
G01 X-16.1154 Y35.6014 
G01 X-16.9046 Y35.6014 
G01 X-16.9046 Y35.2150 
G01 X-16.9161 Y35.1873 
G01 X-16.9373 Y35.1661 
G01 X-16.9650 Y35.1546 
G01 X-17.5014 Y35.1546 
G01 X-17.5014 Y30.7586 
G01 X-12.6633 Y30.7586 
G01 X-12.5925 Y30.7396 
G01 X-12.5289 Y30.7029 
G01 X-12.4771 Y30.6511 
G01 X-12.4404 Y30.5875 
G01 X-12.4214 Y30.5167 
G01 X-12.4214 Y22.1883 
G01 X-12.4404 Y22.1175 
G01 X-12.4771 Y22.0539 
G01 X-12.5289 Y22.0021 
G00 Z2.5400 
G00 X-13.2209 Y23.5152 
G01 Z-0.0800 F254.00 
G01 X-13.3552 Y23.3809 F254.00 
G01 X-13.5132 Y23.2754 
G01 X-13.6887 Y23.2027 
G01 X-13.8750 Y23.1656 
G01 X-14.0650 Y23.1656 
G01 X-14.2513 Y23.2027 
G01 X-14.4268 Y23.2754 
G01 X-14.5848 Y23.3809 
G01 X-14.7191 Y23.5152 
G01 X-14.8246 Y23.6732 
G01 X-14.8973 Y23.8487 
G01 X-14.9344 Y24.0350 
G01 X-14.9344 Y24.2250 
G01 X-14.8973 Y24.4113 
G01 X-14.8246 Y24.5868 
G01 X-14.7191 Y24.7448 
G01 X-14.5848 Y24.8791 
G01 X-14.4268 Y24.9846 
G01 X-14.2513 Y25.0573 
G01 X-14.1978 Y25.0680 
G01 X-14.1978 Y27.7122 
G01 X-28.9822 Y27.7122 
G01 X-28.9822 Y24.5927 
G01 X-29.0169 Y24.5090 
G01 X-29.0810 Y24.4449 
G01 X-29.1647 Y24.4102 
G01 X-38.5263 Y24.4102 
G01 X-38.6100 Y24.4449 
G01 X-38.6741 Y24.5090 
G01 X-38.7088 Y24.5927 
G01 X-38.7088 Y25.0452 
G01 X-48.5753 Y25.0452 
G01 X-48.6590 Y25.0799 
G01 X-48.7231 Y25.1440 
G01 X-48.7578 Y25.2277 
G01 X-48.7578 Y28.1123 
G01 X-48.7231 Y28.1960 
G01 X-48.6590 Y28.2601 
G01 X-48.5753 Y28.2948 
G01 X-43.4586 Y28.2948 
G01 X-43.4586 Y39.7121 
G01 X-43.4613 Y39.7127 
G01 X-43.6368 Y39.7854 
G01 X-43.7948 Y39.8909 
G01 X-43.9291 Y40.0252 
G01 X-44.0346 Y40.1832 
G01 X-44.1073 Y40.3587 
G01 X-44.1444 Y40.5450 
G01 X-44.1444 Y40.7350 
G01 X-44.1073 Y40.9213 
G01 X-44.0346 Y41.0968 
G01 X-43.9291 Y41.2548 
G01 X-43.7948 Y41.3891 
G01 X-43.6368 Y41.4946 
G01 X-43.4613 Y41.5673 
G01 X-43.4586 Y41.5679 
G01 X-43.4586 Y42.9014 
G01 X-51.9546 Y42.9014 
G01 X-52.7537 Y42.1023 
G01 X-52.7346 Y42.0061 
G01 X-52.7346 Y41.8139 
G01 X-52.7721 Y41.6255 
G01 X-52.8456 Y41.4480 
G01 X-52.9524 Y41.2882 
G01 X-53.0882 Y41.1524 
G01 X-53.2480 Y41.0456 
G01 X-53.4255 Y40.9721 
G01 X-53.6139 Y40.9346 
G01 X-55.6061 Y40.9346 
G01 X-55.7945 Y40.9721 
G01 X-55.9720 Y41.0456 
G01 X-56.1318 Y41.1524 
G01 X-56.2676 Y41.2882 
G01 X-56.3744 Y41.4480 
G01 X-56.4479 Y41.6255 
G01 X-56.4854 Y41.8139 
G01 X-56.4854 Y42.0061 
G01 X-56.4479 Y42.1945 
G01 X-56.3744 Y42.3720 
G01 X-56.2676 Y42.5318 
G01 X-56.1318 Y42.6676 
G01 X-55.9720 Y42.7744 
G01 X-55.7945 Y42.8479 
G01 X-55.6061 Y42.8854 
G01 X-53.6139 Y42.8854 
G01 X-53.4255 Y42.8479 
G01 X-53.2480 Y42.7744 
G01 X-53.0882 Y42.6676 
G01 X-53.0323 Y42.6117 
G01 X-52.2411 Y43.4029 
G01 X-52.1775 Y43.4396 
G01 X-52.1067 Y43.4586 
G01 X-43.1433 Y43.4586 
G01 X-43.0725 Y43.4396 
G01 X-43.0089 Y43.4029 
G01 X-42.9571 Y43.3511 
G01 X-42.9204 Y43.2875 
G01 X-42.9014 Y43.2167 
G01 X-42.9014 Y41.5679 
G01 X-42.8987 Y41.5673 
G01 X-42.7232 Y41.4946 
G01 X-42.5652 Y41.3891 
G01 X-42.4309 Y41.2548 
G01 X-42.3254 Y41.0968 
G01 X-42.2527 Y40.9213 
G01 X-42.2156 Y40.7350 
G01 X-42.2156 Y40.5450 
G01 X-42.2527 Y40.3587 
G01 X-42.3254 Y40.1832 
G01 X-42.4309 Y40.0252 
G01 X-42.5652 Y39.8909 
G01 X-42.7232 Y39.7854 
G01 X-42.8987 Y39.7127 
G01 X-42.9014 Y39.7121 
G01 X-42.9014 Y28.0303 
G01 X-42.9204 Y27.9595 
G01 X-42.9571 Y27.8959 
G01 X-43.0089 Y27.8441 
G01 X-43.0725 Y27.8074 
G01 X-43.1433 Y27.7884 
G01 X-43.2167 Y27.7884 
G01 X-43.2875 Y27.8074 
G01 X-43.3426 Y27.8392 
G01 X-48.3022 Y27.8392 
G01 X-48.3022 Y25.5008 
G01 X-38.4357 Y25.5008 
G01 X-38.3520 Y25.4661 
G01 X-38.2879 Y25.4020 
G01 X-38.2532 Y25.3183 
G01 X-38.2532 Y24.8658 
G01 X-29.4378 Y24.8658 
G01 X-29.4378 Y27.9853 
G01 X-29.4031 Y28.0690 
G01 X-29.3390 Y28.1331 
G01 X-29.2553 Y28.1678 
G01 X-13.9247 Y28.1678 
G01 X-13.8410 Y28.1331 
G01 X-13.7769 Y28.0690 
G01 X-13.7422 Y27.9853 
G01 X-13.7422 Y25.0680 
G01 X-13.6887 Y25.0573 
G01 X-13.5132 Y24.9846 
G01 X-13.3552 Y24.8791 
G01 X-13.2209 Y24.7448 
G01 X-13.1154 Y24.5868 
G01 X-13.0427 Y24.4113 
G01 X-13.0056 Y24.2250 
G01 X-13.0056 Y24.0350 
G01 X-13.0427 Y23.8487 
G01 X-13.1154 Y23.6732 
G01 X-13.2209 Y23.5152 
G00 Z2.5400 
G00 X-15.7609 Y23.5152 
G01 Z-0.0800 F254.00 
G01 X-15.8952 Y23.3809 F254.00 
G01 X-16.0532 Y23.2754 
G01 X-16.2287 Y23.2027 
G01 X-16.4150 Y23.1656 
G01 X-16.6050 Y23.1656 
G01 X-16.7913 Y23.2027 
G01 X-16.9668 Y23.2754 
G01 X-17.1248 Y23.3809 
G01 X-17.2591 Y23.5152 
G01 X-17.3646 Y23.6732 
G01 X-17.4373 Y23.8487 
G01 X-17.4744 Y24.0350 
G01 X-17.4744 Y24.2250 
G01 X-17.4373 Y24.4113 
G01 X-17.3646 Y24.5868 
G01 X-17.2591 Y24.7448 
G01 X-17.1248 Y24.8791 
G01 X-16.9668 Y24.9846 
G01 X-16.7913 Y25.0573 
G01 X-16.7378 Y25.0680 
G01 X-16.7378 Y27.2042 
G01 X-28.4742 Y27.2042 
G01 X-28.4742 Y24.0847 
G01 X-28.5089 Y24.0010 
G01 X-28.5730 Y23.9369 
G01 X-28.6567 Y23.9022 
G01 X-39.0343 Y23.9022 
G01 X-39.1180 Y23.9369 
G01 X-39.1821 Y24.0010 
G01 X-39.2168 Y24.0847 
G01 X-39.2168 Y24.5372 
G01 X-49.0753 Y24.5372 
G01 X-49.1590 Y24.5719 
G01 X-49.2231 Y24.6360 
G01 X-49.2578 Y24.7197 
G01 X-49.2578 Y28.7473 
G01 X-49.2231 Y28.8310 
G01 X-49.1590 Y28.8951 
G01 X-49.0753 Y28.9298 
G01 X-45.9986 Y28.9298 
G01 X-45.9986 Y39.7121 
G01 X-46.0013 Y39.7127 
G01 X-46.1768 Y39.7854 
G01 X-46.3348 Y39.8909 
G01 X-46.4691 Y40.0252 
G01 X-46.5746 Y40.1832 
G01 X-46.6473 Y40.3587 
G01 X-46.6844 Y40.5450 
G01 X-46.6844 Y40.7350 
G01 X-46.6473 Y40.9213 
G01 X-46.5746 Y41.0968 
G01 X-46.4691 Y41.2548 
G01 X-46.3348 Y41.3891 
G01 X-46.1768 Y41.4946 
G01 X-46.0013 Y41.5673 
G01 X-45.9986 Y41.5679 
G01 X-45.9986 Y41.6314 
G01 X-50.6846 Y41.6314 
G01 X-52.7537 Y39.5623 
G01 X-52.7346 Y39.4661 
G01 X-52.7346 Y39.2739 
G01 X-52.7721 Y39.0855 
G01 X-52.8456 Y38.9080 
G01 X-52.9524 Y38.7482 
G01 X-53.0882 Y38.6124 
G01 X-53.2480 Y38.5056 
G01 X-53.4255 Y38.4321 
G01 X-53.6139 Y38.3946 
G01 X-55.6061 Y38.3946 
G01 X-55.7945 Y38.4321 
G01 X-55.9720 Y38.5056 
G01 X-56.1318 Y38.6124 
G01 X-56.2676 Y38.7482 
G01 X-56.3744 Y38.9080 
G01 X-56.4479 Y39.0855 
G01 X-56.4854 Y39.2739 
G01 X-56.4854 Y39.4661 
G01 X-56.4479 Y39.6545 
G01 X-56.3744 Y39.8320 
G01 X-56.2676 Y39.9918 
G01 X-56.1318 Y40.1276 
G01 X-55.9720 Y40.2344 
G01 X-55.7945 Y40.3079 
G01 X-55.6061 Y40.3454 
G01 X-53.6139 Y40.3454 
G01 X-53.4255 Y40.3079 
G01 X-53.2480 Y40.2344 
G01 X-53.0882 Y40.1276 
G01 X-53.0323 Y40.0717 
G01 X-50.9711 Y42.1329 
G01 X-50.9075 Y42.1696 
G01 X-50.8367 Y42.1886 
G01 X-45.6833 Y42.1886 
G01 X-45.6125 Y42.1696 
G01 X-45.5489 Y42.1329 
G01 X-45.4971 Y42.0811 
G01 X-45.4604 Y42.0175 
G01 X-45.4414 Y41.9467 
G01 X-45.4414 Y41.5679 
G01 X-45.4387 Y41.5673 
G01 X-45.2632 Y41.4946 
G01 X-45.1052 Y41.3891 
G01 X-44.9709 Y41.2548 
G01 X-44.8654 Y41.0968 
G01 X-44.7927 Y40.9213 
G01 X-44.7556 Y40.7350 
G01 X-44.7556 Y40.5450 
G01 X-44.7927 Y40.3587 
G01 X-44.8654 Y40.1832 
G01 X-44.9709 Y40.0252 
G01 X-45.1052 Y39.8909 
G01 X-45.2632 Y39.7854 
G01 X-45.4387 Y39.7127 
G01 X-45.4414 Y39.7121 
G01 X-45.4414 Y28.6653 
G01 X-45.4604 Y28.5945 
G01 X-45.4971 Y28.5309 
G01 X-45.5489 Y28.4791 
G01 X-45.6125 Y28.4424 
G01 X-45.6833 Y28.4234 
G01 X-45.7567 Y28.4234 
G01 X-45.8275 Y28.4424 
G01 X-45.8826 Y28.4742 
G01 X-48.8022 Y28.4742 
G01 X-48.8022 Y24.9928 
G01 X-38.9437 Y24.9928 
G01 X-38.8600 Y24.9581 
G01 X-38.7959 Y24.8940 
G01 X-38.7612 Y24.8103 
G01 X-38.7612 Y24.3578 
G01 X-28.9298 Y24.3578 
G01 X-28.9298 Y27.4773 
G01 X-28.8951 Y27.5610 
G01 X-28.8310 Y27.6251 
G01 X-28.7473 Y27.6598 
G01 X-16.4647 Y27.6598 
G01 X-16.3810 Y27.6251 
G01 X-16.3169 Y27.5610 
G01 X-16.2822 Y27.4773 
G01 X-16.2822 Y25.0680 
G01 X-16.2287 Y25.0573 
G01 X-16.0532 Y24.9846 
G01 X-15.8952 Y24.8791 
G01 X-15.7609 Y24.7448 
G01 X-15.6554 Y24.5868 
G01 X-15.5827 Y24.4113 
G01 X-15.5456 Y24.2250 
G01 X-15.5456 Y24.0350 
G01 X-15.5827 Y23.8487 
G01 X-15.6554 Y23.6732 
G01 X-15.7609 Y23.5152 
G00 Z2.5400 
G00 X-18.1018 Y23.4965 
G01 Z-0.0800 F254.00 
G01 X-17.9316 Y23.9075 F254.00 
G01 X-17.9316 Y24.3525 
G01 X-18.1018 Y24.7635 
G01 X-18.4165 Y25.0782 
G01 X-18.8275 Y25.2484 
G01 X-19.2725 Y25.2484 
G01 X-19.6835 Y25.0782 
G01 X-19.9981 Y24.7635 
G01 X-20.1684 Y24.3525 
G01 X-20.1684 Y23.9075 
G01 X-19.9981 Y23.4965 
G01 X-19.6835 Y23.1818 
G01 X-19.2725 Y23.0116 
G01 X-18.8275 Y23.0116 
G01 X-18.4165 Y23.1818 
G01 X-18.1018 Y23.4965 
G00 Z2.5400 
G00 X-18.3009 Y23.5152 
G01 Z-0.0800 F254.00 
G01 X-18.4352 Y23.3809 F254.00 
G01 X-18.5932 Y23.2754 
G01 X-18.7687 Y23.2027 
G01 X-18.9550 Y23.1656 
G01 X-19.1450 Y23.1656 
G01 X-19.3313 Y23.2027 
G01 X-19.5068 Y23.2754 
G01 X-19.6648 Y23.3809 
G01 X-19.7991 Y23.5152 
G01 X-19.9046 Y23.6732 
G01 X-19.9773 Y23.8487 
G01 X-20.0144 Y24.0350 
G01 X-20.0144 Y24.2250 
G01 X-19.9773 Y24.4113 
G01 X-19.9046 Y24.5868 
G01 X-19.7991 Y24.7448 
G01 X-19.6648 Y24.8791 
G01 X-19.5068 Y24.9846 
G01 X-19.3313 Y25.0573 
G01 X-19.1450 Y25.0944 
G01 X-18.9550 Y25.0944 
G01 X-18.7687 Y25.0573 
G01 X-18.5932 Y24.9846 
G01 X-18.4352 Y24.8791 
G01 X-18.3009 Y24.7448 
G01 X-18.1954 Y24.5868 
G01 X-18.1227 Y24.4113 
G01 X-18.0856 Y24.2250 
G01 X-18.0856 Y24.0350 
G01 X-18.1227 Y23.8487 
G01 X-18.1954 Y23.6732 
G01 X-18.3009 Y23.5152 
G00 Z2.5400 
G00 X-20.6418 Y23.4965 
G01 Z-0.0800 F254.00 
G01 X-20.4716 Y23.9075 F254.00 
G01 X-20.4716 Y24.3525 
G01 X-20.6418 Y24.7635 
G01 X-20.9565 Y25.0782 
G01 X-21.3675 Y25.2484 
G01 X-21.8125 Y25.2484 
G01 X-22.2235 Y25.0782 
G01 X-22.5382 Y24.7635 
G01 X-22.7084 Y24.3525 
G01 X-22.7084 Y23.9075 
G01 X-22.5382 Y23.4965 
G01 X-22.2235 Y23.1818 
G01 X-21.8125 Y23.0116 
G01 X-21.3675 Y23.0116 
G01 X-20.9565 Y23.1818 
G01 X-20.6418 Y23.4965 
G00 Z2.5400 
G00 X-20.8409 Y23.5152 
G01 Z-0.0800 F254.00 
G01 X-20.9752 Y23.3809 F254.00 
G01 X-21.1332 Y23.2754 
G01 X-21.3087 Y23.2027 
G01 X-21.4950 Y23.1656 
G01 X-21.6850 Y23.1656 
G01 X-21.8713 Y23.2027 
G01 X-22.0468 Y23.2754 
G01 X-22.2048 Y23.3809 
G01 X-22.3391 Y23.5152 
G01 X-22.4446 Y23.6732 
G01 X-22.5173 Y23.8487 
G01 X-22.5544 Y24.0350 
G01 X-22.5544 Y24.2250 
G01 X-22.5173 Y24.4113 
G01 X-22.4446 Y24.5868 
G01 X-22.3391 Y24.7448 
G01 X-22.2048 Y24.8791 
G01 X-22.0468 Y24.9846 
G01 X-21.8713 Y25.0573 
G01 X-21.6850 Y25.0944 
G01 X-21.4950 Y25.0944 
G01 X-21.3087 Y25.0573 
G01 X-21.1332 Y24.9846 
G01 X-20.9752 Y24.8791 
G01 X-20.8409 Y24.7448 
G01 X-20.7354 Y24.5868 
G01 X-20.6627 Y24.4113 
G01 X-20.6256 Y24.2250 
G01 X-20.6256 Y24.0350 
G01 X-20.6627 Y23.8487 
G01 X-20.7354 Y23.6732 
G01 X-20.8409 Y23.5152 
G00 Z2.5400 
G00 X-20.9535 Y21.2681 
G01 Z-0.0800 F254.00 
G01 X-21.2681 Y20.9535 F254.00 
G01 X-21.4384 Y20.5425 
G01 X-21.4384 Y20.0975 
G01 X-21.2681 Y19.6865 
G01 X-20.9535 Y19.3718 
G01 X-20.5425 Y19.2016 
G01 X-20.0975 Y19.2016 
G01 X-19.6865 Y19.3718 
G01 X-19.3718 Y19.6865 
G01 X-19.2016 Y20.0975 
G01 X-19.2016 Y20.5425 
G01 X-19.3718 Y20.9535 
G01 X-19.6865 Y21.2681 
G01 X-20.0975 Y21.4384 
G01 X-20.5425 Y21.4384 
G01 X-20.9535 Y21.2681 
G00 Z2.5400 
G00 X-20.9348 Y21.0691 
G01 Z-0.0800 F254.00 
G01 X-20.7768 Y21.1746 F254.00 
G01 X-20.6013 Y21.2473 
G01 X-20.4150 Y21.2844 
G01 X-20.2250 Y21.2844 
G01 X-20.0387 Y21.2473 
G01 X-19.8632 Y21.1746 
G01 X-19.7052 Y21.0691 
G01 X-19.5709 Y20.9348 
G01 X-19.4654 Y20.7768 
G01 X-19.3927 Y20.6013 
G01 X-19.3556 Y20.4150 
G01 X-19.3556 Y20.2250 
G01 X-19.3927 Y20.0387 
G01 X-19.4654 Y19.8632 
G01 X-19.5709 Y19.7052 
G01 X-19.7052 Y19.5709 
G01 X-19.8632 Y19.4654 
G01 X-20.0387 Y19.3927 
G01 X-20.2250 Y19.3556 
G01 X-20.4150 Y19.3556 
G01 X-20.6013 Y19.3927 
G01 X-20.7768 Y19.4654 
G01 X-20.9348 Y19.5709 
G01 X-21.0691 Y19.7052 
G01 X-21.1746 Y19.8632 
G01 X-21.2473 Y20.0387 
G01 X-21.2844 Y20.2250 
G01 X-21.2844 Y20.4150 
G01 X-21.2473 Y20.6013 
G01 X-21.1746 Y20.7768 
G01 X-21.0691 Y20.9348 
G01 X-20.9348 Y21.0691 
G00 Z2.5400 
G00 X-21.9118 Y20.9535 
G01 Z-0.0800 F254.00 
G01 X-22.2265 Y21.2681 F254.00 
G01 X-22.6375 Y21.4384 
G01 X-23.0825 Y21.4384 
G01 X-23.4935 Y21.2681 
G01 X-23.8082 Y20.9535 
G01 X-23.9784 Y20.5425 
G01 X-23.9784 Y20.0975 
G01 X-23.8082 Y19.6865 
G01 X-23.4935 Y19.3718 
G01 X-23.0825 Y19.2016 
G01 X-22.6375 Y19.2016 
G01 X-22.2265 Y19.3718 
G01 X-21.9118 Y19.6865 
G01 X-21.7416 Y20.0975 
G01 X-21.7416 Y20.5425 
G01 X-21.9118 Y20.9535 
G00 Z2.5400 
G00 X-22.1109 Y20.9348 
G01 Z-0.0800 F254.00 
G01 X-22.0054 Y20.7768 F254.00 
G01 X-21.9327 Y20.6013 
G01 X-21.8956 Y20.4150 
G01 X-21.8956 Y20.2250 
G01 X-21.9327 Y20.0387 
G01 X-22.0054 Y19.8632 
G01 X-22.1109 Y19.7052 
G01 X-22.2452 Y19.5709 
G01 X-22.4032 Y19.4654 
G01 X-22.5787 Y19.3927 
G01 X-22.7650 Y19.3556 
G01 X-22.9550 Y19.3556 
G01 X-23.1413 Y19.3927 
G01 X-23.3168 Y19.4654 
G01 X-23.4748 Y19.5709 
G01 X-23.6091 Y19.7052 
G01 X-23.7146 Y19.8632 
G01 X-23.7873 Y20.0387 
G01 X-23.8244 Y20.2250 
G01 X-23.8244 Y20.4150 
G01 X-23.7873 Y20.6013 
G01 X-23.7146 Y20.7768 
G01 X-23.6091 Y20.9348 
G01 X-23.4748 Y21.0691 
G01 X-23.3168 Y21.1746 
G01 X-23.1413 Y21.2473 
G01 X-22.9550 Y21.2844 
G01 X-22.7650 Y21.2844 
G01 X-22.5787 Y21.2473 
G01 X-22.4032 Y21.1746 
G01 X-22.2452 Y21.0691 
G01 X-22.1109 Y20.9348 
G00 Z2.5400 
G00 X-24.4518 Y20.9535 
G01 Z-0.0800 F254.00 
G01 X-24.7665 Y21.2681 F254.00 
G01 X-25.1775 Y21.4384 
G01 X-25.6225 Y21.4384 
G01 X-26.0335 Y21.2681 
G01 X-26.3482 Y20.9535 
G01 X-26.5184 Y20.5425 
G01 X-26.5184 Y20.0975 
G01 X-26.3482 Y19.6865 
G01 X-26.0335 Y19.3718 
G01 X-25.6225 Y19.2016 
G01 X-25.1775 Y19.2016 
G01 X-24.7665 Y19.3718 
G01 X-24.4518 Y19.6865 
G01 X-24.2816 Y20.0975 
G01 X-24.2816 Y20.5425 
G01 X-24.4518 Y20.9535 
G00 Z2.5400 
G00 X-24.6509 Y20.9348 
G01 Z-0.0800 F254.00 
G01 X-24.5454 Y20.7768 F254.00 
G01 X-24.4727 Y20.6013 
G01 X-24.4356 Y20.4150 
G01 X-24.4356 Y20.2250 
G01 X-24.4727 Y20.0387 
G01 X-24.5454 Y19.8632 
G01 X-24.6509 Y19.7052 
G01 X-24.7852 Y19.5709 
G01 X-24.9432 Y19.4654 
G01 X-25.1187 Y19.3927 
G01 X-25.3050 Y19.3556 
G01 X-25.4950 Y19.3556 
G01 X-25.6813 Y19.3927 
G01 X-25.8568 Y19.4654 
G01 X-26.0148 Y19.5709 
G01 X-26.1491 Y19.7052 
G01 X-26.2546 Y19.8632 
G01 X-26.3273 Y20.0387 
G01 X-26.3644 Y20.2250 
G01 X-26.3644 Y20.4150 
G01 X-26.3273 Y20.6013 
G01 X-26.2546 Y20.7768 
G01 X-26.1491 Y20.9348 
G01 X-26.0148 Y21.0691 
G01 X-25.8568 Y21.1746 
G01 X-25.6813 Y21.2473 
G01 X-25.4950 Y21.2844 
G01 X-25.3050 Y21.2844 
G01 X-25.1187 Y21.2473 
G01 X-24.9432 Y21.1746 
G01 X-24.7852 Y21.0691 
G01 X-24.6509 Y20.9348 
G00 Z2.5400 
G00 X-26.9918 Y20.9535 
G01 Z-0.0800 F254.00 
G01 X-27.3065 Y21.2681 F254.00 
G01 X-27.7175 Y21.4384 
G01 X-28.1625 Y21.4384 
G01 X-28.5735 Y21.2681 
G01 X-28.8881 Y20.9535 
G01 X-29.0584 Y20.5425 
G01 X-29.0584 Y20.0975 
G01 X-28.8881 Y19.6865 
G01 X-28.5735 Y19.3718 
G01 X-28.1625 Y19.2016 
G01 X-27.7175 Y19.2016 
G01 X-27.3065 Y19.3718 
G01 X-26.9918 Y19.6865 
G01 X-26.8216 Y20.0975 
G01 X-26.8216 Y20.5425 
G01 X-26.9918 Y20.9535 
G00 Z2.5400 
G00 X-27.1909 Y20.9348 
G01 Z-0.0800 F254.00 
G01 X-27.0854 Y20.7768 F254.00 
G01 X-27.0127 Y20.6013 
G01 X-26.9756 Y20.4150 
G01 X-26.9756 Y20.2250 
G01 X-27.0127 Y20.0387 
G01 X-27.0854 Y19.8632 
G01 X-27.1909 Y19.7052 
G01 X-27.3252 Y19.5709 
G01 X-27.4832 Y19.4654 
G01 X-27.6587 Y19.3927 
G01 X-27.8450 Y19.3556 
G01 X-28.0350 Y19.3556 
G01 X-28.2213 Y19.3927 
G01 X-28.3968 Y19.4654 
G01 X-28.5548 Y19.5709 
G01 X-28.6891 Y19.7052 
G01 X-28.7946 Y19.8632 
G01 X-28.8673 Y20.0387 
G01 X-28.9044 Y20.2250 
G01 X-28.9044 Y20.4150 
G01 X-28.8673 Y20.6013 
G01 X-28.7946 Y20.7768 
G01 X-28.6891 Y20.9348 
G01 X-28.5548 Y21.0691 
G01 X-28.3968 Y21.1746 
G01 X-28.2213 Y21.2473 
G01 X-28.0350 Y21.2844 
G01 X-27.8450 Y21.2844 
G01 X-27.6587 Y21.2473 
G01 X-27.4832 Y21.1746 
G01 X-27.3252 Y21.0691 
G01 X-27.1909 Y20.9348 
G00 Z2.5400 
G00 X-27.3035 Y23.1818 
G01 Z-0.0800 F254.00 
G01 X-26.8925 Y23.0116 F254.00 
G01 X-26.4475 Y23.0116 
G01 X-26.0365 Y23.1818 
G01 X-25.7218 Y23.4965 
G01 X-25.5516 Y23.9075 
G01 X-25.5516 Y24.3525 
G01 X-25.7218 Y24.7635 
G01 X-26.0365 Y25.0782 
G01 X-26.4475 Y25.2484 
G01 X-26.8925 Y25.2484 
G01 X-27.3035 Y25.0782 
G01 X-27.6181 Y24.7635 
G01 X-27.7884 Y24.3525 
G01 X-27.7884 Y23.9075 
G01 X-27.6181 Y23.4965 
G01 X-27.3035 Y23.1818 
G00 Z2.5400 
G00 X-27.2848 Y23.3809 
G01 Z-0.0800 F254.00 
G01 X-27.4191 Y23.5152 F254.00 
G01 X-27.5246 Y23.6732 
G01 X-27.5973 Y23.8487 
G01 X-27.6344 Y24.0350 
G01 X-27.6344 Y24.2250 
G01 X-27.5973 Y24.4113 
G01 X-27.5246 Y24.5868 
G01 X-27.4191 Y24.7448 
G01 X-27.2848 Y24.8791 
G01 X-27.1268 Y24.9846 
G01 X-26.9513 Y25.0573 
G01 X-26.7650 Y25.0944 
G01 X-26.5750 Y25.0944 
G01 X-26.3887 Y25.0573 
G01 X-26.2132 Y24.9846 
G01 X-26.0552 Y24.8791 
G01 X-25.9209 Y24.7448 
G01 X-25.8154 Y24.5868 
G01 X-25.7427 Y24.4113 
G01 X-25.7056 Y24.2250 
G01 X-25.7056 Y24.0350 
G01 X-25.7427 Y23.8487 
G01 X-25.8154 Y23.6732 
G01 X-25.9209 Y23.5152 
G01 X-26.0552 Y23.3809 
G01 X-26.2132 Y23.2754 
G01 X-26.3887 Y23.2027 
G01 X-26.5750 Y23.1656 
G01 X-26.7650 Y23.1656 
G01 X-26.9513 Y23.2027 
G01 X-27.1268 Y23.2754 
G01 X-27.2848 Y23.3809 
G00 Z2.5400 
G00 X-25.0782 Y23.4965 
G01 Z-0.0800 F254.00 
G01 X-24.7635 Y23.1818 F254.00 
G01 X-24.3525 Y23.0116 
G01 X-23.9075 Y23.0116 
G01 X-23.4965 Y23.1818 
G01 X-23.1818 Y23.4965 
G01 X-23.0116 Y23.9075 
G01 X-23.0116 Y24.3525 
G01 X-23.1818 Y24.7635 
G01 X-23.4965 Y25.0782 
G01 X-23.9075 Y25.2484 
G01 X-24.3525 Y25.2484 
G01 X-24.7635 Y25.0782 
G01 X-25.0782 Y24.7635 
G01 X-25.2484 Y24.3525 
G01 X-25.2484 Y23.9075 
G01 X-25.0782 Y23.4965 
G00 Z2.5400 
G00 X-24.8791 Y23.5152 
G01 Z-0.0800 F254.00 
G01 X-24.9846 Y23.6732 F254.00 
G01 X-25.0573 Y23.8487 
G01 X-25.0944 Y24.0350 
G01 X-25.0944 Y24.2250 
G01 X-25.0573 Y24.4113 
G01 X-24.9846 Y24.5868 
G01 X-24.8791 Y24.7448 
G01 X-24.7448 Y24.8791 
G01 X-24.5868 Y24.9846 
G01 X-24.4113 Y25.0573 
G01 X-24.2250 Y25.0944 
G01 X-24.0350 Y25.0944 
G01 X-23.8487 Y25.0573 
G01 X-23.6732 Y24.9846 
G01 X-23.5152 Y24.8791 
G01 X-23.3809 Y24.7448 
G01 X-23.2754 Y24.5868 
G01 X-23.2027 Y24.4113 
G01 X-23.1656 Y24.2250 
G01 X-23.1656 Y24.0350 
G01 X-23.2027 Y23.8487 
G01 X-23.2754 Y23.6732 
G01 X-23.3809 Y23.5152 
G01 X-23.5152 Y23.3809 
G01 X-23.6732 Y23.2754 
G01 X-23.8487 Y23.2027 
G01 X-24.0350 Y23.1656 
G01 X-24.2250 Y23.1656 
G01 X-24.4113 Y23.2027 
G01 X-24.5868 Y23.2754 
G01 X-24.7448 Y23.3809 
G01 X-24.8791 Y23.5152 
G00 Z2.5400 
G00 X-26.4908 Y28.7774 
G01 Z-0.0800 F254.00 
G01 X-26.2374 Y29.0308 F254.00 
G01 X-26.2374 Y38.2792 
G01 X-26.4908 Y38.5326 
G01 X-32.5270 Y38.5326 
G01 X-32.5547 Y38.5441 
G01 X-32.5759 Y38.5653 
G01 X-32.5874 Y38.5930 
G01 X-32.5874 Y39.5732 
G01 X-32.5759 Y39.6010 
G01 X-32.5547 Y39.6222 
G01 X-32.3865 Y39.6918 
G01 X-32.0718 Y40.0065 
G01 X-31.9016 Y40.4175 
G01 X-31.9016 Y40.8625 
G01 X-32.0718 Y41.2735 
G01 X-32.3865 Y41.5881 
G01 X-32.7975 Y41.7584 
G01 X-33.2425 Y41.7584 
G01 X-33.6535 Y41.5881 
G01 X-33.9682 Y41.2735 
G01 X-34.1384 Y40.8625 
G01 X-34.1384 Y40.4175 
G01 X-33.9682 Y40.0065 
G01 X-33.6535 Y39.6918 
G01 X-33.4853 Y39.6222 
G01 X-33.4641 Y39.6010 
G01 X-33.4526 Y39.5732 
G01 X-33.4526 Y37.9208 
G01 X-33.1992 Y37.6674 
G01 X-27.1630 Y37.6674 
G01 X-27.1353 Y37.6559 
G01 X-27.1141 Y37.6347 
G01 X-27.1026 Y37.6070 
G01 X-27.1026 Y29.7030 
G01 X-27.1141 Y29.6753 
G01 X-27.1353 Y29.6541 
G01 X-27.1630 Y29.6426 
G01 X-30.0587 Y29.6426 
G01 X-30.0856 Y29.6538 
G01 X-30.1076 Y29.6753 
G01 X-30.1191 Y29.7030 
G01 X-30.1475 Y29.7716 
G01 X-30.4264 Y30.0505 
G01 X-30.7908 Y30.2014 
G01 X-32.7092 Y30.2014 
G01 X-33.0736 Y30.0505 
G01 X-33.3525 Y29.7716 
G01 X-33.5034 Y29.4072 
G01 X-33.5034 Y29.0128 
G01 X-33.3525 Y28.6484 
G01 X-33.0736 Y28.3695 
G01 X-32.7092 Y28.2186 
G01 X-30.7908 Y28.2186 
G01 X-30.4264 Y28.3695 
G01 X-30.1475 Y28.6484 
G01 X-30.1191 Y28.7170 
G01 X-30.1076 Y28.7447 
G01 X-30.0867 Y28.7656 
G01 X-30.0587 Y28.7774 
G01 X-26.4908 Y28.7774 
G00 Z2.5400 
G00 X-26.4989 Y28.9871 
G01 Z-0.0800 F254.00 
G01 X-26.5625 Y28.9504 F254.00 
G01 X-26.6333 Y28.9314 
G01 X-30.1970 Y28.9314 
G01 X-30.2459 Y28.8133 
G01 X-30.3375 Y28.6762 
G01 X-30.4542 Y28.5595 
G01 X-30.5913 Y28.4679 
G01 X-30.7437 Y28.4048 
G01 X-30.9055 Y28.3726 
G01 X-32.5945 Y28.3726 
G01 X-32.7563 Y28.4048 
G01 X-32.9087 Y28.4679 
G01 X-33.0458 Y28.5595 
G01 X-33.1624 Y28.6762 
G01 X-33.2541 Y28.8133 
G01 X-33.3172 Y28.9657 
G01 X-33.3494 Y29.1275 
G01 X-33.3494 Y29.2925 
G01 X-33.3172 Y29.4543 
G01 X-33.2541 Y29.6067 
G01 X-33.1624 Y29.7438 
G01 X-33.0458 Y29.8605 
G01 X-32.9087 Y29.9521 
G01 X-32.7563 Y30.0152 
G01 X-32.5945 Y30.0474 
G01 X-30.9055 Y30.0474 
G01 X-30.7437 Y30.0152 
G01 X-30.5913 Y29.9521 
G01 X-30.4542 Y29.8605 
G01 X-30.3375 Y29.7438 
G01 X-30.2459 Y29.6067 
G01 X-30.1970 Y29.4886 
G01 X-26.9486 Y29.4886 
G01 X-26.9486 Y37.8214 
G01 X-33.0567 Y37.8214 
G01 X-33.1275 Y37.8404 
G01 X-33.1911 Y37.8771 
G01 X-33.2429 Y37.9289 
G01 X-33.2796 Y37.9925 
G01 X-33.2986 Y38.0633 
G01 X-33.2986 Y39.7121 
G01 X-33.3013 Y39.7127 
G01 X-33.4768 Y39.7854 
G01 X-33.6348 Y39.8909 
G01 X-33.7691 Y40.0252 
G01 X-33.8746 Y40.1832 
G01 X-33.9473 Y40.3587 
G01 X-33.9844 Y40.5450 
G01 X-33.9844 Y40.7350 
G01 X-33.9473 Y40.9213 
G01 X-33.8746 Y41.0968 
G01 X-33.7691 Y41.2548 
G01 X-33.6348 Y41.3891 
G01 X-33.4768 Y41.4946 
G01 X-33.3013 Y41.5673 
G01 X-33.1150 Y41.6044 
G01 X-32.9250 Y41.6044 
G01 X-32.7387 Y41.5673 
G01 X-32.5632 Y41.4946 
G01 X-32.4052 Y41.3891 
G01 X-32.2709 Y41.2548 
G01 X-32.1654 Y41.0968 
G01 X-32.0927 Y40.9213 
G01 X-32.0556 Y40.7350 
G01 X-32.0556 Y40.5450 
G01 X-32.0927 Y40.3587 
G01 X-32.1654 Y40.1832 
G01 X-32.2709 Y40.0252 
G01 X-32.4052 Y39.8909 
G01 X-32.5632 Y39.7854 
G01 X-32.7387 Y39.7127 
G01 X-32.7414 Y39.7121 
G01 X-32.7414 Y38.3786 
G01 X-26.6333 Y38.3786 
G01 X-26.5625 Y38.3596 
G01 X-26.4989 Y38.3229 
G01 X-26.4471 Y38.2711 
G01 X-26.4104 Y38.2075 
G01 X-26.3914 Y38.1367 
G01 X-26.3914 Y29.1733 
G01 X-26.4104 Y29.1025 
G01 X-26.4471 Y29.0389 
G01 X-26.4989 Y28.9871 
G00 Z2.5400 
G00 X-30.4264 Y30.9095 
G01 Z-0.0800 F254.00 
G01 X-30.1475 Y31.1884 F254.00 
G01 X-29.9966 Y31.5528 
G01 X-29.9966 Y31.9472 
G01 X-30.1475 Y32.3116 
G01 X-30.4264 Y32.5905 
G01 X-30.7908 Y32.7414 
G01 X-32.7092 Y32.7414 
G01 X-33.0736 Y32.5905 
G01 X-33.3525 Y32.3116 
G01 X-33.3809 Y32.2430 
G01 X-33.3924 Y32.2153 
G01 X-33.4136 Y32.1941 
G01 X-33.4412 Y32.1827 
G01 X-37.6070 Y32.1826 
G01 X-37.6347 Y32.1941 
G01 X-37.6559 Y32.2153 
G01 X-37.6674 Y32.2430 
G01 X-37.6674 Y39.5732 
G01 X-37.6559 Y39.6010 
G01 X-37.6347 Y39.6222 
G01 X-37.4665 Y39.6918 
G01 X-37.1518 Y40.0065 
G01 X-36.9816 Y40.4175 
G01 X-36.9816 Y40.8625 
G01 X-37.1518 Y41.2735 
G01 X-37.4665 Y41.5881 
G01 X-37.8775 Y41.7584 
G01 X-38.3225 Y41.7584 
G01 X-38.7335 Y41.5881 
G01 X-39.0481 Y41.2735 
G01 X-39.2184 Y40.8625 
G01 X-39.2184 Y40.4175 
G01 X-39.0481 Y40.0065 
G01 X-38.7335 Y39.6918 
G01 X-38.5653 Y39.6222 
G01 X-38.5441 Y39.6010 
G01 X-38.5326 Y39.5732 
G01 X-38.5326 Y31.5708 
G01 X-38.2792 Y31.3174 
G01 X-33.4413 Y31.3174 
G01 X-33.4144 Y31.3062 
G01 X-33.3924 Y31.2847 
G01 X-33.3809 Y31.2570 
G01 X-33.3525 Y31.1884 
G01 X-33.0736 Y30.9095 
G01 X-32.7092 Y30.7586 
G01 X-30.7908 Y30.7586 
G01 X-30.4264 Y30.9095 
G00 Z2.5400 
G00 X-30.4542 Y31.0995 
G01 Z-0.0800 F254.00 
G01 X-30.5913 Y31.0079 F254.00 
G01 X-30.7437 Y30.9448 
G01 X-30.9055 Y30.9126 
G01 X-32.5945 Y30.9126 
G01 X-32.7563 Y30.9448 
G01 X-32.9087 Y31.0079 
G01 X-33.0458 Y31.0995 
G01 X-33.1624 Y31.2162 
G01 X-33.2541 Y31.3533 
G01 X-33.3030 Y31.4714 
G01 X-38.1367 Y31.4714 
G01 X-38.2075 Y31.4904 
G01 X-38.2711 Y31.5271 
G01 X-38.3229 Y31.5789 
G01 X-38.3596 Y31.6425 
G01 X-38.3786 Y31.7133 
G01 X-38.3786 Y39.7121 
G01 X-38.3813 Y39.7127 
G01 X-38.5568 Y39.7854 
G01 X-38.7148 Y39.8909 
G01 X-38.8491 Y40.0252 
G01 X-38.9546 Y40.1832 
G01 X-39.0273 Y40.3587 
G01 X-39.0644 Y40.5450 
G01 X-39.0644 Y40.7350 
G01 X-39.0273 Y40.9213 
G01 X-38.9546 Y41.0968 
G01 X-38.8491 Y41.2548 
G01 X-38.7148 Y41.3891 
G01 X-38.5568 Y41.4946 
G01 X-38.3813 Y41.5673 
G01 X-38.1950 Y41.6044 
G01 X-38.0050 Y41.6044 
G01 X-37.8187 Y41.5673 
G01 X-37.6432 Y41.4946 
G01 X-37.4852 Y41.3891 
G01 X-37.3509 Y41.2548 
G01 X-37.2454 Y41.0968 
G01 X-37.1727 Y40.9213 
G01 X-37.1356 Y40.7350 
G01 X-37.1356 Y40.5450 
G01 X-37.1727 Y40.3587 
G01 X-37.2454 Y40.1832 
G01 X-37.3509 Y40.0252 
G01 X-37.4852 Y39.8909 
G01 X-37.6432 Y39.7854 
G01 X-37.8187 Y39.7127 
G01 X-37.8214 Y39.7121 
G01 X-37.8214 Y32.0286 
G01 X-33.3030 Y32.0286 
G01 X-33.2541 Y32.1467 
G01 X-33.1624 Y32.2838 
G01 X-33.0458 Y32.4004 
G01 X-32.9087 Y32.4921 
G01 X-32.7563 Y32.5552 
G01 X-32.5945 Y32.5874 
G01 X-30.9055 Y32.5874 
G01 X-30.7437 Y32.5552 
G01 X-30.5913 Y32.4921 
G01 X-30.4542 Y32.4004 
G01 X-30.3375 Y32.2838 
G01 X-30.2459 Y32.1467 
G01 X-30.1828 Y31.9943 
G01 X-30.1506 Y31.8325 
G01 X-30.1506 Y31.6675 
G01 X-30.1828 Y31.5057 
G01 X-30.2459 Y31.3533 
G01 X-30.3375 Y31.2162 
G01 X-30.4542 Y31.0995 
G00 Z2.5400 
G00 X-30.4264 Y33.4495 
G01 Z-0.0800 F254.00 
G01 X-30.2332 Y33.6427 F254.00 
G01 X-30.2055 Y33.6542 
G01 X-30.1030 Y33.6542 
G01 X-30.0753 Y33.6427 
G01 X-30.0541 Y33.6215 
G01 X-30.0426 Y33.5938 
G01 X-29.9082 Y33.4574 
G01 X-28.5118 Y33.4574 
G01 X-28.3774 Y33.5918 
G01 X-28.3774 Y34.9882 
G01 X-28.5118 Y35.1226 
G01 X-29.9082 Y35.1226 
G01 X-30.0426 Y34.9882 
G01 X-30.0541 Y34.9585 
G01 X-30.0753 Y34.9373 
G01 X-30.1030 Y34.9258 
G01 X-30.2055 Y34.9258 
G01 X-30.2332 Y34.9373 
G01 X-30.2544 Y34.9585 
G01 X-30.4264 Y35.1305 
G01 X-30.7908 Y35.2814 
G01 X-31.8260 Y35.2814 
G01 X-31.8537 Y35.2929 
G01 X-31.8749 Y35.3141 
G01 X-34.7159 Y38.1551 
G01 X-34.7274 Y38.1828 
G01 X-34.7274 Y38.7982 
G01 X-34.8618 Y38.9326 
G01 X-36.2582 Y38.9326 
G01 X-36.3926 Y38.7982 
G01 X-36.3926 Y37.4018 
G01 X-36.2582 Y37.2674 
G01 X-35.6428 Y37.2674 
G01 X-35.6151 Y37.2559 
G01 X-35.5939 Y37.2347 
G01 X-33.3243 Y34.9652 
G01 X-33.3177 Y34.9492 
G01 X-33.3129 Y34.9374 
G01 X-33.3129 Y34.9074 
G01 X-33.3175 Y34.8963 
G01 X-33.3243 Y34.8797 
G01 X-33.3455 Y34.8585 
G01 X-33.3525 Y34.8516 
G01 X-33.5034 Y34.4872 
G01 X-33.5034 Y34.0928 
G01 X-33.3525 Y33.7284 
G01 X-33.0736 Y33.4495 
G01 X-32.7092 Y33.2986 
G01 X-30.7908 Y33.2986 
G01 X-30.4264 Y33.4495 
G00 Z2.5400 
G00 X-30.4542 Y33.6395 
G01 Z-0.0800 F254.00 
G01 X-30.5913 Y33.5479 F254.00 
G01 X-30.7437 Y33.4848 
G01 X-30.9055 Y33.4526 
G01 X-32.5945 Y33.4526 
G01 X-32.7563 Y33.4848 
G01 X-32.9087 Y33.5479 
G01 X-33.0458 Y33.6395 
G01 X-33.1624 Y33.7562 
G01 X-33.2541 Y33.8933 
G01 X-33.3172 Y34.0457 
G01 X-33.3494 Y34.2075 
G01 X-33.3494 Y34.3725 
G01 X-33.3172 Y34.5343 
G01 X-33.2541 Y34.6867 
G01 X-33.1624 Y34.8238 
G01 X-33.0638 Y34.9224 
G01 X-35.5628 Y37.4214 
G01 X-36.1782 Y37.4214 
G01 X-36.2059 Y37.4329 
G01 X-36.2271 Y37.4541 
G01 X-36.2386 Y37.4818 
G01 X-36.2386 Y38.7182 
G01 X-36.2271 Y38.7459 
G01 X-36.2059 Y38.7671 
G01 X-36.1782 Y38.7786 
G01 X-34.9418 Y38.7786 
G01 X-34.9141 Y38.7671 
G01 X-34.8929 Y38.7459 
G01 X-34.8814 Y38.7182 
G01 X-34.8814 Y38.1028 
G01 X-31.9060 Y35.1274 
G01 X-30.9055 Y35.1274 
G01 X-30.7437 Y35.0952 
G01 X-30.5913 Y35.0321 
G01 X-30.4542 Y34.9404 
G01 X-30.3375 Y34.8238 
G01 X-30.3028 Y34.7718 
G01 X-29.8886 Y34.7718 
G01 X-29.8886 Y34.9082 
G01 X-29.8771 Y34.9359 
G01 X-29.8559 Y34.9571 
G01 X-29.8282 Y34.9686 
G01 X-28.5918 Y34.9686 
G01 X-28.5641 Y34.9571 
G01 X-28.5429 Y34.9359 
G01 X-28.5314 Y34.9082 
G01 X-28.5314 Y33.6718 
G01 X-28.5429 Y33.6441 
G01 X-28.5641 Y33.6229 
G01 X-28.5918 Y33.6114 
G01 X-29.8282 Y33.6114 
G01 X-29.8559 Y33.6229 
G01 X-29.8771 Y33.6441 
G01 X-29.8886 Y33.6718 
G01 X-29.8886 Y33.8082 
G01 X-30.3028 Y33.8082 
G01 X-30.3375 Y33.7562 
G01 X-30.4542 Y33.6395 
G00 Z2.5400 
G00 X-30.2575 Y39.5216 
G01 Z-0.0800 F254.00 
G01 X-29.8465 Y39.6918 F254.00 
G01 X-29.5318 Y40.0065 
G01 X-29.3616 Y40.4175 
G01 X-29.3616 Y40.8625 
G01 X-29.5318 Y41.2735 
G01 X-29.8465 Y41.5881 
G01 X-30.2575 Y41.7584 
G01 X-30.7025 Y41.7584 
G01 X-31.1135 Y41.5881 
G01 X-31.4281 Y41.2735 
G01 X-31.5984 Y40.8625 
G01 X-31.5984 Y40.4175 
G01 X-31.4281 Y40.0065 
G01 X-31.1135 Y39.6918 
G01 X-30.7025 Y39.5216 
G01 X-30.2575 Y39.5216 
G00 Z2.5400 
G00 X-30.1987 Y39.7127 
G01 Z-0.0800 F254.00 
G01 X-30.3850 Y39.6756 F254.00 
G01 X-30.5750 Y39.6756 
G01 X-30.7613 Y39.7127 
G01 X-30.9368 Y39.7854 
G01 X-31.0948 Y39.8909 
G01 X-31.2291 Y40.0252 
G01 X-31.3346 Y40.1832 
G01 X-31.4073 Y40.3587 
G01 X-31.4444 Y40.5450 
G01 X-31.4444 Y40.7350 
G01 X-31.4073 Y40.9213 
G01 X-31.3346 Y41.0968 
G01 X-31.2291 Y41.2548 
G01 X-31.0948 Y41.3891 
G01 X-30.9368 Y41.4946 
G01 X-30.7613 Y41.5673 
G01 X-30.5750 Y41.6044 
G01 X-30.3850 Y41.6044 
G01 X-30.1987 Y41.5673 
G01 X-30.0232 Y41.4946 
G01 X-29.8652 Y41.3891 
G01 X-29.7309 Y41.2548 
G01 X-29.6254 Y41.0968 
G01 X-29.5527 Y40.9213 
G01 X-29.5156 Y40.7350 
G01 X-29.5156 Y40.5450 
G01 X-29.5527 Y40.3587 
G01 X-29.6254 Y40.1832 
G01 X-29.7309 Y40.0252 
G01 X-29.8652 Y39.8909 
G01 X-30.0232 Y39.7854 
G01 X-30.1987 Y39.7127 
G00 Z2.5400 
G00 X-28.8881 Y40.0065 
G01 Z-0.0800 F254.00 
G01 X-28.5735 Y39.6918 F254.00 
G01 X-28.1625 Y39.5216 
G01 X-27.7175 Y39.5216 
G01 X-27.3065 Y39.6918 
G01 X-26.9918 Y40.0065 
G01 X-26.8216 Y40.4175 
G01 X-26.8216 Y40.8625 
G01 X-26.9918 Y41.2735 
G01 X-27.3065 Y41.5881 
G01 X-27.7175 Y41.7584 
G01 X-28.1625 Y41.7584 
G01 X-28.5735 Y41.5881 
G01 X-28.8881 Y41.2735 
G01 X-29.0584 Y40.8625 
G01 X-29.0584 Y40.4175 
G01 X-28.8881 Y40.0065 
G00 Z2.5400 
G00 X-28.6891 Y40.0252 
G01 Z-0.0800 F254.00 
G01 X-28.7946 Y40.1832 F254.00 
G01 X-28.8673 Y40.3587 
G01 X-28.9044 Y40.5450 
G01 X-28.9044 Y40.7350 
G01 X-28.8673 Y40.9213 
G01 X-28.7946 Y41.0968 
G01 X-28.6891 Y41.2548 
G01 X-28.5548 Y41.3891 
G01 X-28.3968 Y41.4946 
G01 X-28.2213 Y41.5673 
G01 X-28.0350 Y41.6044 
G01 X-27.8450 Y41.6044 
G01 X-27.6587 Y41.5673 
G01 X-27.4832 Y41.4946 
G01 X-27.3252 Y41.3891 
G01 X-27.1909 Y41.2548 
G01 X-27.0854 Y41.0968 
G01 X-27.0127 Y40.9213 
G01 X-26.9756 Y40.7350 
G01 X-26.9756 Y40.5450 
G01 X-27.0127 Y40.3587 
G01 X-27.0854 Y40.1832 
G01 X-27.1909 Y40.0252 
G01 X-27.3252 Y39.8909 
G01 X-27.4832 Y39.7854 
G01 X-27.6587 Y39.7127 
G01 X-27.8450 Y39.6756 
G01 X-28.0350 Y39.6756 
G01 X-28.2213 Y39.7127 
G01 X-28.3968 Y39.7854 
G01 X-28.5548 Y39.8909 
G01 X-28.6891 Y40.0252 
G00 Z2.5400 
G00 X-26.3482 Y40.0065 
G01 Z-0.0800 F254.00 
G01 X-26.0335 Y39.6918 F254.00 
G01 X-25.6225 Y39.5216 
G01 X-25.1775 Y39.5216 
G01 X-24.7665 Y39.6918 
G01 X-24.4518 Y40.0065 
G01 X-24.2816 Y40.4175 
G01 X-24.2816 Y40.8625 
G01 X-24.4518 Y41.2735 
G01 X-24.7665 Y41.5881 
G01 X-25.1775 Y41.7584 
G01 X-25.6225 Y41.7584 
G01 X-26.0335 Y41.5881 
G01 X-26.3482 Y41.2735 
G01 X-26.5184 Y40.8625 
G01 X-26.5184 Y40.4175 
G01 X-26.3482 Y40.0065 
G00 Z2.5400 
G00 X-26.1491 Y40.0252 
G01 Z-0.0800 F254.00 
G01 X-26.2546 Y40.1832 F254.00 
G01 X-26.3273 Y40.3587 
G01 X-26.3644 Y40.5450 
G01 X-26.3644 Y40.7350 
G01 X-26.3273 Y40.9213 
G01 X-26.2546 Y41.0968 
G01 X-26.1491 Y41.2548 
G01 X-26.0148 Y41.3891 
G01 X-25.8568 Y41.4946 
G01 X-25.6813 Y41.5673 
G01 X-25.4950 Y41.6044 
G01 X-25.3050 Y41.6044 
G01 X-25.1187 Y41.5673 
G01 X-24.9432 Y41.4946 
G01 X-24.7852 Y41.3891 
G01 X-24.6509 Y41.2548 
G01 X-24.5454 Y41.0968 
G01 X-24.4727 Y40.9213 
G01 X-24.4356 Y40.7350 
G01 X-24.4356 Y40.5450 
G01 X-24.4727 Y40.3587 
G01 X-24.5454 Y40.1832 
G01 X-24.6509 Y40.0252 
G01 X-24.7852 Y39.8909 
G01 X-24.9432 Y39.7854 
G01 X-25.1187 Y39.7127 
G01 X-25.3050 Y39.6756 
G01 X-25.4950 Y39.6756 
G01 X-25.6813 Y39.7127 
G01 X-25.8568 Y39.7854 
G01 X-26.0148 Y39.8909 
G01 X-26.1491 Y40.0252 
G00 Z2.5400 
G00 X-23.8082 Y40.0065 
G01 Z-0.0800 F254.00 
G01 X-23.4935 Y39.6918 F254.00 
G01 X-23.0825 Y39.5216 
G01 X-22.6375 Y39.5216 
G01 X-22.2265 Y39.6918 
G01 X-21.9118 Y40.0065 
G01 X-21.7416 Y40.4175 
G01 X-21.7416 Y40.8625 
G01 X-21.9118 Y41.2735 
G01 X-22.2265 Y41.5881 
G01 X-22.6375 Y41.7584 
G01 X-23.0825 Y41.7584 
G01 X-23.4935 Y41.5881 
G01 X-23.8082 Y41.2735 
G01 X-23.9784 Y40.8625 
G01 X-23.9784 Y40.4175 
G01 X-23.8082 Y40.0065 
G00 Z2.5400 
G00 X-23.6091 Y40.0252 
G01 Z-0.0800 F254.00 
G01 X-23.7146 Y40.1832 F254.00 
G01 X-23.7873 Y40.3587 
G01 X-23.8244 Y40.5450 
G01 X-23.8244 Y40.7350 
G01 X-23.7873 Y40.9213 
G01 X-23.7146 Y41.0968 
G01 X-23.6091 Y41.2548 
G01 X-23.4748 Y41.3891 
G01 X-23.3168 Y41.4946 
G01 X-23.1413 Y41.5673 
G01 X-22.9550 Y41.6044 
G01 X-22.7650 Y41.6044 
G01 X-22.5787 Y41.5673 
G01 X-22.4032 Y41.4946 
G01 X-22.2452 Y41.3891 
G01 X-22.1109 Y41.2548 
G01 X-22.0054 Y41.0968 
G01 X-21.9327 Y40.9213 
G01 X-21.8956 Y40.7350 
G01 X-21.8956 Y40.5450 
G01 X-21.9327 Y40.3587 
G01 X-22.0054 Y40.1832 
G01 X-22.1109 Y40.0252 
G01 X-22.2452 Y39.8909 
G01 X-22.4032 Y39.7854 
G01 X-22.5787 Y39.7127 
G01 X-22.7650 Y39.6756 
G01 X-22.9550 Y39.6756 
G01 X-23.1413 Y39.7127 
G01 X-23.3168 Y39.7854 
G01 X-23.4748 Y39.8909 
G01 X-23.6091 Y40.0252 
G00 Z2.5400 
G00 X-21.2681 Y40.0065 
G01 Z-0.0800 F254.00 
G01 X-20.9535 Y39.6918 F254.00 
G01 X-20.5425 Y39.5216 
G01 X-20.0975 Y39.5216 
G01 X-19.6865 Y39.6918 
G01 X-19.3718 Y40.0065 
G01 X-19.2016 Y40.4175 
G01 X-19.2016 Y40.8625 
G01 X-19.3718 Y41.2735 
G01 X-19.6865 Y41.5881 
G01 X-20.0975 Y41.7584 
G01 X-20.5425 Y41.7584 
G01 X-20.9535 Y41.5881 
G01 X-21.2681 Y41.2735 
G01 X-21.4384 Y40.8625 
G01 X-21.4384 Y40.4175 
G01 X-21.2681 Y40.0065 
G00 Z2.5400 
G00 X-21.0691 Y40.0252 
G01 Z-0.0800 F254.00 
G01 X-21.1746 Y40.1832 F254.00 
G01 X-21.2473 Y40.3587 
G01 X-21.2844 Y40.5450 
G01 X-21.2844 Y40.7350 
G01 X-21.2473 Y40.9213 
G01 X-21.1746 Y41.0968 
G01 X-21.0691 Y41.2548 
G01 X-20.9348 Y41.3891 
G01 X-20.7768 Y41.4946 
G01 X-20.6013 Y41.5673 
G01 X-20.4150 Y41.6044 
G01 X-20.2250 Y41.6044 
G01 X-20.0387 Y41.5673 
G01 X-19.8632 Y41.4946 
G01 X-19.7052 Y41.3891 
G01 X-19.5709 Y41.2548 
G01 X-19.4654 Y41.0968 
G01 X-19.3927 Y40.9213 
G01 X-19.3556 Y40.7350 
G01 X-19.3556 Y40.5450 
G01 X-19.3927 Y40.3587 
G01 X-19.4654 Y40.1832 
G01 X-19.5709 Y40.0252 
G01 X-19.7052 Y39.8909 
G01 X-19.8632 Y39.7854 
G01 X-20.0387 Y39.7127 
G01 X-20.2250 Y39.6756 
G01 X-20.4150 Y39.6756 
G01 X-20.6013 Y39.7127 
G01 X-20.7768 Y39.7854 
G01 X-20.9348 Y39.8909 
G01 X-21.0691 Y40.0252 
G00 Z2.5400 
G00 X-18.5291 Y40.0252 
G01 Z-0.0800 F254.00 
G01 X-18.6346 Y40.1832 F254.00 
G01 X-18.7073 Y40.3587 
G01 X-18.7444 Y40.5450 
G01 X-18.7444 Y40.7350 
G01 X-18.7073 Y40.9213 
G01 X-18.6346 Y41.0968 
G01 X-18.5291 Y41.2548 
G01 X-18.3948 Y41.3891 
G01 X-18.2368 Y41.4946 
G01 X-18.0613 Y41.5673 
G01 X-17.8750 Y41.6044 
G01 X-17.6850 Y41.6044 
G01 X-17.4987 Y41.5673 
G01 X-17.3232 Y41.4946 
G01 X-17.1652 Y41.3891 
G01 X-17.0309 Y41.2548 
G01 X-16.9254 Y41.0968 
G01 X-16.8527 Y40.9213 
G01 X-16.8156 Y40.7350 
G01 X-16.8156 Y40.5450 
G01 X-16.8527 Y40.3587 
G01 X-16.9254 Y40.1832 
G01 X-17.0309 Y40.0252 
G01 X-17.1652 Y39.8909 
G01 X-17.3232 Y39.7854 
G01 X-17.4987 Y39.7127 
G01 X-17.5014 Y39.7121 
G01 X-17.5014 Y38.5054 
G01 X-16.9650 Y38.5054 
G01 X-16.9373 Y38.4939 
G01 X-16.9161 Y38.4727 
G01 X-16.9046 Y38.4450 
G01 X-16.9046 Y37.1150 
G01 X-16.9161 Y37.0873 
G01 X-16.9373 Y37.0661 
G01 X-16.9650 Y37.0546 
G01 X-18.5950 Y37.0546 
G01 X-18.6227 Y37.0661 
G01 X-18.6439 Y37.0873 
G01 X-18.6554 Y37.1150 
G01 X-18.6554 Y38.4450 
G01 X-18.6439 Y38.4727 
G01 X-18.6227 Y38.4939 
G01 X-18.5950 Y38.5054 
G01 X-18.0586 Y38.5054 
G01 X-18.0586 Y39.7121 
G01 X-18.0613 Y39.7127 
G01 X-18.2368 Y39.7854 
G01 X-18.3948 Y39.8909 
G01 X-18.5291 Y40.0252 
G00 Z2.5400 
G00 X-5.6893 Y40.0079 
G01 Z-0.0800 F254.00 
G01 X-5.5900 Y40.2478 F254.00 
G01 X-5.4602 Y40.4726 
G01 X-5.3021 Y40.6786 
G01 X-5.1186 Y40.8621 
G01 X-4.9126 Y41.0202 
G01 X-4.6878 Y41.1500 
G01 X-4.4479 Y41.2493 
G01 X-4.1972 Y41.3165 
G01 X-3.9398 Y41.3504 
G01 X-3.6802 Y41.3504 
G01 X-3.4228 Y41.3165 
G01 X-3.1721 Y41.2493 
G01 X-2.9322 Y41.1500 
G01 X-2.7074 Y41.0202 
G01 X-2.5014 Y40.8621 
G01 X-2.3179 Y40.6786 
G01 X-2.1598 Y40.4726 
G01 X-2.0300 Y40.2478 
G01 X-1.9307 Y40.0079 
G01 X-1.8635 Y39.7572 
G01 X-1.8296 Y39.4998 
G01 X-1.8296 Y39.2402 
G01 X-1.8635 Y38.9828 
G01 X-1.9307 Y38.7321 
G01 X-2.0300 Y38.4922 
G01 X-2.1598 Y38.2674 
G01 X-2.3179 Y38.0614 
G01 X-2.5014 Y37.8779 
G01 X-2.7074 Y37.7198 
G01 X-2.9322 Y37.5900 
G01 X-3.1721 Y37.4907 
G01 X-3.4228 Y37.4235 
G01 X-3.6802 Y37.3896 
G01 X-3.9398 Y37.3896 
G01 X-4.1972 Y37.4235 
G01 X-4.4479 Y37.4907 
G01 X-4.6878 Y37.5900 
G01 X-4.9126 Y37.7198 
G01 X-5.1186 Y37.8779 
G01 X-5.3021 Y38.0614 
G01 X-5.4602 Y38.2674 
G01 X-5.5900 Y38.4922 
G01 X-5.6893 Y38.7321 
G01 X-5.7565 Y38.9828 
G01 X-5.7904 Y39.2402 
G01 X-5.7904 Y39.4998 
G01 X-5.7565 Y39.7572 
G01 X-5.6893 Y40.0079 
G00 Z2.5400 
G00 X-34.6118 Y40.0065 
G01 Z-0.0800 F254.00 
G01 X-34.4416 Y40.4175 F254.00 
G01 X-34.4416 Y40.8625 
G01 X-34.6118 Y41.2735 
G01 X-34.9265 Y41.5881 
G01 X-35.3375 Y41.7584 
G01 X-35.7825 Y41.7584 
G01 X-36.1935 Y41.5881 
G01 X-36.5082 Y41.2735 
G01 X-36.6784 Y40.8625 
G01 X-36.6784 Y40.4175 
G01 X-36.5082 Y40.0065 
G01 X-36.1935 Y39.6918 
G01 X-35.7825 Y39.5216 
G01 X-35.3375 Y39.5216 
G01 X-34.9265 Y39.6918 
G01 X-34.6118 Y40.0065 
G00 Z2.5400 
G00 X-34.8109 Y40.0252 
G01 Z-0.0800 F254.00 
G01 X-34.9452 Y39.8909 F254.00 
G01 X-35.1032 Y39.7854 
G01 X-35.2787 Y39.7127 
G01 X-35.4650 Y39.6756 
G01 X-35.6550 Y39.6756 
G01 X-35.8413 Y39.7127 
G01 X-36.0168 Y39.7854 
G01 X-36.1748 Y39.8909 
G01 X-36.3091 Y40.0252 
G01 X-36.4146 Y40.1832 
G01 X-36.4873 Y40.3587 
G01 X-36.5244 Y40.5450 
G01 X-36.5244 Y40.7350 
G01 X-36.4873 Y40.9213 
G01 X-36.4146 Y41.0968 
G01 X-36.3091 Y41.2548 
G01 X-36.1748 Y41.3891 
G01 X-36.0168 Y41.4946 
G01 X-35.8413 Y41.5673 
G01 X-35.6550 Y41.6044 
G01 X-35.4650 Y41.6044 
G01 X-35.2787 Y41.5673 
G01 X-35.1032 Y41.4946 
G01 X-34.9452 Y41.3891 
G01 X-34.8109 Y41.2548 
G01 X-34.7054 Y41.0968 
G01 X-34.6327 Y40.9213 
G01 X-34.5956 Y40.7350 
G01 X-34.5956 Y40.5450 
G01 X-34.6327 Y40.3587 
G01 X-34.7054 Y40.1832 
G01 X-34.8109 Y40.0252 
G00 Z2.5400 
G00 X-39.6918 Y40.0065 
G01 Z-0.0800 F254.00 
G01 X-39.5216 Y40.4175 F254.00 
G01 X-39.5216 Y40.8625 
G01 X-39.6918 Y41.2735 
G01 X-40.0065 Y41.5881 
G01 X-40.4175 Y41.7584 
G01 X-40.8625 Y41.7584 
G01 X-41.2735 Y41.5881 
G01 X-41.5881 Y41.2735 
G01 X-41.7584 Y40.8625 
G01 X-41.7584 Y40.4175 
G01 X-41.5881 Y40.0065 
G01 X-41.2735 Y39.6918 
G01 X-40.8625 Y39.5216 
G01 X-40.4175 Y39.5216 
G01 X-40.0065 Y39.6918 
G01 X-39.6918 Y40.0065 
G00 Z2.5400 
G00 X-39.8909 Y40.0252 
G01 Z-0.0800 F254.00 
G01 X-40.0252 Y39.8909 F254.00 
G01 X-40.1832 Y39.7854 
G01 X-40.3587 Y39.7127 
G01 X-40.5450 Y39.6756 
G01 X-40.7350 Y39.6756 
G01 X-40.9213 Y39.7127 
G01 X-41.0968 Y39.7854 
G01 X-41.2548 Y39.8909 
G01 X-41.3891 Y40.0252 
G01 X-41.4946 Y40.1832 
G01 X-41.5673 Y40.3587 
G01 X-41.6044 Y40.5450 
G01 X-41.6044 Y40.7350 
G01 X-41.5673 Y40.9213 
G01 X-41.4946 Y41.0968 
G01 X-41.3891 Y41.2548 
G01 X-41.2548 Y41.3891 
G01 X-41.0968 Y41.4946 
G01 X-40.9213 Y41.5673 
G01 X-40.7350 Y41.6044 
G01 X-40.5450 Y41.6044 
G01 X-40.3587 Y41.5673 
G01 X-40.1832 Y41.4946 
G01 X-40.0252 Y41.3891 
G01 X-39.8909 Y41.2548 
G01 X-39.7854 Y41.0968 
G01 X-39.7127 Y40.9213 
G01 X-39.6756 Y40.7350 
G01 X-39.6756 Y40.5450 
G01 X-39.7127 Y40.3587 
G01 X-39.7854 Y40.1832 
G01 X-39.8909 Y40.0252 
G00 Z2.5400 
G00 X-46.3441 Y38.7671 
G01 Z-0.0800 F254.00 
G01 X-46.3229 Y38.7459 F254.00 
G01 X-46.3114 Y38.7182 
G01 X-46.3114 Y37.4818 
G01 X-46.3229 Y37.4541 
G01 X-46.3441 Y37.4329 
G01 X-46.3718 Y37.4214 
G01 X-46.7114 Y37.4214 
G01 X-46.7114 Y29.3003 
G01 X-46.7304 Y29.2295 
G01 X-46.7671 Y29.1659 
G01 X-46.8189 Y29.1141 
G01 X-46.8825 Y29.0774 
G01 X-46.9533 Y29.0584 
G01 X-47.0267 Y29.0584 
G01 X-47.0975 Y29.0774 
G01 X-47.1526 Y29.1092 
G01 X-49.3022 Y29.1092 
G01 X-49.3022 Y24.4848 
G01 X-46.4367 Y24.4848 
G01 X-46.3530 Y24.4501 
G01 X-46.2889 Y24.3860 
G01 X-46.1754 Y24.2725 
G01 X-46.1754 Y24.3100 
G01 X-46.1639 Y24.3377 
G01 X-46.1427 Y24.3589 
G01 X-46.1150 Y24.3704 
G01 X-44.7850 Y24.3704 
G01 X-44.7573 Y24.3589 
G01 X-44.7361 Y24.3377 
G01 X-44.7246 Y24.3100 
G01 X-44.7246 Y22.6800 
G01 X-44.7361 Y22.6523 
G01 X-44.7573 Y22.6311 
G01 X-44.7850 Y22.6196 
G01 X-46.1150 Y22.6196 
G01 X-46.1427 Y22.6311 
G01 X-46.1639 Y22.6523 
G01 X-46.1754 Y22.6800 
G01 X-46.1754 Y23.6282 
G01 X-46.5764 Y24.0292 
G01 X-49.4483 Y24.0292 
G01 X-49.5320 Y24.0639 
G01 X-49.6590 Y24.1909 
G01 X-49.7231 Y24.2550 
G01 X-49.7578 Y24.3387 
G01 X-49.7578 Y29.3823 
G01 X-49.7231 Y29.4660 
G01 X-49.6590 Y29.5301 
G01 X-49.5753 Y29.5648 
G01 X-47.2686 Y29.5648 
G01 X-47.2686 Y37.1400 
G01 X-50.4145 Y33.9942 
G01 X-50.5042 Y33.9045 
G01 X-50.6140 Y33.8410 
G01 X-50.7366 Y33.8082 
G01 X-52.8588 Y33.8082 
G01 X-52.9524 Y33.6682 
G01 X-53.0882 Y33.5324 
G01 X-53.2480 Y33.4256 
G01 X-53.4255 Y33.3521 
G01 X-53.6139 Y33.3146 
G01 X-55.6061 Y33.3146 
G01 X-55.7945 Y33.3521 
G01 X-55.9720 Y33.4256 
G01 X-56.1318 Y33.5324 
G01 X-56.2676 Y33.6682 
G01 X-56.3744 Y33.8280 
G01 X-56.4479 Y34.0055 
G01 X-56.4854 Y34.1939 
G01 X-56.4854 Y34.3861 
G01 X-56.4479 Y34.5745 
G01 X-56.3744 Y34.7520 
G01 X-56.2676 Y34.9118 
G01 X-56.1318 Y35.0476 
G01 X-55.9720 Y35.1544 
G01 X-55.7945 Y35.2279 
G01 X-55.6061 Y35.2654 
G01 X-53.6139 Y35.2654 
G01 X-53.4255 Y35.2279 
G01 X-53.2480 Y35.1544 
G01 X-53.0882 Y35.0476 
G01 X-52.9524 Y34.9118 
G01 X-52.8588 Y34.7718 
G01 X-50.9996 Y34.7718 
G01 X-47.6686 Y38.1028 
G01 X-47.6686 Y38.7182 
G01 X-47.6571 Y38.7459 
G01 X-47.6359 Y38.7671 
G01 X-47.6082 Y38.7786 
G01 X-46.3718 Y38.7786 
G01 X-46.3441 Y38.7671 
G00 Z2.5400 
G00 X-48.6756 Y31.2831 
G01 Z-0.0800 F254.00 
G01 X-48.8100 Y31.4175 F254.00 
G01 X-49.2500 Y31.4175 
G01 X-49.3844 Y31.2831 
G01 X-49.3844 Y31.2612 
G01 X-49.3623 Y31.2520 
G01 X-49.3411 Y31.2308 
G01 X-49.3296 Y31.2031 
G01 X-49.3296 Y30.1731 
G01 X-49.3411 Y30.1454 
G01 X-49.3623 Y30.1242 
G01 X-49.3844 Y30.1150 
G01 X-49.3844 Y30.0931 
G01 X-49.2500 Y29.9587 
G01 X-48.8100 Y29.9587 
G01 X-48.6756 Y30.0931 
G01 X-48.6756 Y30.1150 
G01 X-48.6977 Y30.1242 
G01 X-48.7189 Y30.1454 
G01 X-48.7304 Y30.1731 
G01 X-48.7304 Y31.2031 
G01 X-48.7189 Y31.2308 
G01 X-48.6977 Y31.2520 
G01 X-48.6756 Y31.2612 
G01 X-48.6756 Y31.2831 
G00 Z2.5400 
G00 X-48.8623 Y31.2520 
G01 Z-0.0800 F254.00 
G01 X-48.8411 Y31.2308 F254.00 
G01 X-48.8296 Y31.2031 
G01 X-48.8296 Y30.1731 
G01 X-48.8411 Y30.1454 
G01 X-48.8623 Y30.1242 
G01 X-48.8900 Y30.1127 
G01 X-49.1700 Y30.1127 
G01 X-49.1977 Y30.1242 
G01 X-49.2189 Y30.1454 
G01 X-49.2304 Y30.1731 
G01 X-49.2304 Y31.2031 
G01 X-49.2189 Y31.2308 
G01 X-49.1977 Y31.2520 
G01 X-49.1700 Y31.2635 
G01 X-48.8900 Y31.2635 
G01 X-48.8623 Y31.2520 
G00 Z2.5400 
G00 X-49.6482 Y31.2635 
G01 Z-0.0800 F254.00 
G01 X-49.6482 Y31.9081 F254.00 
G01 X-49.8718 Y32.1318 
G01 X-52.6103 Y32.1318 
G01 X-52.6380 Y32.1433 
G01 X-52.6592 Y32.1645 
G01 X-52.7525 Y32.3898 
G01 X-53.0702 Y32.7075 
G01 X-53.4853 Y32.8794 
G01 X-55.7347 Y32.8794 
G01 X-56.1498 Y32.7075 
G01 X-56.4675 Y32.3898 
G01 X-56.5397 Y32.2153 
G01 X-56.5609 Y32.1941 
G01 X-56.5887 Y32.1826 
G01 X-56.7332 Y32.1826 
G01 X-56.7609 Y32.1941 
G01 X-56.7821 Y32.2153 
G01 X-56.7936 Y32.2430 
G01 X-56.7936 Y32.4954 
G01 X-57.0396 Y32.7414 
G01 X-58.5298 Y32.7414 
G01 X-58.5446 Y32.7414 
G01 X-58.5591 Y32.7414 
G01 X-58.6507 Y32.7433 
G01 X-58.7151 Y32.6789 
G01 X-58.7257 Y32.6683 
G01 X-58.7358 Y32.6582 
G01 X-58.8018 Y32.5948 
G01 X-58.8018 Y32.5038 
G01 X-58.8018 Y32.4890 
G01 X-58.8018 Y32.4745 
G01 X-58.8027 Y32.4403 
G01 X-58.1978 Y31.8355 
G01 X-58.1694 Y31.8071 
G01 X-58.1541 Y31.7701 
G01 X-58.1541 Y31.7299 
G01 X-58.1694 Y31.6929 
G01 X-58.8027 Y31.0597 
G01 X-58.8021 Y31.0261 
G01 X-58.8018 Y31.0110 
G01 X-58.8016 Y30.9968 
G01 X-58.8018 Y30.9052 
G01 X-58.7364 Y30.8421 
G01 X-58.7256 Y30.8316 
G01 X-58.7153 Y30.8217 
G01 X-58.6507 Y30.7567 
G01 X-58.5597 Y30.7583 
G01 X-58.5446 Y30.7586 
G01 X-58.5304 Y30.7588 
G01 X-57.0396 Y30.7586 
G01 X-56.7936 Y31.0046 
G01 X-56.7936 Y31.2570 
G01 X-56.7821 Y31.2847 
G01 X-56.7609 Y31.3059 
G01 X-56.7332 Y31.3174 
G01 X-56.5887 Y31.3174 
G01 X-56.5609 Y31.3059 
G01 X-56.5397 Y31.2847 
G01 X-56.5382 Y31.2811 
G01 X-56.4675 Y31.1102 
G01 X-56.1498 Y30.7925 
G01 X-55.7347 Y30.6206 
G01 X-53.4853 Y30.6206 
G01 X-53.0702 Y30.7925 
G01 X-52.7525 Y31.1102 
G01 X-52.6592 Y31.3355 
G01 X-52.6380 Y31.3567 
G01 X-52.6103 Y31.3682 
G01 X-50.9448 Y31.3682 
G01 X-50.9171 Y31.3567 
G01 X-50.8959 Y31.3355 
G01 X-50.8844 Y31.3078 
G01 X-50.8844 Y30.8899 
G01 X-50.8959 Y30.8622 
G01 X-50.9118 Y30.8463 
G01 X-50.9118 Y29.6522 
G01 X-50.9233 Y29.6245 
G01 X-50.9445 Y29.6033 
G01 X-50.9722 Y29.5918 
G01 X-52.6103 Y29.5918 
G01 X-52.6380 Y29.6033 
G01 X-52.6592 Y29.6245 
G01 X-52.7525 Y29.8498 
G01 X-53.0702 Y30.1675 
G01 X-53.4853 Y30.3394 
G01 X-55.7347 Y30.3394 
G01 X-56.1498 Y30.1675 
G01 X-56.4675 Y29.8498 
G01 X-56.5397 Y29.6753 
G01 X-56.5609 Y29.6541 
G01 X-56.5887 Y29.6426 
G01 X-56.7332 Y29.6426 
G01 X-56.7609 Y29.6541 
G01 X-56.7821 Y29.6753 
G01 X-56.7936 Y29.7030 
G01 X-56.7936 Y29.9554 
G01 X-57.0396 Y30.2014 
G01 X-58.5298 Y30.2014 
G01 X-58.5446 Y30.2014 
G01 X-58.5591 Y30.2014 
G01 X-58.6507 Y30.2033 
G01 X-58.7151 Y30.1389 
G01 X-58.7257 Y30.1283 
G01 X-58.7358 Y30.1182 
G01 X-58.8018 Y30.0548 
G01 X-58.8018 Y29.9638 
G01 X-58.8018 Y29.9490 
G01 X-58.8018 Y29.9345 
G01 X-58.8027 Y29.9003 
G01 X-58.1978 Y29.2954 
G01 X-58.1694 Y29.2671 
G01 X-58.1541 Y29.2300 
G01 X-58.1541 Y29.1899 
G01 X-58.1694 Y29.1529 
G01 X-58.8027 Y28.5197 
G01 X-58.8021 Y28.4861 
G01 X-58.8018 Y28.4710 
G01 X-58.8016 Y28.4568 
G01 X-58.8018 Y28.3652 
G01 X-58.7364 Y28.3021 
G01 X-58.7256 Y28.2916 
G01 X-58.7153 Y28.2817 
G01 X-58.6507 Y28.2167 
G01 X-58.5597 Y28.2183 
G01 X-58.5446 Y28.2186 
G01 X-58.5304 Y28.2188 
G01 X-57.0396 Y28.2186 
G01 X-56.7936 Y28.4646 
G01 X-56.7936 Y28.7170 
G01 X-56.7821 Y28.7447 
G01 X-56.7609 Y28.7659 
G01 X-56.7332 Y28.7774 
G01 X-56.5887 Y28.7774 
G01 X-56.5609 Y28.7659 
G01 X-56.5397 Y28.7447 
G01 X-56.5382 Y28.7411 
G01 X-56.4675 Y28.5702 
G01 X-56.1498 Y28.2525 
G01 X-55.7347 Y28.0806 
G01 X-53.4853 Y28.0806 
G01 X-53.0702 Y28.2525 
G01 X-52.7525 Y28.5702 
G01 X-52.6592 Y28.7955 
G01 X-52.6380 Y28.8167 
G01 X-52.6103 Y28.8282 
G01 X-50.3718 Y28.8282 
G01 X-50.1482 Y29.0518 
G01 X-50.1482 Y29.8983 
G01 X-50.1367 Y29.9260 
G01 X-50.1155 Y29.9472 
G01 X-50.0878 Y29.9587 
G01 X-49.8100 Y29.9587 
G01 X-49.6756 Y30.0931 
G01 X-49.6756 Y30.1150 
G01 X-49.6977 Y30.1242 
G01 X-49.7189 Y30.1454 
G01 X-49.7304 Y30.1731 
G01 X-49.7304 Y31.2031 
G01 X-49.7189 Y31.2308 
G01 X-49.6977 Y31.2520 
G01 X-49.6700 Y31.2635 
G01 X-49.6482 Y31.2635 
G00 Z2.5400 
G00 X-49.8022 Y31.7953 
G01 Z-0.0800 F254.00 
G01 X-49.8022 Y30.6428 F254.00 
G01 X-49.8296 Y30.5766 
G01 X-49.8296 Y30.1731 
G01 X-49.8411 Y30.1454 
G01 X-49.8623 Y30.1242 
G01 X-49.8900 Y30.1127 
G01 X-50.1700 Y30.1127 
G01 X-50.1977 Y30.1242 
G01 X-50.2189 Y30.1454 
G01 X-50.2304 Y30.1731 
G01 X-50.2304 Y30.5766 
G01 X-50.2578 Y30.6428 
G01 X-50.2578 Y31.5222 
G01 X-52.7608 Y31.5222 
G01 X-52.7721 Y31.4655 
G01 X-52.8456 Y31.2880 
G01 X-52.9524 Y31.1282 
G01 X-53.0882 Y30.9924 
G01 X-53.2480 Y30.8856 
G01 X-53.4255 Y30.8121 
G01 X-53.6139 Y30.7746 
G01 X-55.6061 Y30.7746 
G01 X-55.7945 Y30.8121 
G01 X-55.9720 Y30.8856 
G01 X-56.1318 Y30.9924 
G01 X-56.2676 Y31.1282 
G01 X-56.3744 Y31.2880 
G01 X-56.4479 Y31.4655 
G01 X-56.4491 Y31.4714 
G01 X-56.9476 Y31.4714 
G01 X-56.9476 Y31.1435 
G01 X-56.9657 Y31.0759 
G01 X-57.0007 Y31.0152 
G01 X-57.0502 Y30.9657 
G01 X-57.1109 Y30.9307 
G01 X-57.1785 Y30.9126 
G01 X-58.5461 Y30.9126 
G01 X-58.5653 Y30.9123 
G01 X-58.5847 Y30.9199 
G01 X-58.6026 Y30.9270 
G01 X-58.6176 Y30.9414 
G01 X-58.6314 Y30.9548 
G01 X-58.6398 Y30.9740 
G01 X-58.6474 Y30.9916 
G01 X-58.6478 Y31.0125 
G01 X-58.6481 Y31.0317 
G01 X-58.6405 Y31.0511 
G01 X-58.6334 Y31.0690 
G01 X-58.6190 Y31.0839 
G01 X-57.9759 Y31.7500 
G01 X-58.6190 Y32.4160 
G01 X-58.6324 Y32.4295 
G01 X-58.6405 Y32.4489 
G01 X-58.6478 Y32.4665 
G01 X-58.6478 Y32.4875 
G01 X-58.6478 Y32.5067 
G01 X-58.6398 Y32.5260 
G01 X-58.6324 Y32.5437 
G01 X-58.6176 Y32.5586 
G01 X-58.6041 Y32.5720 
G01 X-58.5847 Y32.5801 
G01 X-58.5671 Y32.5874 
G01 X-58.5461 Y32.5874 
G01 X-57.1785 Y32.5874 
G01 X-57.1109 Y32.5693 
G01 X-57.0502 Y32.5343 
G01 X-57.0007 Y32.4848 
G01 X-56.9657 Y32.4241 
G01 X-56.9476 Y32.3565 
G01 X-56.9476 Y32.0286 
G01 X-56.4491 Y32.0286 
G01 X-56.4479 Y32.0345 
G01 X-56.3744 Y32.2120 
G01 X-56.2676 Y32.3718 
G01 X-56.1318 Y32.5076 
G01 X-55.9720 Y32.6144 
G01 X-55.7945 Y32.6879 
G01 X-55.6061 Y32.7254 
G01 X-53.6139 Y32.7254 
G01 X-53.4255 Y32.6879 
G01 X-53.2480 Y32.6144 
G01 X-53.0882 Y32.5076 
G01 X-52.9524 Y32.3718 
G01 X-52.8456 Y32.2120 
G01 X-52.7721 Y32.0345 
G01 X-52.7608 Y31.9778 
G01 X-49.9847 Y31.9778 
G01 X-49.9010 Y31.9431 
G01 X-49.8369 Y31.8790 
G01 X-49.8022 Y31.7953 
G00 Z2.5400 
G00 X-50.3623 Y31.2520 
G01 Z-0.0800 F254.00 
G01 X-50.3411 Y31.2308 F254.00 
G01 X-50.3296 Y31.2031 
G01 X-50.3296 Y30.7996 
G01 X-50.3022 Y30.7334 
G01 X-50.3022 Y29.1647 
G01 X-50.3369 Y29.0810 
G01 X-50.4010 Y29.0169 
G01 X-50.4847 Y28.9822 
G01 X-52.7608 Y28.9822 
G01 X-52.7721 Y28.9255 
G01 X-52.8456 Y28.7480 
G01 X-52.9524 Y28.5882 
G01 X-53.0882 Y28.4524 
G01 X-53.2480 Y28.3456 
G01 X-53.4255 Y28.2721 
G01 X-53.6139 Y28.2346 
G01 X-55.6061 Y28.2346 
G01 X-55.7945 Y28.2721 
G01 X-55.9720 Y28.3456 
G01 X-56.1318 Y28.4524 
G01 X-56.2676 Y28.5882 
G01 X-56.3744 Y28.7480 
G01 X-56.4479 Y28.9255 
G01 X-56.4491 Y28.9314 
G01 X-56.9476 Y28.9314 
G01 X-56.9476 Y28.6035 
G01 X-56.9657 Y28.5359 
G01 X-57.0007 Y28.4752 
G01 X-57.0502 Y28.4257 
G01 X-57.1109 Y28.3907 
G01 X-57.1785 Y28.3726 
G01 X-58.5461 Y28.3726 
G01 X-58.5653 Y28.3723 
G01 X-58.5847 Y28.3799 
G01 X-58.6026 Y28.3870 
G01 X-58.6176 Y28.4014 
G01 X-58.6314 Y28.4148 
G01 X-58.6398 Y28.4340 
G01 X-58.6474 Y28.4516 
G01 X-58.6478 Y28.4725 
G01 X-58.6481 Y28.4917 
G01 X-58.6405 Y28.5111 
G01 X-58.6334 Y28.5290 
G01 X-58.6190 Y28.5439 
G01 X-57.9759 Y29.2100 
G01 X-58.6190 Y29.8761 
G01 X-58.6324 Y29.8895 
G01 X-58.6405 Y29.9090 
G01 X-58.6478 Y29.9265 
G01 X-58.6478 Y29.9475 
G01 X-58.6478 Y29.9667 
G01 X-58.6397 Y29.9861 
G01 X-58.6324 Y30.0037 
G01 X-58.6175 Y30.0186 
G01 X-58.6041 Y30.0321 
G01 X-58.5846 Y30.0401 
G01 X-58.5671 Y30.0474 
G01 X-58.5461 Y30.0474 
G01 X-57.1785 Y30.0474 
G01 X-57.1109 Y30.0293 
G01 X-57.0502 Y29.9943 
G01 X-57.0007 Y29.9448 
G01 X-56.9657 Y29.8841 
G01 X-56.9476 Y29.8165 
G01 X-56.9476 Y29.4886 
G01 X-56.4491 Y29.4886 
G01 X-56.4479 Y29.4945 
G01 X-56.3744 Y29.6720 
G01 X-56.2676 Y29.8318 
G01 X-56.1318 Y29.9676 
G01 X-55.9720 Y30.0744 
G01 X-55.7945 Y30.1479 
G01 X-55.6061 Y30.1854 
G01 X-53.6139 Y30.1854 
G01 X-53.4255 Y30.1479 
G01 X-53.2480 Y30.0744 
G01 X-53.0882 Y29.9676 
G01 X-52.9524 Y29.8318 
G01 X-52.8456 Y29.6720 
G01 X-52.7721 Y29.4945 
G01 X-52.7608 Y29.4378 
G01 X-50.7578 Y29.4378 
G01 X-50.7578 Y30.7334 
G01 X-50.7304 Y30.7996 
G01 X-50.7304 Y31.2031 
G01 X-50.7189 Y31.2308 
G01 X-50.6977 Y31.2520 
G01 X-50.6700 Y31.2635 
G01 X-50.3900 Y31.2635 
G01 X-50.3623 Y31.2520 
G00 Z2.5400 
G00 X-50.3623 Y27.0258 
G01 Z-0.0800 F254.00 
G01 X-50.3411 Y27.0046 F254.00 
G01 X-50.3296 Y26.9769 
G01 X-50.3296 Y26.5708 
G01 X-50.3119 Y26.5419 
G01 X-50.2979 Y26.4524 
G01 X-50.3192 Y26.3643 
G01 X-50.3296 Y26.3501 
G01 X-50.3296 Y25.9469 
G01 X-50.3411 Y25.9192 
G01 X-50.3623 Y25.8980 
G01 X-50.3900 Y25.8865 
G01 X-50.6700 Y25.8865 
G01 X-50.6977 Y25.8980 
G01 X-50.7189 Y25.9192 
G01 X-50.7304 Y25.9469 
G01 X-50.7304 Y26.3530 
G01 X-50.7848 Y26.4422 
G01 X-52.7608 Y26.4422 
G01 X-52.7721 Y26.3855 
G01 X-52.8456 Y26.2080 
G01 X-52.9524 Y26.0482 
G01 X-53.0882 Y25.9124 
G01 X-53.2480 Y25.8056 
G01 X-53.4255 Y25.7321 
G01 X-53.6139 Y25.6946 
G01 X-55.6061 Y25.6946 
G01 X-55.7945 Y25.7321 
G01 X-55.9720 Y25.8056 
G01 X-56.1318 Y25.9124 
G01 X-56.2676 Y26.0482 
G01 X-56.3744 Y26.2080 
G01 X-56.4479 Y26.3855 
G01 X-56.4491 Y26.3914 
G01 X-56.9476 Y26.3914 
G01 X-56.9476 Y26.0635 
G01 X-56.9657 Y25.9959 
G01 X-57.0007 Y25.9352 
G01 X-57.0502 Y25.8857 
G01 X-57.1109 Y25.8507 
G01 X-57.1785 Y25.8326 
G01 X-58.5461 Y25.8326 
G01 X-58.5653 Y25.8323 
G01 X-58.5847 Y25.8399 
G01 X-58.6026 Y25.8470 
G01 X-58.6176 Y25.8614 
G01 X-58.6314 Y25.8748 
G01 X-58.6398 Y25.8940 
G01 X-58.6474 Y25.9116 
G01 X-58.6478 Y25.9325 
G01 X-58.6481 Y25.9517 
G01 X-58.6405 Y25.9711 
G01 X-58.6334 Y25.9890 
G01 X-58.6190 Y26.0039 
G01 X-57.9759 Y26.6700 
G01 X-58.6190 Y27.3360 
G01 X-58.6324 Y27.3495 
G01 X-58.6405 Y27.3689 
G01 X-58.6478 Y27.3865 
G01 X-58.6478 Y27.4075 
G01 X-58.6478 Y27.4266 
G01 X-58.6398 Y27.4460 
G01 X-58.6324 Y27.4637 
G01 X-58.6176 Y27.4786 
G01 X-58.6041 Y27.4920 
G01 X-58.5847 Y27.5001 
G01 X-58.5671 Y27.5074 
G01 X-58.5461 Y27.5074 
G01 X-57.1785 Y27.5074 
G01 X-57.1109 Y27.4893 
G01 X-57.0502 Y27.4543 
G01 X-57.0007 Y27.4048 
G01 X-56.9657 Y27.3441 
G01 X-56.9476 Y27.2765 
G01 X-56.9476 Y26.9486 
G01 X-56.4491 Y26.9486 
G01 X-56.4479 Y26.9545 
G01 X-56.3744 Y27.1320 
G01 X-56.2676 Y27.2918 
G01 X-56.1318 Y27.4276 
G01 X-55.9720 Y27.5344 
G01 X-55.7945 Y27.6079 
G01 X-55.6061 Y27.6454 
G01 X-53.6139 Y27.6454 
G01 X-53.4255 Y27.6079 
G01 X-53.2480 Y27.5344 
G01 X-53.0882 Y27.4276 
G01 X-52.9524 Y27.2918 
G01 X-52.8456 Y27.1320 
G01 X-52.7721 Y26.9545 
G01 X-52.7608 Y26.8978 
G01 X-50.7304 Y26.8978 
G01 X-50.7304 Y26.9769 
G01 X-50.7189 Y27.0046 
G01 X-50.6977 Y27.0258 
G01 X-50.6700 Y27.0373 
G01 X-50.3900 Y27.0373 
G01 X-50.3623 Y27.0258 
G00 Z2.5400 
G00 X-50.2189 Y27.0046 
G01 Z-0.0800 F254.00 
G01 X-50.1977 Y27.0258 F254.00 
G01 X-50.1700 Y27.0373 
G01 X-49.8900 Y27.0373 
G01 X-49.8623 Y27.0258 
G01 X-49.8411 Y27.0046 
G01 X-49.8296 Y26.9769 
G01 X-49.8296 Y26.5734 
G01 X-49.8022 Y26.5072 
G01 X-49.8022 Y24.0847 
G01 X-49.8369 Y24.0010 
G01 X-49.9010 Y23.9369 
G01 X-49.9847 Y23.9022 
G01 X-52.7608 Y23.9022 
G01 X-52.7721 Y23.8455 
G01 X-52.8456 Y23.6680 
G01 X-52.9524 Y23.5082 
G01 X-53.0882 Y23.3724 
G01 X-53.2480 Y23.2656 
G01 X-53.4255 Y23.1921 
G01 X-53.6139 Y23.1546 
G01 X-55.6061 Y23.1546 
G01 X-55.7945 Y23.1921 
G01 X-55.9720 Y23.2656 
G01 X-56.1318 Y23.3724 
G01 X-56.2676 Y23.5082 
G01 X-56.3744 Y23.6680 
G01 X-56.4479 Y23.8455 
G01 X-56.4491 Y23.8514 
G01 X-56.9476 Y23.8514 
G01 X-56.9476 Y23.5235 
G01 X-56.9657 Y23.4559 
G01 X-57.0007 Y23.3952 
G01 X-57.0502 Y23.3457 
G01 X-57.1109 Y23.3107 
G01 X-57.1785 Y23.2926 
G01 X-58.5461 Y23.2926 
G01 X-58.5653 Y23.2923 
G01 X-58.5847 Y23.2999 
G01 X-58.6026 Y23.3070 
G01 X-58.6176 Y23.3214 
G01 X-58.6314 Y23.3348 
G01 X-58.6398 Y23.3540 
G01 X-58.6474 Y23.3716 
G01 X-58.6478 Y23.3925 
G01 X-58.6481 Y23.4117 
G01 X-58.6405 Y23.4311 
G01 X-58.6334 Y23.4490 
G01 X-58.6190 Y23.4639 
G01 X-57.9759 Y24.1300 
G01 X-58.6190 Y24.7960 
G01 X-58.6324 Y24.8095 
G01 X-58.6405 Y24.8289 
G01 X-58.6478 Y24.8465 
G01 X-58.6478 Y24.8675 
G01 X-58.6478 Y24.8866 
G01 X-58.6398 Y24.9060 
G01 X-58.6324 Y24.9237 
G01 X-58.6176 Y24.9386 
G01 X-58.6041 Y24.9520 
G01 X-58.5847 Y24.9601 
G01 X-58.5671 Y24.9674 
G01 X-58.5461 Y24.9674 
G01 X-57.1785 Y24.9674 
G01 X-57.1109 Y24.9493 
G01 X-57.0502 Y24.9143 
G01 X-57.0007 Y24.8648 
G01 X-56.9657 Y24.8041 
G01 X-56.9476 Y24.7365 
G01 X-56.9476 Y24.4086 
G01 X-56.4491 Y24.4086 
G01 X-56.4479 Y24.4145 
G01 X-56.3744 Y24.5920 
G01 X-56.2676 Y24.7518 
G01 X-56.1318 Y24.8876 
G01 X-55.9720 Y24.9944 
G01 X-55.7945 Y25.0679 
G01 X-55.6061 Y25.1054 
G01 X-53.6139 Y25.1054 
G01 X-53.4255 Y25.0679 
G01 X-53.2480 Y24.9944 
G01 X-53.0882 Y24.8876 
G01 X-52.9524 Y24.7518 
G01 X-52.8456 Y24.5920 
G01 X-52.7721 Y24.4145 
G01 X-52.7608 Y24.3578 
G01 X-50.2578 Y24.3578 
G01 X-50.2578 Y26.5072 
G01 X-50.2304 Y26.5734 
G01 X-50.2304 Y26.9769 
G01 X-50.2189 Y27.0046 
G00 Z2.5400 
G00 X-46.3535 Y21.2681 
G01 Z-0.0800 F254.00 
G01 X-46.6681 Y20.9535 F254.00 
G01 X-46.8384 Y20.5425 
G01 X-46.8384 Y20.0975 
G01 X-46.6681 Y19.6865 
G01 X-46.3535 Y19.3718 
G01 X-45.9425 Y19.2016 
G01 X-45.4975 Y19.2016 
G01 X-45.0865 Y19.3718 
G01 X-44.7718 Y19.6865 
G01 X-44.6016 Y20.0975 
G01 X-44.6016 Y20.5425 
G01 X-44.7718 Y20.9535 
G01 X-45.0865 Y21.2681 
G01 X-45.4975 Y21.4384 
G01 X-45.9425 Y21.4384 
G01 X-46.3535 Y21.2681 
G00 Z2.5400 
G00 X-46.3348 Y21.0691 
G01 Z-0.0800 F254.00 
G01 X-46.1768 Y21.1746 F254.00 
G01 X-46.0013 Y21.2473 
G01 X-45.8150 Y21.2844 
G01 X-45.6250 Y21.2844 
G01 X-45.4387 Y21.2473 
G01 X-45.2632 Y21.1746 
G01 X-45.1052 Y21.0691 
G01 X-44.9709 Y20.9348 
G01 X-44.8654 Y20.7768 
G01 X-44.7927 Y20.6013 
G01 X-44.7556 Y20.4150 
G01 X-44.7556 Y20.2250 
G01 X-44.7927 Y20.0387 
G01 X-44.8654 Y19.8632 
G01 X-44.9709 Y19.7052 
G01 X-45.1052 Y19.5709 
G01 X-45.2632 Y19.4654 
G01 X-45.4387 Y19.3927 
G01 X-45.6250 Y19.3556 
G01 X-45.8150 Y19.3556 
G01 X-46.0013 Y19.3927 
G01 X-46.1768 Y19.4654 
G01 X-46.3348 Y19.5709 
G01 X-46.4691 Y19.7052 
G01 X-46.5746 Y19.8632 
G01 X-46.6473 Y20.0387 
G01 X-46.6844 Y20.2250 
G01 X-46.6844 Y20.4150 
G01 X-46.6473 Y20.6013 
G01 X-46.5746 Y20.7768 
G01 X-46.4691 Y20.9348 
G01 X-46.3348 Y21.0691 
G00 Z2.5400 
G00 X-44.1281 Y20.9535 
G01 Z-0.0800 F254.00 
G01 X-44.2984 Y20.5425 F254.00 
G01 X-44.2984 Y20.0975 
G01 X-44.1281 Y19.6865 
G01 X-43.8135 Y19.3718 
G01 X-43.4025 Y19.2016 
G01 X-42.9575 Y19.2016 
G01 X-42.5465 Y19.3718 
G01 X-42.2318 Y19.6865 
G01 X-42.0616 Y20.0975 
G01 X-42.0616 Y20.5425 
G01 X-42.2318 Y20.9535 
G01 X-42.5465 Y21.2681 
G01 X-42.9575 Y21.4384 
G01 X-43.4025 Y21.4384 
G01 X-43.8135 Y21.2681 
G01 X-44.1281 Y20.9535 
G00 Z2.5400 
G00 X-43.9291 Y20.9348 
G01 Z-0.0800 F254.00 
G01 X-43.7948 Y21.0691 F254.00 
G01 X-43.6368 Y21.1746 
G01 X-43.4613 Y21.2473 
G01 X-43.2750 Y21.2844 
G01 X-43.0850 Y21.2844 
G01 X-42.8987 Y21.2473 
G01 X-42.7232 Y21.1746 
G01 X-42.5652 Y21.0691 
G01 X-42.4309 Y20.9348 
G01 X-42.3254 Y20.7768 
G01 X-42.2527 Y20.6013 
G01 X-42.2156 Y20.4150 
G01 X-42.2156 Y20.2250 
G01 X-42.2527 Y20.0387 
G01 X-42.3254 Y19.8632 
G01 X-42.4309 Y19.7052 
G01 X-42.5652 Y19.5709 
G01 X-42.7232 Y19.4654 
G01 X-42.8987 Y19.3927 
G01 X-43.0850 Y19.3556 
G01 X-43.2750 Y19.3556 
G01 X-43.4613 Y19.3927 
G01 X-43.6368 Y19.4654 
G01 X-43.7948 Y19.5709 
G01 X-43.9291 Y19.7052 
G01 X-44.0346 Y19.8632 
G01 X-44.1073 Y20.0387 
G01 X-44.1444 Y20.2250 
G01 X-44.1444 Y20.4150 
G01 X-44.1073 Y20.6013 
G01 X-44.0346 Y20.7768 
G01 X-43.9291 Y20.9348 
G00 Z2.5400 
G00 X-41.5881 Y20.9535 
G01 Z-0.0800 F254.00 
G01 X-41.7584 Y20.5425 F254.00 
G01 X-41.7584 Y20.0975 
G01 X-41.5881 Y19.6865 
G01 X-41.2735 Y19.3718 
G01 X-40.8625 Y19.2016 
G01 X-40.4175 Y19.2016 
G01 X-40.0065 Y19.3718 
G01 X-39.6918 Y19.6865 
G01 X-39.5216 Y20.0975 
G01 X-39.5216 Y20.5425 
G01 X-39.6918 Y20.9535 
G01 X-40.0065 Y21.2681 
G01 X-40.4175 Y21.4384 
G01 X-40.8625 Y21.4384 
G01 X-41.2735 Y21.2681 
G01 X-41.5881 Y20.9535 
G00 Z2.5400 
G00 X-41.3891 Y20.9348 
G01 Z-0.0800 F254.00 
G01 X-41.2548 Y21.0691 F254.00 
G01 X-41.0968 Y21.1746 
G01 X-40.9213 Y21.2473 
G01 X-40.7350 Y21.2844 
G01 X-40.5450 Y21.2844 
G01 X-40.3587 Y21.2473 
G01 X-40.1832 Y21.1746 
G01 X-40.0252 Y21.0691 
G01 X-39.8909 Y20.9348 
G01 X-39.7854 Y20.7768 
G01 X-39.7127 Y20.6013 
G01 X-39.6756 Y20.4150 
G01 X-39.6756 Y20.2250 
G01 X-39.7127 Y20.0387 
G01 X-39.7854 Y19.8632 
G01 X-39.8909 Y19.7052 
G01 X-40.0252 Y19.5709 
G01 X-40.1832 Y19.4654 
G01 X-40.3587 Y19.3927 
G01 X-40.5450 Y19.3556 
G01 X-40.7350 Y19.3556 
G01 X-40.9213 Y19.3927 
G01 X-41.0968 Y19.4654 
G01 X-41.2548 Y19.5709 
G01 X-41.3891 Y19.7052 
G01 X-41.4946 Y19.8632 
G01 X-41.5673 Y20.0387 
G01 X-41.6044 Y20.2250 
G01 X-41.6044 Y20.4150 
G01 X-41.5673 Y20.6013 
G01 X-41.4946 Y20.7768 
G01 X-41.3891 Y20.9348 
G00 Z2.5400 
G00 X-39.0481 Y20.9535 
G01 Z-0.0800 F254.00 
G01 X-39.2184 Y20.5425 F254.00 
G01 X-39.2184 Y20.0975 
G01 X-39.0481 Y19.6865 
G01 X-38.7335 Y19.3718 
G01 X-38.3225 Y19.2016 
G01 X-37.8775 Y19.2016 
G01 X-37.4665 Y19.3718 
G01 X-37.1518 Y19.6865 
G01 X-36.9816 Y20.0975 
G01 X-36.9816 Y20.5425 
G01 X-37.1518 Y20.9535 
G01 X-37.4665 Y21.2681 
G01 X-37.8775 Y21.4384 
G01 X-38.3225 Y21.4384 
G01 X-38.7335 Y21.2681 
G01 X-39.0481 Y20.9535 
G00 Z2.5400 
G00 X-38.8491 Y20.9348 
G01 Z-0.0800 F254.00 
G01 X-38.7148 Y21.0691 F254.00 
G01 X-38.5568 Y21.1746 
G01 X-38.3813 Y21.2473 
G01 X-38.1950 Y21.2844 
G01 X-38.0050 Y21.2844 
G01 X-37.8187 Y21.2473 
G01 X-37.6432 Y21.1746 
G01 X-37.4852 Y21.0691 
G01 X-37.3509 Y20.9348 
G01 X-37.2454 Y20.7768 
G01 X-37.1727 Y20.6013 
G01 X-37.1356 Y20.4150 
G01 X-37.1356 Y20.2250 
G01 X-37.1727 Y20.0387 
G01 X-37.2454 Y19.8632 
G01 X-37.3509 Y19.7052 
G01 X-37.4852 Y19.5709 
G01 X-37.6432 Y19.4654 
G01 X-37.8187 Y19.3927 
G01 X-38.0050 Y19.3556 
G01 X-38.1950 Y19.3556 
G01 X-38.3813 Y19.3927 
G01 X-38.5568 Y19.4654 
G01 X-38.7148 Y19.5709 
G01 X-38.8491 Y19.7052 
G01 X-38.9546 Y19.8632 
G01 X-39.0273 Y20.0387 
G01 X-39.0644 Y20.2250 
G01 X-39.0644 Y20.4150 
G01 X-39.0273 Y20.6013 
G01 X-38.9546 Y20.7768 
G01 X-38.8491 Y20.9348 
G00 Z2.5400 
G00 X-36.5082 Y20.9535 
G01 Z-0.0800 F254.00 
G01 X-36.6784 Y20.5425 F254.00 
G01 X-36.6784 Y20.0975 
G01 X-36.5082 Y19.6865 
G01 X-36.1935 Y19.3718 
G01 X-35.7825 Y19.2016 
G01 X-35.3375 Y19.2016 
G01 X-34.9265 Y19.3718 
G01 X-34.6118 Y19.6865 
G01 X-34.4416 Y20.0975 
G01 X-34.4416 Y20.5425 
G01 X-34.6118 Y20.9535 
G01 X-34.9265 Y21.2681 
G01 X-35.3375 Y21.4384 
G01 X-35.7825 Y21.4384 
G01 X-36.1935 Y21.2681 
G01 X-36.5082 Y20.9535 
G00 Z2.5400 
G00 X-36.3091 Y20.9348 
G01 Z-0.0800 F254.00 
G01 X-36.1748 Y21.0691 F254.00 
G01 X-36.0168 Y21.1746 
G01 X-35.8413 Y21.2473 
G01 X-35.6550 Y21.2844 
G01 X-35.4650 Y21.2844 
G01 X-35.2787 Y21.2473 
G01 X-35.1032 Y21.1746 
G01 X-34.9452 Y21.0691 
G01 X-34.8109 Y20.9348 
G01 X-34.7054 Y20.7768 
G01 X-34.6327 Y20.6013 
G01 X-34.5956 Y20.4150 
G01 X-34.5956 Y20.2250 
G01 X-34.6327 Y20.0387 
G01 X-34.7054 Y19.8632 
G01 X-34.8109 Y19.7052 
G01 X-34.9452 Y19.5709 
G01 X-35.1032 Y19.4654 
G01 X-35.2787 Y19.3927 
G01 X-35.4650 Y19.3556 
G01 X-35.6550 Y19.3556 
G01 X-35.8413 Y19.3927 
G01 X-36.0168 Y19.4654 
G01 X-36.1748 Y19.5709 
G01 X-36.3091 Y19.7052 
G01 X-36.4146 Y19.8632 
G01 X-36.4873 Y20.0387 
G01 X-36.5244 Y20.2250 
G01 X-36.5244 Y20.4150 
G01 X-36.4873 Y20.6013 
G01 X-36.4146 Y20.7768 
G01 X-36.3091 Y20.9348 
G00 Z2.5400 
G00 X-33.9682 Y20.9535 
G01 Z-0.0800 F254.00 
G01 X-34.1384 Y20.5425 F254.00 
G01 X-34.1384 Y20.0975 
G01 X-33.9682 Y19.6865 
G01 X-33.6535 Y19.3718 
G01 X-33.2425 Y19.2016 
G01 X-32.7975 Y19.2016 
G01 X-32.3865 Y19.3718 
G01 X-32.0718 Y19.6865 
G01 X-31.9016 Y20.0975 
G01 X-31.9016 Y20.5425 
G01 X-32.0718 Y20.9535 
G01 X-32.3865 Y21.2681 
G01 X-32.7975 Y21.4384 
G01 X-33.2425 Y21.4384 
G01 X-33.6535 Y21.2681 
G01 X-33.9682 Y20.9535 
G00 Z2.5400 
G00 X-33.7691 Y20.9348 
G01 Z-0.0800 F254.00 
G01 X-33.6348 Y21.0691 F254.00 
G01 X-33.4768 Y21.1746 
G01 X-33.3013 Y21.2473 
G01 X-33.1150 Y21.2844 
G01 X-32.9250 Y21.2844 
G01 X-32.7387 Y21.2473 
G01 X-32.5632 Y21.1746 
G01 X-32.4052 Y21.0691 
G01 X-32.2709 Y20.9348 
G01 X-32.1654 Y20.7768 
G01 X-32.0927 Y20.6013 
G01 X-32.0556 Y20.4150 
G01 X-32.0556 Y20.2250 
G01 X-32.0927 Y20.0387 
G01 X-32.1654 Y19.8632 
G01 X-32.2709 Y19.7052 
G01 X-32.4052 Y19.5709 
G01 X-32.5632 Y19.4654 
G01 X-32.7387 Y19.3927 
G01 X-32.9250 Y19.3556 
G01 X-33.1150 Y19.3556 
G01 X-33.3013 Y19.3927 
G01 X-33.4768 Y19.4654 
G01 X-33.6348 Y19.5709 
G01 X-33.7691 Y19.7052 
G01 X-33.8746 Y19.8632 
G01 X-33.9473 Y20.0387 
G01 X-33.9844 Y20.2250 
G01 X-33.9844 Y20.4150 
G01 X-33.9473 Y20.6013 
G01 X-33.8746 Y20.7768 
G01 X-33.7691 Y20.9348 
G00 Z2.5400 
G00 X-31.4281 Y20.9535 
G01 Z-0.0800 F254.00 
G01 X-31.5984 Y20.5425 F254.00 
G01 X-31.5984 Y20.0975 
G01 X-31.4281 Y19.6865 
G01 X-31.1135 Y19.3718 
G01 X-30.7025 Y19.2016 
G01 X-30.2575 Y19.2016 
G01 X-29.8465 Y19.3718 
G01 X-29.5318 Y19.6865 
G01 X-29.3616 Y20.0975 
G01 X-29.3616 Y20.5425 
G01 X-29.5318 Y20.9535 
G01 X-29.8465 Y21.2681 
G01 X-30.2575 Y21.4384 
G01 X-30.7025 Y21.4384 
G01 X-31.1135 Y21.2681 
G01 X-31.4281 Y20.9535 
G00 Z2.5400 
G00 X-31.2291 Y20.9348 
G01 Z-0.0800 F254.00 
G01 X-31.0948 Y21.0691 F254.00 
G01 X-30.9368 Y21.1746 
G01 X-30.7613 Y21.2473 
G01 X-30.5750 Y21.2844 
G01 X-30.3850 Y21.2844 
G01 X-30.1987 Y21.2473 
G01 X-30.0232 Y21.1746 
G01 X-29.8652 Y21.0691 
G01 X-29.7309 Y20.9348 
G01 X-29.6254 Y20.7768 
G01 X-29.5527 Y20.6013 
G01 X-29.5156 Y20.4150 
G01 X-29.5156 Y20.2250 
G01 X-29.5527 Y20.0387 
G01 X-29.6254 Y19.8632 
G01 X-29.7309 Y19.7052 
G01 X-29.8652 Y19.5709 
G01 X-30.0232 Y19.4654 
G01 X-30.1987 Y19.3927 
G01 X-30.3850 Y19.3556 
G01 X-30.5750 Y19.3556 
G01 X-30.7613 Y19.3927 
G01 X-30.9368 Y19.4654 
G01 X-31.0948 Y19.5709 
G01 X-31.2291 Y19.7052 
G01 X-31.3346 Y19.8632 
G01 X-31.4073 Y20.0387 
G01 X-31.4444 Y20.2250 
G01 X-31.4444 Y20.4150 
G01 X-31.4073 Y20.6013 
G01 X-31.3346 Y20.7768 
G01 X-31.2291 Y20.9348 
G00 Z2.5400 
G00 X-4.9945 Y10.1029 
G01 Z-0.0800 F254.00 
G01 X-5.0229 Y10.0745 F254.00 
G01 X-5.0599 Y10.0592 
G01 X-62.2501 Y10.0592 
G01 X-62.2871 Y10.0745 
G01 X-62.3154 Y10.1029 
G01 X-62.3308 Y10.1399 
G01 X-62.3308 Y49.5500 
G01 X-62.3154 Y49.5871 
G01 X-62.2871 Y49.6155 
G01 X-62.2501 Y49.6308 
G01 X-62.2099 Y49.6308 
G01 X-5.0599 Y49.6308 
G01 X-5.0229 Y49.6155 
G01 X-4.9945 Y49.5871 
G01 X-4.9792 Y49.5500 
G01 X-4.9792 Y41.2051 
G01 X-4.9945 Y41.1681 
G01 X-5.0229 Y41.1397 
G01 X-5.5979 Y40.5647 
G01 X-5.9190 Y39.7895 
G01 X-5.9190 Y38.9505 
G01 X-5.5979 Y38.1753 
G01 X-4.9945 Y37.5719 
G01 X-4.9792 Y37.5349 
G01 X-4.9792 Y23.4251 
G01 X-4.9945 Y23.3880 
G01 X-5.0229 Y23.3597 
G01 X-5.5979 Y22.7847 
G01 X-5.9190 Y22.0095 
G01 X-5.9190 Y21.1705 
G01 X-5.5979 Y20.3953 
G01 X-4.9945 Y19.7919 
G01 X-4.9792 Y19.7549 
G01 X-4.9792 Y10.1399 
G01 X-4.9945 Y10.1029 
G00 Z2.5400 
G00 X-4.9268 Y19.9187 
G01 Z-0.0800 F254.00 
G01 X-5.1353 Y20.0787 F254.00 
G01 X-5.3213 Y20.2646 
G01 X-5.4813 Y20.4732 
G01 X-5.6128 Y20.7010 
G01 X-5.7134 Y20.9439 
G01 X-5.7815 Y21.1978 
G01 X-5.8158 Y21.4585 
G01 X-5.8158 Y21.7215 
G01 X-5.7815 Y21.9822 
G01 X-5.7134 Y22.2361 
G01 X-5.6128 Y22.4790 
G01 X-5.4813 Y22.7068 
G01 X-5.3213 Y22.9154 
G01 X-5.1353 Y23.1013 
G01 X-4.9268 Y23.2613 
G01 X-4.6990 Y23.3928 
G01 X-4.4561 Y23.4934 
G01 X-4.2021 Y23.5615 
G01 X-3.9415 Y23.5958 
G01 X-3.6785 Y23.5958 
G01 X-3.4178 Y23.5615 
G01 X-3.1639 Y23.4934 
G01 X-2.9210 Y23.3928 
G01 X-2.6932 Y23.2613 
G01 X-2.4846 Y23.1013 
G01 X-2.2987 Y22.9154 
G01 X-2.1387 Y22.7068 
G01 X-2.0072 Y22.4790 
G01 X-1.9066 Y22.2361 
G01 X-1.8385 Y21.9822 
G01 X-1.8042 Y21.7215 
G01 X-1.8042 Y21.4585 
G01 X-1.8385 Y21.1978 
G01 X-1.9066 Y20.9439 
G01 X-2.0072 Y20.7010 
G01 X-2.1387 Y20.4732 
G01 X-2.2987 Y20.2646 
G01 X-2.4846 Y20.0787 
G01 X-2.6932 Y19.9187 
G01 X-2.9210 Y19.7872 
G01 X-3.1639 Y19.6866 
G01 X-3.4178 Y19.6185 
G01 X-3.6785 Y19.5842 
G01 X-3.9415 Y19.5842 
G01 X-4.2021 Y19.6185 
G01 X-4.4561 Y19.6866 
G01 X-4.6990 Y19.7872 
G01 X-4.9268 Y19.9187 
G00 Z2.5400 
G00 X-6.5270 Y20.1026 
G01 Z-0.0800 F254.00 
G01 X-6.5270 Y20.5374 F254.00 
G01 X-6.6934 Y20.9391 
G01 X-7.0008 Y21.2466 
G01 X-7.4026 Y21.4130 
G01 X-7.8374 Y21.4130 
G01 X-8.2391 Y21.2466 
G01 X-8.5466 Y20.9391 
G01 X-8.7130 Y20.5374 
G01 X-8.7130 Y20.1026 
G01 X-8.5466 Y19.7008 
G01 X-8.2391 Y19.3934 
G01 X-7.8374 Y19.2270 
G01 X-7.4026 Y19.2270 
G01 X-7.0008 Y19.3934 
G01 X-6.6934 Y19.7008 
G01 X-6.5270 Y20.1026 
G00 Z2.5400 
G00 X-6.6682 Y20.0313 
G01 Z-0.0800 F254.00 
G01 X-6.7428 Y19.8512 F254.00 
G01 X-6.8512 Y19.6890 
G01 X-6.9890 Y19.5512 
G01 X-7.1512 Y19.4428 
G01 X-7.3313 Y19.3682 
G01 X-7.5225 Y19.3302 
G01 X-7.7175 Y19.3302 
G01 X-7.9087 Y19.3682 
G01 X-8.0888 Y19.4428 
G01 X-8.2510 Y19.5512 
G01 X-8.3888 Y19.6890 
G01 X-8.4971 Y19.8512 
G01 X-8.5718 Y20.0313 
G01 X-8.6098 Y20.2225 
G01 X-8.6098 Y20.4175 
G01 X-8.5718 Y20.6087 
G01 X-8.4971 Y20.7888 
G01 X-8.3888 Y20.9510 
G01 X-8.2510 Y21.0888 
G01 X-8.0888 Y21.1971 
G01 X-7.9087 Y21.2718 
G01 X-7.7175 Y21.3098 
G01 X-7.5225 Y21.3098 
G01 X-7.3313 Y21.2718 
G01 X-7.1512 Y21.1971 
G01 X-6.9890 Y21.0888 
G01 X-6.8512 Y20.9510 
G01 X-6.7428 Y20.7888 
G01 X-6.6682 Y20.6087 
G01 X-6.6302 Y20.4175 
G01 X-6.6302 Y20.2225 
G01 X-6.6682 Y20.0313 
G00 Z2.5400 
G00 X-9.0670 Y20.1026 
G01 Z-0.0800 F254.00 
G01 X-9.0670 Y20.5374 F254.00 
G01 X-9.2334 Y20.9391 
G01 X-9.5334 Y21.2391 
G01 X-9.5487 Y21.2762 
G01 X-9.5487 Y21.3163 
G01 X-9.5334 Y21.3533 
G01 X-9.5050 Y21.3817 
G01 X-8.3725 Y22.5142 
G01 X-8.2796 Y22.7386 
G01 X-8.2796 Y23.1730 
G01 X-8.2642 Y23.2100 
G01 X-8.2359 Y23.2384 
G01 X-7.9634 Y23.5109 
G01 X-7.7970 Y23.9126 
G01 X-7.7970 Y24.3474 
G01 X-7.9634 Y24.7491 
G01 X-8.2642 Y25.0500 
G01 X-8.2796 Y25.0870 
G01 X-8.2796 Y33.4020 
G01 X-8.2642 Y33.4391 
G01 X-8.2359 Y33.4674 
G01 X-8.2047 Y33.4803 
G01 X-8.0828 Y33.6023 
G01 X-8.0828 Y34.9777 
G01 X-8.2023 Y35.0972 
G01 X-9.5777 Y35.0972 
G01 X-9.6972 Y34.9777 
G01 X-9.6972 Y33.6023 
G01 X-9.5753 Y33.4803 
G01 X-9.5441 Y33.4674 
G01 X-9.5158 Y33.4391 
G01 X-9.5004 Y33.4020 
G01 X-9.5004 Y25.0870 
G01 X-9.5158 Y25.0500 
G01 X-9.8166 Y24.7491 
G01 X-9.9830 Y24.3474 
G01 X-9.9830 Y23.9126 
G01 X-9.8166 Y23.5109 
G01 X-9.5166 Y23.2108 
G01 X-9.5013 Y23.1738 
G01 X-9.5013 Y23.1337 
G01 X-9.5166 Y23.0967 
G01 X-9.5450 Y23.0683 
G01 X-10.5058 Y22.1075 
G01 X-10.6775 Y21.9358 
G01 X-10.7704 Y21.7114 
G01 X-10.7704 Y21.2770 
G01 X-10.7858 Y21.2400 
G01 X-10.8141 Y21.2116 
G01 X-11.0866 Y20.9391 
G01 X-11.2530 Y20.5374 
G01 X-11.2530 Y20.1026 
G01 X-11.0866 Y19.7008 
G01 X-10.7791 Y19.3934 
G01 X-10.3774 Y19.2270 
G01 X-9.9426 Y19.2270 
G01 X-9.5408 Y19.3934 
G01 X-9.2334 Y19.7008 
G01 X-9.0670 Y20.1026 
G00 Z2.5400 
G00 X-9.2082 Y20.0313 
G01 Z-0.0800 F254.00 
G01 X-9.2828 Y19.8512 F254.00 
G01 X-9.3912 Y19.6890 
G01 X-9.5290 Y19.5512 
G01 X-9.6912 Y19.4428 
G01 X-9.8713 Y19.3682 
G01 X-10.0625 Y19.3302 
G01 X-10.2575 Y19.3302 
G01 X-10.4487 Y19.3682 
G01 X-10.6288 Y19.4428 
G01 X-10.7910 Y19.5512 
G01 X-10.9288 Y19.6890 
G01 X-11.0371 Y19.8512 
G01 X-11.1118 Y20.0313 
G01 X-11.1498 Y20.2225 
G01 X-11.1498 Y20.4175 
G01 X-11.1118 Y20.6087 
G01 X-11.0371 Y20.7888 
G01 X-10.9288 Y20.9510 
G01 X-10.7910 Y21.0888 
G01 X-10.6672 Y21.1715 
G01 X-10.6672 Y21.6568 
G01 X-10.6326 Y21.7858 
G01 X-10.5659 Y21.9014 
G01 X-10.4714 Y21.9959 
G01 X-9.3972 Y23.0701 
G01 X-9.3972 Y23.2785 
G01 X-9.5210 Y23.3612 
G01 X-9.6588 Y23.4990 
G01 X-9.7671 Y23.6612 
G01 X-9.8418 Y23.8413 
G01 X-9.8798 Y24.0325 
G01 X-9.8798 Y24.2275 
G01 X-9.8418 Y24.4187 
G01 X-9.7671 Y24.5988 
G01 X-9.6588 Y24.7610 
G01 X-9.5210 Y24.8988 
G01 X-9.3972 Y24.9815 
G01 X-9.3972 Y33.5860 
G01 X-9.5132 Y33.5860 
G01 X-9.5503 Y33.6013 
G01 X-9.5786 Y33.6297 
G01 X-9.5940 Y33.6667 
G01 X-9.5940 Y34.9132 
G01 X-9.5786 Y34.9503 
G01 X-9.5503 Y34.9787 
G01 X-9.5132 Y34.9940 
G01 X-8.2667 Y34.9940 
G01 X-8.2297 Y34.9787 
G01 X-8.2013 Y34.9503 
G01 X-8.1860 Y34.9132 
G01 X-8.1860 Y33.6667 
G01 X-8.2013 Y33.6297 
G01 X-8.2297 Y33.6013 
G01 X-8.2667 Y33.5860 
G01 X-8.3828 Y33.5860 
G01 X-8.3828 Y24.9815 
G01 X-8.2590 Y24.8988 
G01 X-8.1212 Y24.7610 
G01 X-8.0129 Y24.5988 
G01 X-7.9382 Y24.4187 
G01 X-7.9002 Y24.2275 
G01 X-7.9002 Y24.0325 
G01 X-7.9382 Y23.8413 
G01 X-8.0129 Y23.6612 
G01 X-8.1212 Y23.4990 
G01 X-8.2590 Y23.3612 
G01 X-8.3828 Y23.2785 
G01 X-8.3828 Y22.7932 
G01 X-8.4174 Y22.6642 
G01 X-8.4841 Y22.5486 
G01 X-9.6528 Y21.3799 
G01 X-9.6528 Y21.1715 
G01 X-9.5290 Y21.0888 
G01 X-9.3912 Y20.9510 
G01 X-9.2828 Y20.7888 
G01 X-9.2082 Y20.6087 
G01 X-9.1702 Y20.4175 
G01 X-9.1702 Y20.2225 
G01 X-9.2082 Y20.0313 
G00 Z2.5400 
G00 X-11.6070 Y20.1026 
G01 Z-0.0800 F254.00 
G01 X-11.6070 Y20.5374 F254.00 
G01 X-11.7734 Y20.9391 
G01 X-12.0808 Y21.2466 
G01 X-12.4826 Y21.4130 
G01 X-12.9174 Y21.4130 
G01 X-13.3191 Y21.2466 
G01 X-13.6266 Y20.9391 
G01 X-13.7930 Y20.5374 
G01 X-13.7930 Y20.1026 
G01 X-13.6266 Y19.7008 
G01 X-13.3191 Y19.3934 
G01 X-12.9174 Y19.2270 
G01 X-12.4826 Y19.2270 
G01 X-12.0808 Y19.3934 
G01 X-11.7734 Y19.7008 
G01 X-11.6070 Y20.1026 
G00 Z2.5400 
G00 X-11.7482 Y20.0313 
G01 Z-0.0800 F254.00 
G01 X-11.8229 Y19.8512 F254.00 
G01 X-11.9312 Y19.6890 
G01 X-12.0690 Y19.5512 
G01 X-12.2312 Y19.4428 
G01 X-12.4113 Y19.3682 
G01 X-12.6025 Y19.3302 
G01 X-12.7975 Y19.3302 
G01 X-12.9887 Y19.3682 
G01 X-13.1688 Y19.4428 
G01 X-13.3310 Y19.5512 
G01 X-13.4688 Y19.6890 
G01 X-13.5771 Y19.8512 
G01 X-13.6518 Y20.0313 
G01 X-13.6898 Y20.2225 
G01 X-13.6898 Y20.4175 
G01 X-13.6518 Y20.6087 
G01 X-13.5771 Y20.7888 
G01 X-13.4688 Y20.9510 
G01 X-13.3310 Y21.0888 
G01 X-13.1688 Y21.1971 
G01 X-12.9887 Y21.2718 
G01 X-12.7975 Y21.3098 
G01 X-12.6025 Y21.3098 
G01 X-12.4113 Y21.2718 
G01 X-12.2312 Y21.1971 
G01 X-12.0690 Y21.0888 
G01 X-11.9312 Y20.9510 
G01 X-11.8229 Y20.7888 
G01 X-11.7482 Y20.6087 
G01 X-11.7102 Y20.4175 
G01 X-11.7102 Y20.2225 
G01 X-11.7482 Y20.0313 
G00 Z2.5400 
G00 X-12.5313 Y21.8178 
G01 Z-0.0800 F254.00 
G01 X-12.2928 Y22.0563 F254.00 
G01 X-12.2928 Y23.6396 
G01 X-12.3071 Y23.6612 
G01 X-12.3818 Y23.8413 
G01 X-12.3960 Y23.9129 
G01 X-12.3960 Y22.1850 
G01 X-12.4167 Y22.1077 
G01 X-12.4567 Y22.0383 
G01 X-12.5133 Y21.9817 
G01 X-12.5827 Y21.9417 
G01 X-12.6600 Y21.9210 
G01 X-15.7491 Y21.9210 
G01 X-16.8965 Y20.7736 
G01 X-16.8282 Y20.6087 
G01 X-16.7902 Y20.4175 
G01 X-16.7902 Y20.2225 
G01 X-16.8282 Y20.0313 
G01 X-16.9029 Y19.8512 
G01 X-17.0112 Y19.6890 
G01 X-17.1490 Y19.5512 
G01 X-17.3112 Y19.4428 
G01 X-17.4913 Y19.3682 
G01 X-17.6825 Y19.3302 
G01 X-17.8775 Y19.3302 
G01 X-18.0687 Y19.3682 
G01 X-18.2488 Y19.4428 
G01 X-18.4110 Y19.5512 
G01 X-18.5488 Y19.6890 
G01 X-18.6571 Y19.8512 
G01 X-18.7318 Y20.0313 
G01 X-18.7698 Y20.2225 
G01 X-18.7698 Y20.4175 
G01 X-18.7318 Y20.6087 
G01 X-18.6571 Y20.7888 
G01 X-18.5488 Y20.9510 
G01 X-18.4110 Y21.0888 
G01 X-18.2488 Y21.1971 
G01 X-18.0687 Y21.2718 
G01 X-17.8775 Y21.3098 
G01 X-17.6825 Y21.3098 
G01 X-17.4913 Y21.2718 
G01 X-17.3264 Y21.2035 
G01 X-16.0617 Y22.4683 
G01 X-15.9923 Y22.5083 
G01 X-15.9150 Y22.5290 
G01 X-13.0040 Y22.5290 
G01 X-13.0040 Y23.9129 
G01 X-13.0182 Y23.8413 
G01 X-13.0929 Y23.6612 
G01 X-13.2012 Y23.4990 
G01 X-13.3390 Y23.3612 
G01 X-13.5012 Y23.2528 
G01 X-13.6813 Y23.1782 
G01 X-13.8725 Y23.1402 
G01 X-14.0675 Y23.1402 
G01 X-14.2587 Y23.1782 
G01 X-14.4388 Y23.2528 
G01 X-14.6010 Y23.3612 
G01 X-14.7388 Y23.4990 
G01 X-14.8471 Y23.6612 
G01 X-14.9218 Y23.8413 
G01 X-14.9598 Y24.0325 
G01 X-14.9598 Y24.2275 
G01 X-14.9218 Y24.4187 
G01 X-14.8471 Y24.5988 
G01 X-14.7388 Y24.7610 
G01 X-14.6010 Y24.8988 
G01 X-14.4388 Y25.0071 
G01 X-14.2587 Y25.0818 
G01 X-14.2232 Y25.0888 
G01 X-14.2232 Y27.6868 
G01 X-28.9568 Y27.6868 
G01 X-28.9568 Y24.5876 
G01 X-28.9953 Y24.4946 
