(.../pcb-gcode-3.6.2.4/pcb-gcode.ulp)
(Copyright 2005 - 2012 by John Johnson)
(See readme.txt for licensing terms.)
(This file generated from the board:)
(.../new_object/object_1_milling.brd)
(Current profile is .../pcb-gcode-3.6.2.4/profiles/turbocnc.pp  )
(This file generated 16/11/2018 18:44)
(Settings from pcb-machine.h)
(spindle on time = 3.0000)
(  Tool Size)
(0.1000 )
(spindle speed = 30000.0000)
(tool change at 0.0000 0.0000 25.4000 )
(feed rate xy = F254.00 )
(feed rate z  = F254.00 )
(Z Axis Settings)
(  High     Up        Down     Drill)
(12.7000 	2.5400 	-0.0800 	-2.0000 )
(Settings from pcb-defaults.h)
(isolate min = 0.0254)
(isolate max = 0.3000)
(isolate step = 0.0254)
(Generated bottom outlines, bottom drill, )
(Unit of measure: mm)
(Metric Mode)
G21
(Absolute Coordinates)
G90
G97 S30000
G00 Z12.7000 
G00 X0.0000 Y0.0000 
M03
G04 P3.000000
G00 Z2.5400 
G00 X-2.6297 Y19.8236 
G01 Z-0.0800 F254.00 
G01 X-2.0436 Y20.4097 F254.00 
G01 X-1.7264 Y21.1755 
G01 X-1.7264 Y22.0045 
G01 X-2.0436 Y22.7703 
G01 X-2.6297 Y23.3564 
G01 X-3.3955 Y23.6736 
G01 X-4.2245 Y23.6736 
G01 X-4.9903 Y23.3564 
G01 X-5.5764 Y22.7703 
G01 X-5.8936 Y22.0045 
G01 X-5.8936 Y21.1755 
G01 X-5.5764 Y20.4097 
G01 X-4.9903 Y19.8236 
G01 X-4.2245 Y19.5064 
G01 X-3.3955 Y19.5064 
G01 X-2.6297 Y19.8236 
G00 Z2.5400 
G00 X-2.7074 Y19.9398 
G01 Z-0.0800 F254.00 
G01 X-2.9322 Y19.8100 F254.00 
G01 X-3.1721 Y19.7107 
G01 X-3.4228 Y19.6435 
G01 X-3.6802 Y19.6096 
G01 X-3.9398 Y19.6096 
G01 X-4.1972 Y19.6435 
G01 X-4.4479 Y19.7107 
G01 X-4.6878 Y19.8100 
G01 X-4.9126 Y19.9398 
G01 X-5.1186 Y20.0979 
G01 X-5.3021 Y20.2814 
G01 X-5.4602 Y20.4874 
G01 X-5.5900 Y20.7122 
G01 X-5.6893 Y20.9521 
G01 X-5.7565 Y21.2028 
G01 X-5.7904 Y21.4602 
G01 X-5.7904 Y21.7198 
G01 X-5.7565 Y21.9772 
G01 X-5.6893 Y22.2279 
G01 X-5.5900 Y22.4678 
G01 X-5.4602 Y22.6926 
G01 X-5.3021 Y22.8986 
G01 X-5.1186 Y23.0821 
G01 X-4.9126 Y23.2402 
G01 X-4.6878 Y23.3700 
G01 X-4.4479 Y23.4693 
G01 X-4.1972 Y23.5365 
G01 X-3.9398 Y23.5704 
G01 X-3.6802 Y23.5704 
G01 X-3.4228 Y23.5365 
G01 X-3.1721 Y23.4693 
G01 X-2.9322 Y23.3700 
G01 X-2.7074 Y23.2402 
G01 X-2.5014 Y23.0821 
G01 X-2.3179 Y22.8986 
G01 X-2.1598 Y22.6926 
G01 X-2.0300 Y22.4678 
G01 X-1.9307 Y22.2279 
G01 X-1.8635 Y21.9772 
G01 X-1.8296 Y21.7198 
G01 X-1.8296 Y21.4602 
G01 X-1.8635 Y21.2028 
G01 X-1.9307 Y20.9521 
G01 X-2.0300 Y20.7122 
G01 X-2.1598 Y20.4874 
G01 X-2.3179 Y20.2814 
G01 X-2.5014 Y20.0979 
G01 X-2.7074 Y19.9398 
G00 Z2.5400 
G00 X-6.5524 Y20.1076 
G01 Z-0.0800 F254.00 
G01 X-6.5524 Y20.5324 F254.00 
G01 X-6.7149 Y20.9248 
G01 X-7.0152 Y21.2251 
G01 X-7.4076 Y21.3876 
G01 X-7.8324 Y21.3876 
G01 X-8.2248 Y21.2251 
G01 X-8.5251 Y20.9248 
G01 X-8.6876 Y20.5324 
G01 X-8.6876 Y20.1076 
G01 X-8.5251 Y19.7152 
G01 X-8.2248 Y19.4149 
G01 X-7.8324 Y19.2524 
G01 X-7.4076 Y19.2524 
G01 X-7.0152 Y19.4149 
G01 X-6.7149 Y19.7152 
G01 X-6.5524 Y20.1076 
G00 Z2.5400 
G00 X-6.6927 Y20.0387 
G01 Z-0.0800 F254.00 
G01 X-6.7654 Y19.8632 F254.00 
G01 X-6.8709 Y19.7052 
G01 X-7.0052 Y19.5709 
G01 X-7.1632 Y19.4654 
G01 X-7.3387 Y19.3927 
G01 X-7.5250 Y19.3556 
G01 X-7.7150 Y19.3556 
G01 X-7.9013 Y19.3927 
G01 X-8.0768 Y19.4654 
G01 X-8.2348 Y19.5709 
G01 X-8.3691 Y19.7052 
G01 X-8.4746 Y19.8632 
G01 X-8.5473 Y20.0387 
G01 X-8.5844 Y20.2250 
G01 X-8.5844 Y20.4150 
G01 X-8.5473 Y20.6013 
G01 X-8.4746 Y20.7768 
G01 X-8.3691 Y20.9348 
G01 X-8.2348 Y21.0691 
G01 X-8.0768 Y21.1746 
G01 X-7.9013 Y21.2473 
G01 X-7.7150 Y21.2844 
G01 X-7.5250 Y21.2844 
G01 X-7.3387 Y21.2473 
G01 X-7.1632 Y21.1746 
G01 X-7.0052 Y21.0691 
G01 X-6.8709 Y20.9348 
G01 X-6.7654 Y20.7768 
G01 X-6.6927 Y20.6013 
G01 X-6.6556 Y20.4150 
G01 X-6.6556 Y20.2250 
G01 X-6.6927 Y20.0387 
G00 Z2.5400 
G00 X-9.0924 Y20.1076 
G01 Z-0.0800 F254.00 
G01 X-9.0924 Y20.5324 F254.00 
G01 X-9.2549 Y20.9248 
G01 X-9.5635 Y21.2333 
G01 X-9.5750 Y21.2611 
G01 X-9.5750 Y21.3314 
G01 X-9.5635 Y21.3592 
G01 X-9.5423 Y21.3804 
G01 X-8.3940 Y22.5286 
G01 X-8.3050 Y22.7436 
G01 X-8.3050 Y23.1889 
G01 X-8.2935 Y23.2167 
G01 X-8.2723 Y23.2379 
G01 X-7.9849 Y23.5252 
G01 X-7.8224 Y23.9176 
G01 X-7.8224 Y24.3424 
G01 X-7.9849 Y24.7348 
G01 X-8.2723 Y25.0221 
G01 X-8.2884 Y25.0383 
G01 X-8.2935 Y25.0433 
G01 X-8.3050 Y25.0710 
G01 X-8.3050 Y33.4478 
G01 X-8.2935 Y33.4755 
G01 X-8.2723 Y33.4967 
G01 X-8.2446 Y33.5082 
G01 X-8.2128 Y33.5082 
G01 X-8.1082 Y33.6128 
G01 X-8.1082 Y34.9672 
G01 X-8.2128 Y35.0718 
G01 X-9.5672 Y35.0718 
G01 X-9.6718 Y34.9672 
G01 X-9.6718 Y33.6128 
G01 X-9.5672 Y33.5082 
G01 X-9.5354 Y33.5082 
G01 X-9.5077 Y33.4967 
G01 X-9.4865 Y33.4755 
G01 X-9.4750 Y33.4478 
G01 X-9.4750 Y25.0710 
G01 X-9.4865 Y25.0433 
G01 X-9.5077 Y25.0221 
G01 X-9.7951 Y24.7348 
G01 X-9.9576 Y24.3424 
G01 X-9.9576 Y23.9176 
G01 X-9.7951 Y23.5252 
G01 X-9.5077 Y23.2379 
G01 X-9.4916 Y23.2217 
G01 X-9.4865 Y23.2167 
G01 X-9.4750 Y23.1889 
G01 X-9.4750 Y23.1186 
G01 X-9.4865 Y23.0908 
G01 X-9.5077 Y23.0696 
G01 X-10.4914 Y22.0860 
G01 X-10.6560 Y21.9214 
G01 X-10.7450 Y21.7064 
G01 X-10.7450 Y21.2611 
G01 X-10.7565 Y21.2333 
G01 X-10.7777 Y21.2121 
G01 X-11.0651 Y20.9248 
G01 X-11.2276 Y20.5324 
G01 X-11.2276 Y20.1076 
G01 X-11.0651 Y19.7152 
G01 X-10.7648 Y19.4149 
G01 X-10.3724 Y19.2524 
G01 X-9.9476 Y19.2524 
G01 X-9.5552 Y19.4149 
G01 X-9.2549 Y19.7152 
G01 X-9.0924 Y20.1076 
G00 Z2.5400 
G00 X-9.2327 Y20.0387 
G01 Z-0.0800 F254.00 
G01 X-9.3054 Y19.8632 F254.00 
G01 X-9.4109 Y19.7052 
G01 X-9.5452 Y19.5709 
G01 X-9.7032 Y19.4654 
G01 X-9.8787 Y19.3927 
G01 X-10.0650 Y19.3556 
G01 X-10.2550 Y19.3556 
G01 X-10.4413 Y19.3927 
G01 X-10.6168 Y19.4654 
G01 X-10.7748 Y19.5709 
G01 X-10.9091 Y19.7052 
G01 X-11.0146 Y19.8632 
G01 X-11.0873 Y20.0387 
G01 X-11.1244 Y20.2250 
G01 X-11.1244 Y20.4150 
G01 X-11.0873 Y20.6013 
G01 X-11.0146 Y20.7768 
G01 X-10.9091 Y20.9348 
G01 X-10.7748 Y21.0691 
G01 X-10.6418 Y21.1579 
G01 X-10.6418 Y21.6534 
G01 X-10.6090 Y21.7760 
G01 X-10.5455 Y21.8858 
G01 X-10.4558 Y21.9755 
G01 X-9.3718 Y23.0596 
G01 X-9.3718 Y23.2921 
G01 X-9.5048 Y23.3809 
G01 X-9.6391 Y23.5152 
G01 X-9.7446 Y23.6732 
G01 X-9.8173 Y23.8487 
G01 X-9.8544 Y24.0350 
G01 X-9.8544 Y24.2250 
G01 X-9.8173 Y24.4113 
G01 X-9.7446 Y24.5868 
G01 X-9.6391 Y24.7448 
G01 X-9.5048 Y24.8791 
G01 X-9.3718 Y24.9679 
G01 X-9.3718 Y33.6114 
G01 X-9.5082 Y33.6114 
G01 X-9.5359 Y33.6229 
G01 X-9.5571 Y33.6441 
G01 X-9.5686 Y33.6718 
G01 X-9.5686 Y34.9082 
G01 X-9.5571 Y34.9359 
G01 X-9.5359 Y34.9571 
G01 X-9.5082 Y34.9686 
G01 X-8.2718 Y34.9686 
G01 X-8.2441 Y34.9571 
G01 X-8.2229 Y34.9359 
G01 X-8.2114 Y34.9082 
G01 X-8.2114 Y33.6718 
G01 X-8.2229 Y33.6441 
G01 X-8.2441 Y33.6229 
G01 X-8.2718 Y33.6114 
G01 X-8.4082 Y33.6114 
G01 X-8.4082 Y24.9679 
G01 X-8.2752 Y24.8791 
G01 X-8.1409 Y24.7448 
G01 X-8.0354 Y24.5868 
G01 X-7.9627 Y24.4113 
G01 X-7.9256 Y24.2250 
G01 X-7.9256 Y24.0350 
G01 X-7.9627 Y23.8487 
G01 X-8.0354 Y23.6732 
G01 X-8.1409 Y23.5152 
G01 X-8.2752 Y23.3809 
G01 X-8.4082 Y23.2921 
G01 X-8.4082 Y22.7966 
G01 X-8.4410 Y22.6740 
G01 X-8.5045 Y22.5642 
G01 X-9.6782 Y21.3904 
G01 X-9.6782 Y21.1579 
G01 X-9.5452 Y21.0691 
G01 X-9.4109 Y20.9348 
G01 X-9.3054 Y20.7768 
G01 X-9.2327 Y20.6013 
G01 X-9.1956 Y20.4150 
G01 X-9.1956 Y20.2250 
G01 X-9.2327 Y20.0387 
G00 Z2.5400 
G00 X-11.6324 Y20.1076 
G01 Z-0.0800 F254.00 
G01 X-11.6324 Y20.5324 F254.00 
G01 X-11.7949 Y20.9248 
G01 X-12.0952 Y21.2251 
G01 X-12.4876 Y21.3876 
G01 X-12.9124 Y21.3876 
G01 X-13.3048 Y21.2251 
G01 X-13.6051 Y20.9248 
G01 X-13.7676 Y20.5324 
G01 X-13.7676 Y20.1076 
G01 X-13.6051 Y19.7152 
G01 X-13.3048 Y19.4149 
G01 X-12.9124 Y19.2524 
G01 X-12.4876 Y19.2524 
G01 X-12.0952 Y19.4149 
G01 X-11.7949 Y19.7152 
G01 X-11.6324 Y20.1076 
G00 Z2.5400 
G00 X-11.7727 Y20.0387 
G01 Z-0.0800 F254.00 
G01 X-11.8454 Y19.8632 F254.00 
G01 X-11.9509 Y19.7052 
G01 X-12.0852 Y19.5709 
G01 X-12.2432 Y19.4654 
G01 X-12.4187 Y19.3927 
G01 X-12.6050 Y19.3556 
G01 X-12.7950 Y19.3556 
G01 X-12.9813 Y19.3927 
G01 X-13.1568 Y19.4654 
G01 X-13.3148 Y19.5709 
G01 X-13.4491 Y19.7052 
G01 X-13.5546 Y19.8632 
G01 X-13.6273 Y20.0387 
G01 X-13.6644 Y20.2250 
G01 X-13.6644 Y20.4150 
G01 X-13.6273 Y20.6013 
G01 X-13.5546 Y20.7768 
G01 X-13.4491 Y20.9348 
G01 X-13.3148 Y21.0691 
G01 X-13.1568 Y21.1746 
G01 X-12.9813 Y21.2473 
G01 X-12.7950 Y21.2844 
G01 X-12.6050 Y21.2844 
G01 X-12.4187 Y21.2473 
G01 X-12.2432 Y21.1746 
G01 X-12.0852 Y21.0691 
G01 X-11.9509 Y20.9348 
G01 X-11.8454 Y20.7768 
G01 X-11.7727 Y20.6013 
G01 X-11.7356 Y20.4150 
G01 X-11.7356 Y20.2250 
G01 X-11.7727 Y20.0387 
G00 Z2.5400 
G00 X-12.5418 Y21.8432 
G01 Z-0.0800 F254.00 
G01 X-12.3182 Y22.0668 F254.00 
G01 X-12.3182 Y23.7542 
G01 X-12.3573 Y23.8487 
G01 X-12.3944 Y24.0350 
G01 X-12.3944 Y24.2250 
G01 X-12.3573 Y24.4113 
G01 X-12.3182 Y24.5058 
G01 X-12.3182 Y30.6381 
G01 X-12.5418 Y30.8618 
G01 X-17.3378 Y30.8618 
G01 X-17.3655 Y30.8733 
G01 X-17.3867 Y30.8945 
G01 X-17.3982 Y30.9222 
G01 X-17.3982 Y34.9910 
G01 X-17.3867 Y35.0187 
G01 X-17.3655 Y35.0399 
G01 X-17.3378 Y35.0514 
G01 X-16.9060 Y35.0514 
G01 X-16.8014 Y35.1560 
G01 X-16.8014 Y35.4378 
G01 X-16.7899 Y35.4655 
G01 X-16.7687 Y35.4867 
G01 X-16.7410 Y35.4982 
G01 X-16.2790 Y35.4982 
G01 X-16.2513 Y35.4867 
G01 X-16.2301 Y35.4655 
G01 X-16.2186 Y35.4378 
G01 X-16.2186 Y35.1060 
G01 X-16.1140 Y35.0014 
G01 X-14.3660 Y35.0014 
G01 X-14.2614 Y35.1060 
G01 X-14.2614 Y35.3878 
G01 X-14.2499 Y35.4155 
G01 X-14.2287 Y35.4367 
G01 X-14.2010 Y35.4482 
G01 X-13.7390 Y35.4482 
G01 X-13.7113 Y35.4367 
G01 X-13.6901 Y35.4155 
G01 X-13.6786 Y35.3878 
G01 X-13.6786 Y35.1560 
G01 X-13.5740 Y35.0514 
G01 X-11.8260 Y35.0514 
G01 X-11.7214 Y35.1560 
G01 X-11.7214 Y36.6040 
G01 X-11.8260 Y36.7086 
G01 X-13.5740 Y36.7086 
G01 X-13.6786 Y36.6040 
G01 X-13.6786 Y36.2722 
G01 X-13.6901 Y36.2445 
G01 X-13.7113 Y36.2233 
G01 X-13.7390 Y36.2118 
G01 X-14.2010 Y36.2118 
G01 X-14.2287 Y36.2233 
G01 X-14.2499 Y36.2445 
G01 X-14.2614 Y36.2722 
G01 X-14.2614 Y36.5540 
G01 X-14.3660 Y36.6586 
G01 X-16.1140 Y36.6586 
G01 X-16.2186 Y36.5540 
G01 X-16.2186 Y36.3222 
G01 X-16.2301 Y36.2945 
G01 X-16.2513 Y36.2733 
G01 X-16.2790 Y36.2618 
G01 X-16.7410 Y36.2618 
G01 X-16.7687 Y36.2733 
G01 X-16.7899 Y36.2945 
G01 X-16.8014 Y36.3222 
G01 X-16.8014 Y36.6040 
G01 X-16.9060 Y36.7086 
G01 X-18.6540 Y36.7086 
G01 X-18.7586 Y36.6040 
G01 X-18.7586 Y35.1560 
G01 X-18.6540 Y35.0514 
G01 X-18.2222 Y35.0514 
G01 X-18.1945 Y35.0399 
G01 X-18.1733 Y35.0187 
G01 X-18.1618 Y34.9910 
G01 X-18.1618 Y30.3218 
G01 X-17.9382 Y30.0982 
G01 X-13.1422 Y30.0982 
G01 X-13.1145 Y30.0867 
G01 X-13.0933 Y30.0655 
G01 X-13.0818 Y30.0378 
G01 X-13.0818 Y24.9187 
G01 X-13.0933 Y24.8910 
G01 X-13.1145 Y24.8698 
G01 X-13.1422 Y24.8583 
G01 X-13.1722 Y24.8583 
G01 X-13.1999 Y24.8698 
G01 X-13.2211 Y24.8910 
G01 X-13.3652 Y25.0351 
G01 X-13.6063 Y25.1349 
G01 X-13.6275 Y25.1561 
G01 X-13.6390 Y25.1838 
G01 X-13.6390 Y28.0771 
G01 X-13.8329 Y28.2710 
G01 X-29.3471 Y28.2710 
G01 X-29.5410 Y28.0771 
G01 X-29.5410 Y25.0294 
G01 X-29.5525 Y25.0017 
G01 X-29.5737 Y24.9805 
G01 X-29.6014 Y24.9690 
G01 X-38.0896 Y24.9690 
G01 X-38.1173 Y24.9805 
G01 X-38.1385 Y25.0017 
G01 X-38.1500 Y25.0294 
G01 X-38.1500 Y25.4101 
G01 X-38.3439 Y25.6040 
G01 X-48.1386 Y25.6040 
G01 X-48.1663 Y25.6155 
G01 X-48.1875 Y25.6367 
G01 X-48.1990 Y25.6644 
G01 X-48.1990 Y27.6756 
G01 X-48.1875 Y27.7033 
G01 X-48.1663 Y27.7245 
G01 X-48.1386 Y27.7360 
G01 X-43.4052 Y27.7360 
G01 X-43.3775 Y27.7245 
G01 X-43.3563 Y27.7033 
G01 X-43.3381 Y27.6852 
G01 X-43.0218 Y27.6852 
G01 X-42.7982 Y27.9088 
G01 X-42.7982 Y39.6072 
G01 X-42.7867 Y39.6349 
G01 X-42.7655 Y39.6561 
G01 X-42.5752 Y39.7349 
G01 X-42.2749 Y40.0352 
G01 X-42.1124 Y40.4276 
G01 X-42.1124 Y40.8524 
G01 X-42.2749 Y41.2448 
G01 X-42.5752 Y41.5451 
G01 X-42.9676 Y41.7076 
G01 X-43.3924 Y41.7076 
G01 X-43.5549 Y41.6403 
G01 X-43.5815 Y41.6293 
G01 X-43.6126 Y41.6288 
G01 X-43.6403 Y41.6403 
G01 X-43.6615 Y41.6615 
G01 X-45.5618 Y43.5618 
G01 X-52.2281 Y43.5618 
G01 X-52.4845 Y43.3055 
G01 X-52.9896 Y42.8004 
G01 X-53.0055 Y42.7938 
G01 X-53.0173 Y42.7889 
G01 X-53.0473 Y42.7889 
G01 X-53.0633 Y42.7955 
G01 X-53.0750 Y42.8004 
G01 X-53.0962 Y42.8216 
G01 X-53.0990 Y42.8244 
G01 X-53.4954 Y42.9886 
G01 X-55.7245 Y42.9886 
G01 X-56.1210 Y42.8244 
G01 X-56.4244 Y42.5210 
G01 X-56.5886 Y42.1245 
G01 X-56.5886 Y41.6954 
G01 X-56.4244 Y41.2990 
G01 X-56.1210 Y40.9956 
G01 X-55.7245 Y40.8314 
G01 X-53.4954 Y40.8314 
G01 X-53.0990 Y40.9956 
G01 X-52.7956 Y41.2990 
G01 X-52.6314 Y41.6954 
G01 X-52.6314 Y42.0624 
G01 X-52.6199 Y42.0901 
G01 X-52.5987 Y42.1113 
G01 X-51.9233 Y42.7867 
G01 X-51.8956 Y42.7982 
G01 X-45.8944 Y42.7982 
G01 X-45.8667 Y42.7867 
G01 X-45.8455 Y42.7655 
G01 X-44.1803 Y41.1003 
G01 X-44.1688 Y41.0726 
G01 X-44.1688 Y41.0426 
G01 X-44.1803 Y41.0149 
G01 X-44.2476 Y40.8524 
G01 X-44.2476 Y40.4276 
G01 X-44.0851 Y40.0352 
G01 X-43.7848 Y39.7349 
G01 X-43.5945 Y39.6561 
G01 X-43.5733 Y39.6349 
G01 X-43.5618 Y39.6072 
G01 X-43.5618 Y28.4584 
G01 X-43.5733 Y28.4307 
G01 X-43.5945 Y28.4095 
G01 X-43.6222 Y28.3980 
G01 X-45.3170 Y28.3980 
G01 X-45.3281 Y28.4026 
G01 X-45.3447 Y28.4095 
G01 X-45.3659 Y28.4307 
G01 X-45.3774 Y28.4584 
G01 X-45.3774 Y28.4884 
G01 X-45.3728 Y28.4996 
G01 X-45.3659 Y28.5161 
G01 X-45.3447 Y28.5373 
G01 X-45.3382 Y28.5438 
G01 X-45.3382 Y39.6072 
G01 X-45.3267 Y39.6349 
G01 X-45.3055 Y39.6561 
G01 X-45.1152 Y39.7349 
G01 X-44.8149 Y40.0352 
G01 X-44.6524 Y40.4276 
G01 X-44.6524 Y40.8524 
G01 X-44.8149 Y41.2448 
G01 X-45.1152 Y41.5451 
G01 X-45.5076 Y41.7076 
G01 X-45.9324 Y41.7076 
G01 X-46.0949 Y41.6403 
G01 X-46.1215 Y41.6293 
G01 X-46.1526 Y41.6288 
G01 X-46.1803 Y41.6403 
G01 X-46.2015 Y41.6615 
G01 X-46.5967 Y42.0567 
G01 X-46.8318 Y42.2918 
G01 X-50.9582 Y42.2918 
G01 X-51.2145 Y42.0355 
G01 X-52.9896 Y40.2604 
G01 X-53.0055 Y40.2538 
G01 X-53.0173 Y40.2489 
G01 X-53.0473 Y40.2489 
G01 X-53.0633 Y40.2555 
G01 X-53.0750 Y40.2604 
G01 X-53.0962 Y40.2816 
G01 X-53.0990 Y40.2844 
G01 X-53.4954 Y40.4486 
G01 X-55.7245 Y40.4486 
G01 X-56.1210 Y40.2844 
G01 X-56.4244 Y39.9810 
G01 X-56.5886 Y39.5845 
G01 X-56.5886 Y39.1554 
G01 X-56.4244 Y38.7590 
G01 X-56.1210 Y38.4556 
G01 X-55.7245 Y38.2914 
G01 X-53.4954 Y38.2914 
G01 X-53.0990 Y38.4556 
G01 X-52.7956 Y38.7590 
G01 X-52.6314 Y39.1554 
G01 X-52.6314 Y39.5224 
G01 X-52.6199 Y39.5501 
G01 X-52.6036 Y39.5665 
G01 X-51.5811 Y40.5890 
G01 X-51.5762 Y40.5938 
G01 X-51.5599 Y40.6102 
G01 X-51.5321 Y40.6217 
G01 X-51.5021 Y40.6217 
G01 X-51.4744 Y40.6102 
G01 X-51.4532 Y40.5890 
G01 X-51.4417 Y40.5613 
G01 X-51.4417 Y40.5313 
G01 X-51.4532 Y40.5035 
G01 X-51.7406 Y39.8097 
G01 X-51.7406 Y38.9303 
G01 X-51.4041 Y38.1178 
G01 X-50.7822 Y37.4959 
G01 X-49.9697 Y37.1594 
G01 X-49.0903 Y37.1594 
G01 X-48.8870 Y37.2436 
G01 X-48.8605 Y37.2546 
G01 X-48.8293 Y37.2550 
G01 X-48.8016 Y37.2436 
G01 X-48.7804 Y37.2224 
G01 X-48.7689 Y37.1947 
G01 X-48.7689 Y37.1647 
G01 X-48.7804 Y37.1369 
G01 X-48.8016 Y37.1157 
G01 X-51.0308 Y34.8865 
G01 X-51.0586 Y34.8750 
G01 X-52.7534 Y34.8750 
G01 X-52.7811 Y34.8865 
G01 X-52.8023 Y34.9077 
G01 X-53.0990 Y35.2044 
G01 X-53.4954 Y35.3686 
G01 X-55.7245 Y35.3686 
G01 X-56.1210 Y35.2044 
G01 X-56.4244 Y34.9010 
G01 X-56.5886 Y34.5045 
G01 X-56.5886 Y34.0754 
G01 X-56.4244 Y33.6790 
G01 X-56.1210 Y33.3756 
G01 X-55.7245 Y33.2114 
G01 X-53.4954 Y33.2114 
G01 X-53.0990 Y33.3756 
G01 X-52.8023 Y33.6723 
G01 X-52.7863 Y33.6883 
G01 X-52.7811 Y33.6935 
G01 X-52.7534 Y33.7050 
G01 X-50.6836 Y33.7050 
G01 X-50.4686 Y33.7940 
G01 X-50.2828 Y33.9798 
G01 X-47.4899 Y36.7727 
G01 X-47.4622 Y36.7842 
G01 X-47.4322 Y36.7842 
G01 X-47.4045 Y36.7727 
G01 X-47.3833 Y36.7515 
G01 X-47.3718 Y36.7238 
G01 X-47.3718 Y29.7284 
G01 X-47.3833 Y29.7007 
G01 X-47.4045 Y29.6795 
G01 X-47.4322 Y29.6680 
G01 X-49.6671 Y29.6680 
G01 X-49.8610 Y29.4741 
G01 X-49.8610 Y27.2009 
G01 X-49.8725 Y27.1732 
G01 X-49.8937 Y27.1520 
G01 X-49.9214 Y27.1405 
G01 X-50.2290 Y27.1405 
G01 X-50.2373 Y27.1322 
G01 X-50.2417 Y27.1304 
G01 X-50.2650 Y27.1207 
G01 X-50.2950 Y27.1207 
G01 X-50.3110 Y27.1274 
G01 X-50.3227 Y27.1322 
G01 X-50.3310 Y27.1405 
G01 X-50.7290 Y27.1405 
G01 X-50.8358 Y27.0337 
G01 X-50.8545 Y27.0150 
G01 X-50.8847 Y27.0010 
G01 X-52.6442 Y27.0010 
G01 X-52.6720 Y27.0125 
G01 X-52.6932 Y27.0337 
G01 X-52.7956 Y27.2810 
G01 X-53.0990 Y27.5844 
G01 X-53.4954 Y27.7486 
G01 X-55.7245 Y27.7486 
G01 X-56.1210 Y27.5844 
G01 X-56.4244 Y27.2810 
G01 X-56.5058 Y27.0845 
G01 X-56.5270 Y27.0633 
G01 X-56.5547 Y27.0518 
G01 X-56.7840 Y27.0518 
G01 X-56.8117 Y27.0633 
G01 X-56.8329 Y27.0845 
G01 X-56.8444 Y27.1122 
G01 X-56.8444 Y27.3944 
G01 X-57.0606 Y27.6106 
G01 X-58.5302 Y27.6106 
G01 X-58.5451 Y27.6106 
G01 X-58.5595 Y27.6106 
G01 X-58.6300 Y27.6121 
G01 X-58.6794 Y27.5628 
G01 X-58.6900 Y27.5521 
G01 X-58.7001 Y27.5420 
G01 X-58.7510 Y27.4932 
G01 X-58.7510 Y27.4234 
G01 X-58.7510 Y27.4085 
G01 X-58.7510 Y27.3941 
G01 X-58.7525 Y27.3236 
G01 X-58.7031 Y27.2742 
G01 X-58.6925 Y27.2636 
G01 X-58.6824 Y27.2535 
G01 X-58.3166 Y26.8742 
G01 X-58.1978 Y26.7554 
G01 X-58.1694 Y26.7271 
G01 X-58.1659 Y26.7185 
G01 X-58.1610 Y26.7138 
G01 X-58.1546 Y26.6989 
G01 X-58.1491 Y26.6863 
G01 X-58.1486 Y26.6837 
G01 X-58.1488 Y26.6700 
G01 X-58.1486 Y26.6563 
G01 X-58.1491 Y26.6537 
G01 X-58.1546 Y26.6411 
G01 X-58.1595 Y26.6284 
G01 X-58.1659 Y26.6215 
G01 X-58.1694 Y26.6129 
G01 X-58.3166 Y26.4658 
G01 X-58.6822 Y26.0871 
G01 X-58.6925 Y26.0764 
G01 X-58.7025 Y26.0661 
G01 X-58.7525 Y26.0164 
G01 X-58.7513 Y25.9465 
G01 X-58.7510 Y25.9315 
G01 X-58.7508 Y25.9172 
G01 X-58.7510 Y25.8468 
G01 X-58.7007 Y25.7982 
G01 X-58.6900 Y25.7878 
G01 X-58.6796 Y25.7779 
G01 X-58.6300 Y25.7279 
G01 X-58.5601 Y25.7291 
G01 X-58.5451 Y25.7294 
G01 X-58.5308 Y25.7296 
G01 X-57.0606 Y25.7294 
G01 X-56.8444 Y25.9456 
G01 X-56.8444 Y26.2278 
G01 X-56.8329 Y26.2555 
G01 X-56.8117 Y26.2767 
G01 X-56.7840 Y26.2882 
G01 X-56.5547 Y26.2882 
G01 X-56.5270 Y26.2767 
G01 X-56.5058 Y26.2555 
G01 X-56.4244 Y26.0590 
G01 X-56.1210 Y25.7556 
G01 X-55.7245 Y25.5914 
G01 X-53.4954 Y25.5914 
G01 X-53.0990 Y25.7556 
G01 X-52.7956 Y26.0590 
G01 X-52.6932 Y26.3063 
G01 X-52.6720 Y26.3275 
G01 X-52.6442 Y26.3390 
G01 X-50.8940 Y26.3390 
G01 X-50.8663 Y26.3275 
G01 X-50.8451 Y26.3063 
G01 X-50.8336 Y26.2786 
G01 X-50.8336 Y25.8879 
G01 X-50.7290 Y25.7833 
G01 X-50.4214 Y25.7833 
G01 X-50.3937 Y25.7718 
G01 X-50.3725 Y25.7506 
G01 X-50.3610 Y25.7229 
G01 X-50.3610 Y24.5214 
G01 X-50.3725 Y24.4937 
G01 X-50.3937 Y24.4725 
G01 X-50.4214 Y24.4610 
G01 X-52.6442 Y24.4610 
G01 X-52.6720 Y24.4725 
G01 X-52.6932 Y24.4937 
G01 X-52.7956 Y24.7410 
G01 X-53.0990 Y25.0444 
G01 X-53.4954 Y25.2086 
G01 X-55.7245 Y25.2086 
G01 X-56.1210 Y25.0444 
G01 X-56.4244 Y24.7410 
G01 X-56.5058 Y24.5445 
G01 X-56.5270 Y24.5233 
G01 X-56.5547 Y24.5118 
G01 X-56.7840 Y24.5118 
G01 X-56.8117 Y24.5233 
G01 X-56.8329 Y24.5445 
G01 X-56.8444 Y24.5722 
G01 X-56.8444 Y24.8544 
G01 X-57.0606 Y25.0706 
G01 X-58.5302 Y25.0706 
G01 X-58.5451 Y25.0706 
G01 X-58.5595 Y25.0706 
G01 X-58.6300 Y25.0721 
G01 X-58.6794 Y25.0227 
G01 X-58.6900 Y25.0121 
G01 X-58.7001 Y25.0020 
G01 X-58.7510 Y24.9532 
G01 X-58.7510 Y24.8834 
G01 X-58.7510 Y24.8685 
G01 X-58.7510 Y24.8541 
G01 X-58.7525 Y24.7836 
G01 X-58.7031 Y24.7342 
G01 X-58.6925 Y24.7236 
G01 X-58.6824 Y24.7135 
G01 X-58.3166 Y24.3342 
G01 X-58.1978 Y24.2155 
G01 X-58.1694 Y24.1871 
G01 X-58.1659 Y24.1785 
G01 X-58.1610 Y24.1738 
G01 X-58.1546 Y24.1589 
G01 X-58.1491 Y24.1463 
G01 X-58.1486 Y24.1437 
G01 X-58.1488 Y24.1300 
G01 X-58.1486 Y24.1163 
G01 X-58.1491 Y24.1137 
G01 X-58.1546 Y24.1011 
G01 X-58.1595 Y24.0884 
G01 X-58.1659 Y24.0815 
G01 X-58.1694 Y24.0729 
G01 X-58.3166 Y23.9258 
G01 X-58.6821 Y23.5471 
G01 X-58.6925 Y23.5364 
G01 X-58.7025 Y23.5261 
G01 X-58.7525 Y23.4764 
G01 X-58.7513 Y23.4065 
G01 X-58.7510 Y23.3915 
G01 X-58.7508 Y23.3772 
G01 X-58.7510 Y23.3068 
G01 X-58.7007 Y23.2582 
G01 X-58.6900 Y23.2478 
G01 X-58.6796 Y23.2379 
G01 X-58.6300 Y23.1879 
G01 X-58.5601 Y23.1891 
G01 X-58.5451 Y23.1894 
G01 X-58.5308 Y23.1896 
G01 X-57.0606 Y23.1894 
G01 X-56.8444 Y23.4056 
G01 X-56.8444 Y23.6878 
G01 X-56.8329 Y23.7155 
G01 X-56.8117 Y23.7367 
G01 X-56.7840 Y23.7482 
G01 X-56.5547 Y23.7482 
G01 X-56.5270 Y23.7367 
G01 X-56.5058 Y23.7155 
G01 X-56.4244 Y23.5190 
G01 X-56.1210 Y23.2156 
G01 X-55.7245 Y23.0514 
G01 X-53.4954 Y23.0514 
G01 X-53.0990 Y23.2156 
G01 X-52.7956 Y23.5190 
G01 X-52.6932 Y23.7663 
G01 X-52.6720 Y23.7875 
G01 X-52.6442 Y23.7990 
G01 X-50.3377 Y23.7990 
G01 X-50.3100 Y23.7875 
G01 X-50.2888 Y23.7663 
G01 X-50.2773 Y23.7386 
G01 X-50.2773 Y23.7086 
G01 X-50.2888 Y23.6809 
G01 X-50.3100 Y23.6597 
G01 X-50.7822 Y23.4641 
G01 X-51.4041 Y22.8422 
G01 X-51.7406 Y22.0297 
G01 X-51.7406 Y21.1503 
G01 X-51.4041 Y20.3378 
G01 X-50.7822 Y19.7159 
G01 X-49.9697 Y19.3794 
G01 X-49.0903 Y19.3794 
G01 X-48.2778 Y19.7159 
G01 X-47.6559 Y20.3378 
G01 X-47.3194 Y21.1503 
G01 X-47.3194 Y22.0297 
G01 X-47.6559 Y22.8422 
G01 X-48.2778 Y23.4641 
G01 X-49.0566 Y23.7867 
G01 X-49.0778 Y23.8079 
G01 X-49.0893 Y23.8356 
G01 X-49.0893 Y23.8656 
G01 X-49.0778 Y23.8933 
G01 X-49.0566 Y23.9145 
G01 X-49.0289 Y23.9260 
G01 X-46.6353 Y23.9260 
G01 X-46.6076 Y23.9145 
G01 X-46.5864 Y23.8933 
G01 X-46.2901 Y23.5970 
G01 X-46.2786 Y23.5693 
G01 X-46.2786 Y22.6210 
G01 X-46.1740 Y22.5164 
G01 X-44.7260 Y22.5164 
G01 X-44.6214 Y22.6210 
G01 X-44.6214 Y24.3736 
G01 X-44.6099 Y24.4013 
G01 X-44.5887 Y24.4225 
G01 X-44.5610 Y24.4340 
G01 X-39.3804 Y24.4340 
G01 X-39.3527 Y24.4225 
G01 X-39.3315 Y24.4013 
G01 X-39.3200 Y24.3736 
G01 X-39.3200 Y23.9929 
G01 X-39.1261 Y23.7990 
G01 X-28.5649 Y23.7990 
G01 X-28.3710 Y23.9929 
G01 X-28.3710 Y27.0406 
G01 X-28.3595 Y27.0683 
G01 X-28.3383 Y27.0895 
G01 X-28.3106 Y27.1010 
G01 X-16.9014 Y27.1010 
G01 X-16.8737 Y27.0895 
G01 X-16.8525 Y27.0683 
G01 X-16.8410 Y27.0406 
G01 X-16.8410 Y25.1838 
G01 X-16.8525 Y25.1561 
G01 X-16.8737 Y25.1349 
G01 X-17.1148 Y25.0351 
G01 X-17.4151 Y24.7348 
G01 X-17.5776 Y24.3424 
G01 X-17.5776 Y23.9176 
G01 X-17.4151 Y23.5252 
G01 X-17.1148 Y23.2249 
G01 X-16.7224 Y23.0624 
G01 X-16.2976 Y23.0624 
G01 X-15.9052 Y23.2249 
G01 X-15.6049 Y23.5252 
G01 X-15.4424 Y23.9176 
G01 X-15.4424 Y24.3424 
G01 X-15.6049 Y24.7348 
G01 X-15.9052 Y25.0351 
G01 X-16.1463 Y25.1349 
G01 X-16.1675 Y25.1561 
G01 X-16.1790 Y25.1838 
G01 X-16.1790 Y27.5486 
G01 X-16.1675 Y27.5763 
G01 X-16.1463 Y27.5975 
G01 X-16.1186 Y27.6090 
G01 X-14.3614 Y27.6090 
G01 X-14.3337 Y27.5975 
G01 X-14.3125 Y27.5763 
G01 X-14.3010 Y27.5486 
G01 X-14.3010 Y25.1838 
G01 X-14.3125 Y25.1561 
G01 X-14.3337 Y25.1349 
G01 X-14.5748 Y25.0351 
G01 X-14.8751 Y24.7348 
G01 X-15.0376 Y24.3424 
G01 X-15.0376 Y23.9176 
G01 X-14.8751 Y23.5252 
G01 X-14.5748 Y23.2249 
G01 X-14.1824 Y23.0624 
G01 X-13.7576 Y23.0624 
G01 X-13.3652 Y23.2249 
G01 X-13.2211 Y23.3690 
G01 X-13.2028 Y23.3874 
G01 X-13.1999 Y23.3902 
G01 X-13.1722 Y23.4017 
G01 X-13.1422 Y23.4017 
G01 X-13.1145 Y23.3902 
G01 X-13.0933 Y23.3690 
G01 X-13.0818 Y23.3413 
G01 X-13.0818 Y22.6672 
G01 X-13.0933 Y22.6395 
G01 X-13.1145 Y22.6183 
G01 X-13.1422 Y22.6068 
G01 X-16.0331 Y22.6068 
G01 X-17.2985 Y21.3415 
G01 X-17.3197 Y21.3203 
G01 X-17.3474 Y21.3088 
G01 X-17.3774 Y21.3088 
G01 X-17.4051 Y21.3203 
G01 X-17.5676 Y21.3876 
G01 X-17.9924 Y21.3876 
G01 X-18.3848 Y21.2251 
G01 X-18.6851 Y20.9248 
G01 X-18.8476 Y20.5324 
G01 X-18.8476 Y20.1076 
G01 X-18.6851 Y19.7152 
G01 X-18.3848 Y19.4149 
G01 X-17.9924 Y19.2524 
G01 X-17.5676 Y19.2524 
G01 X-17.1752 Y19.4149 
G01 X-16.8749 Y19.7152 
G01 X-16.7124 Y20.1076 
G01 X-16.7124 Y20.5324 
G01 X-16.7797 Y20.6949 
G01 X-16.7907 Y20.7215 
G01 X-16.7912 Y20.7526 
G01 X-16.7797 Y20.7803 
G01 X-16.7585 Y20.8015 
G01 X-15.7283 Y21.8317 
G01 X-15.7006 Y21.8432 
G01 X-12.5418 Y21.8432 
G00 Z2.5400 
G00 X-12.5289 Y22.0021 
G01 Z-0.0800 F254.00 
G01 X-12.5925 Y21.9654 F254.00 
G01 X-12.6633 Y21.9464 
G01 X-15.7596 Y21.9464 
G01 X-16.9269 Y20.7791 
G01 X-16.8527 Y20.6013 
G01 X-16.8156 Y20.4150 
G01 X-16.8156 Y20.2250 
G01 X-16.8527 Y20.0387 
G01 X-16.9254 Y19.8632 
G01 X-17.0309 Y19.7052 
G01 X-17.1652 Y19.5709 
G01 X-17.3232 Y19.4654 
G01 X-17.4987 Y19.3927 
G01 X-17.6850 Y19.3556 
G01 X-17.8750 Y19.3556 
G01 X-18.0613 Y19.3927 
G01 X-18.2368 Y19.4654 
G01 X-18.3948 Y19.5709 
G01 X-18.5291 Y19.7052 
G01 X-18.6346 Y19.8632 
G01 X-18.7073 Y20.0387 
G01 X-18.7444 Y20.2250 
G01 X-18.7444 Y20.4150 
G01 X-18.7073 Y20.6013 
G01 X-18.6346 Y20.7768 
G01 X-18.5291 Y20.9348 
G01 X-18.3948 Y21.0691 
G01 X-18.2368 Y21.1746 
G01 X-18.0613 Y21.2473 
G01 X-17.8750 Y21.2844 
G01 X-17.6850 Y21.2844 
G01 X-17.4987 Y21.2473 
G01 X-17.3232 Y21.1746 
G01 X-16.0461 Y22.4479 
G01 X-15.9825 Y22.4846 
G01 X-15.9117 Y22.5036 
G01 X-12.9786 Y22.5036 
G01 X-12.9786 Y30.2014 
G01 X-17.8167 Y30.2014 
G01 X-17.8875 Y30.2204 
G01 X-17.9511 Y30.2571 
G01 X-18.0029 Y30.3089 
G01 X-18.0396 Y30.3725 
G01 X-18.0586 Y30.4433 
G01 X-18.0586 Y35.1546 
G01 X-18.5950 Y35.1546 
G01 X-18.6227 Y35.1661 
G01 X-18.6439 Y35.1873 
G01 X-18.6554 Y35.2150 
G01 X-18.6554 Y36.5450 
G01 X-18.6439 Y36.5727 
G01 X-18.6227 Y36.5939 
G01 X-18.5950 Y36.6054 
G01 X-16.9650 Y36.6054 
G01 X-16.9373 Y36.5939 
G01 X-16.9161 Y36.5727 
G01 X-16.9046 Y36.5450 
G01 X-16.9046 Y36.1586 
G01 X-16.1154 Y36.1586 
G01 X-16.1154 Y36.4950 
G01 X-16.1039 Y36.5227 
G01 X-16.0827 Y36.5439 
G01 X-16.0550 Y36.5554 
G01 X-14.4250 Y36.5554 
G01 X-14.3973 Y36.5439 
G01 X-14.3761 Y36.5227 
G01 X-14.3646 Y36.4950 
G01 X-14.3646 Y36.1086 
G01 X-13.5754 Y36.1086 
G01 X-13.5754 Y36.5450 
G01 X-13.5639 Y36.5727 
G01 X-13.5427 Y36.5939 
G01 X-13.5150 Y36.6054 
G01 X-11.8850 Y36.6054 
G01 X-11.8573 Y36.5939 
G01 X-11.8361 Y36.5727 
G01 X-11.8246 Y36.5450 
G01 X-11.8246 Y35.2150 
G01 X-11.8361 Y35.1873 
G01 X-11.8573 Y35.1661 
G01 X-11.8850 Y35.1546 
G01 X-13.5150 Y35.1546 
G01 X-13.5427 Y35.1661 
G01 X-13.5639 Y35.1873 
G01 X-13.5754 Y35.2150 
G01 X-13.5754 Y35.5514 
G01 X-14.3646 Y35.5514 
G01 X-14.3646 Y35.1650 
G01 X-14.3761 Y35.1373 
G01 X-14.3973 Y35.1161 
G01 X-14.4250 Y35.1046 
G01 X-16.0550 Y35.1046 
G01 X-16.0827 Y35.1161 
G01 X-16.1039 Y35.1373 
G01 X-16.1154 Y35.1650 
G01 X-16.1154 Y35.6014 
G01 X-16.9046 Y35.6014 
G01 X-16.9046 Y35.2150 
G01 X-16.9161 Y35.1873 
G01 X-16.9373 Y35.1661 
G01 X-16.9650 Y35.1546 
G01 X-17.5014 Y35.1546 
G01 X-17.5014 Y30.7586 
G01 X-12.6633 Y30.7586 
G01 X-12.5925 Y30.7396 
G01 X-12.5289 Y30.7029 
G01 X-12.4771 Y30.6511 
G01 X-12.4404 Y30.5875 
G01 X-12.4214 Y30.5167 
G01 X-12.4214 Y22.1883 
G01 X-12.4404 Y22.1175 
G01 X-12.4771 Y22.0539 
G01 X-12.5289 Y22.0021 
G00 Z2.5400 
G00 X-13.2209 Y23.5152 
G01 Z-0.0800 F254.00 
G01 X-13.3552 Y23.3809 F254.00 
G01 X-13.5132 Y23.2754 
G01 X-13.6887 Y23.2027 
G01 X-13.8750 Y23.1656 
G01 X-14.0650 Y23.1656 
G01 X-14.2513 Y23.2027 
G01 X-14.4268 Y23.2754 
G01 X-14.5848 Y23.3809 
G01 X-14.7191 Y23.5152 
G01 X-14.8246 Y23.6732 
G01 X-14.8973 Y23.8487 
G01 X-14.9344 Y24.0350 
G01 X-14.9344 Y24.2250 
G01 X-14.8973 Y24.4113 
G01 X-14.8246 Y24.5868 
G01 X-14.7191 Y24.7448 
G01 X-14.5848 Y24.8791 
G01 X-14.4268 Y24.9846 
G01 X-14.2513 Y25.0573 
G01 X-14.1978 Y25.0680 
G01 X-14.1978 Y27.7122 
G01 X-28.9822 Y27.7122 
G01 X-28.9822 Y24.5927 
G01 X-29.0169 Y24.5090 
G01 X-29.0810 Y24.4449 
G01 X-29.1647 Y24.4102 
G01 X-38.5263 Y24.4102 
G01 X-38.6100 Y24.4449 
G01 X-38.6741 Y24.5090 
G01 X-38.7088 Y24.5927 
G01 X-38.7088 Y25.0452 
G01 X-48.5753 Y25.0452 
G01 X-48.6590 Y25.0799 
G01 X-48.7231 Y25.1440 
G01 X-48.7578 Y25.2277 
G01 X-48.7578 Y28.1123 
G01 X-48.7231 Y28.1960 
G01 X-48.6590 Y28.2601 
G01 X-48.5753 Y28.2948 
G01 X-43.4586 Y28.2948 
G01 X-43.4586 Y39.7121 
G01 X-43.4613 Y39.7127 
G01 X-43.6368 Y39.7854 
G01 X-43.7948 Y39.8909 
G01 X-43.9291 Y40.0252 
G01 X-44.0346 Y40.1832 
G01 X-44.1073 Y40.3587 
G01 X-44.1444 Y40.5450 
G01 X-44.1444 Y40.7350 
G01 X-44.1073 Y40.9213 
G01 X-44.0346 Y41.0968 
G01 X-45.8354 Y42.9014 
G01 X-51.9546 Y42.9014 
G01 X-52.7537 Y42.1023 
G01 X-52.7346 Y42.0061 
G01 X-52.7346 Y41.8139 
G01 X-52.7721 Y41.6255 
G01 X-52.8456 Y41.4480 
G01 X-52.9524 Y41.2882 
G01 X-53.0882 Y41.1524 
G01 X-53.2480 Y41.0456 
G01 X-53.4255 Y40.9721 
G01 X-53.6139 Y40.9346 
G01 X-55.6061 Y40.9346 
G01 X-55.7945 Y40.9721 
G01 X-55.9720 Y41.0456 
G01 X-56.1318 Y41.1524 
G01 X-56.2676 Y41.2882 
G01 X-56.3744 Y41.4480 
G01 X-56.4479 Y41.6255 
G01 X-56.4854 Y41.8139 
G01 X-56.4854 Y42.0061 
G01 X-56.4479 Y42.1945 
G01 X-56.3744 Y42.3720 
G01 X-56.2676 Y42.5318 
G01 X-56.1318 Y42.6676 
G01 X-55.9720 Y42.7744 
G01 X-55.7945 Y42.8479 
G01 X-55.6061 Y42.8854 
G01 X-53.6139 Y42.8854 
G01 X-53.4255 Y42.8479 
G01 X-53.2480 Y42.7744 
G01 X-53.0882 Y42.6676 
G01 X-53.0323 Y42.6117 
G01 X-52.2929 Y43.3511 
G01 X-52.2411 Y43.4029 
G01 X-52.1775 Y43.4396 
G01 X-52.1067 Y43.4586 
G01 X-45.6833 Y43.4586 
G01 X-45.6125 Y43.4396 
G01 X-45.5489 Y43.4029 
G01 X-43.6391 Y41.4931 
G01 X-43.4613 Y41.5673 
G01 X-43.2750 Y41.6044 
G01 X-43.0850 Y41.6044 
G01 X-42.8987 Y41.5673 
G01 X-42.7232 Y41.4946 
G01 X-42.5652 Y41.3891 
G01 X-42.4309 Y41.2548 
G01 X-42.3254 Y41.0968 
G01 X-42.2527 Y40.9213 
G01 X-42.2156 Y40.7350 
G01 X-42.2156 Y40.5450 
G01 X-42.2527 Y40.3587 
G01 X-42.3254 Y40.1832 
G01 X-42.4309 Y40.0252 
G01 X-42.5652 Y39.8909 
G01 X-42.7232 Y39.7854 
G01 X-42.8987 Y39.7127 
G01 X-42.9014 Y39.7121 
G01 X-42.9014 Y28.0303 
G01 X-42.9204 Y27.9595 
G01 X-42.9571 Y27.8959 
G01 X-43.0089 Y27.8441 
G01 X-43.0725 Y27.8074 
G01 X-43.1433 Y27.7884 
G01 X-43.2167 Y27.7884 
G01 X-43.2875 Y27.8074 
G01 X-43.3426 Y27.8392 
G01 X-48.3022 Y27.8392 
G01 X-48.3022 Y25.5008 
G01 X-38.4357 Y25.5008 
G01 X-38.3520 Y25.4661 
G01 X-38.2879 Y25.4020 
G01 X-38.2532 Y25.3183 
G01 X-38.2532 Y24.8658 
G01 X-29.4378 Y24.8658 
G01 X-29.4378 Y27.9853 
G01 X-29.4031 Y28.0690 
G01 X-29.3390 Y28.1331 
G01 X-29.2553 Y28.1678 
G01 X-13.9247 Y28.1678 
G01 X-13.8410 Y28.1331 
G01 X-13.7769 Y28.0690 
G01 X-13.7422 Y27.9853 
G01 X-13.7422 Y25.0680 
G01 X-13.6887 Y25.0573 
G01 X-13.5132 Y24.9846 
G01 X-13.3552 Y24.8791 
G01 X-13.2209 Y24.7448 
G01 X-13.1154 Y24.5868 
G01 X-13.0427 Y24.4113 
G01 X-13.0056 Y24.2250 
G01 X-13.0056 Y24.0350 
G01 X-13.0427 Y23.8487 
G01 X-13.1154 Y23.6732 
G01 X-13.2209 Y23.5152 
G00 Z2.5400 
G00 X-15.7609 Y23.5152 
G01 Z-0.0800 F254.00 
G01 X-15.8952 Y23.3809 F254.00 
G01 X-16.0532 Y23.2754 
G01 X-16.2287 Y23.2027 
G01 X-16.4150 Y23.1656 
G01 X-16.6050 Y23.1656 
G01 X-16.7913 Y23.2027 
G01 X-16.9668 Y23.2754 
G01 X-17.1248 Y23.3809 
G01 X-17.2591 Y23.5152 
G01 X-17.3646 Y23.6732 
G01 X-17.4373 Y23.8487 
G01 X-17.4744 Y24.0350 
G01 X-17.4744 Y24.2250 
G01 X-17.4373 Y24.4113 
G01 X-17.3646 Y24.5868 
G01 X-17.2591 Y24.7448 
G01 X-17.1248 Y24.8791 
G01 X-16.9668 Y24.9846 
G01 X-16.7913 Y25.0573 
G01 X-16.7378 Y25.0680 
G01 X-16.7378 Y27.2042 
G01 X-28.4742 Y27.2042 
G01 X-28.4742 Y24.0847 
G01 X-28.5089 Y24.0010 
G01 X-28.5730 Y23.9369 
G01 X-28.6567 Y23.9022 
G01 X-39.0343 Y23.9022 
G01 X-39.1180 Y23.9369 
G01 X-39.1821 Y24.0010 
G01 X-39.2168 Y24.0847 
G01 X-39.2168 Y24.5372 
G01 X-49.0753 Y24.5372 
G01 X-49.1590 Y24.5719 
G01 X-49.2231 Y24.6360 
G01 X-49.2578 Y24.7197 
G01 X-49.2578 Y28.7473 
G01 X-49.2231 Y28.8310 
G01 X-49.1590 Y28.8951 
G01 X-49.0753 Y28.9298 
G01 X-45.9986 Y28.9298 
G01 X-45.9986 Y39.7121 
G01 X-46.0013 Y39.7127 
G01 X-46.1768 Y39.7854 
G01 X-46.3348 Y39.8909 
G01 X-46.4691 Y40.0252 
G01 X-46.5746 Y40.1832 
G01 X-46.6473 Y40.3587 
G01 X-46.6844 Y40.5450 
G01 X-46.6844 Y40.7350 
G01 X-46.6473 Y40.9213 
G01 X-46.5746 Y41.0968 
G01 X-47.1054 Y41.6314 
G01 X-50.6846 Y41.6314 
G01 X-52.7537 Y39.5623 
G01 X-52.7346 Y39.4661 
G01 X-52.7346 Y39.2739 
G01 X-52.7721 Y39.0855 
G01 X-52.8456 Y38.9080 
G01 X-52.9524 Y38.7482 
G01 X-53.0882 Y38.6124 
G01 X-53.2480 Y38.5056 
G01 X-53.4255 Y38.4321 
G01 X-53.6139 Y38.3946 
G01 X-55.6061 Y38.3946 
G01 X-55.7945 Y38.4321 
G01 X-55.9720 Y38.5056 
G01 X-56.1318 Y38.6124 
G01 X-56.2676 Y38.7482 
G01 X-56.3744 Y38.9080 
G01 X-56.4479 Y39.0855 
G01 X-56.4854 Y39.2739 
G01 X-56.4854 Y39.4661 
G01 X-56.4479 Y39.6545 
G01 X-56.3744 Y39.8320 
G01 X-56.2676 Y39.9918 
G01 X-56.1318 Y40.1276 
G01 X-55.9720 Y40.2344 
G01 X-55.7945 Y40.3079 
G01 X-55.6061 Y40.3454 
G01 X-53.6139 Y40.3454 
G01 X-53.4255 Y40.3079 
G01 X-53.2480 Y40.2344 
G01 X-53.0882 Y40.1276 
G01 X-53.0323 Y40.0717 
G01 X-51.0229 Y42.0811 
G01 X-50.9711 Y42.1329 
G01 X-50.9075 Y42.1696 
G01 X-50.8367 Y42.1886 
G01 X-46.9533 Y42.1886 
G01 X-46.8825 Y42.1696 
G01 X-46.8189 Y42.1329 
G01 X-46.7671 Y42.0811 
G01 X-46.1791 Y41.4931 
G01 X-46.0013 Y41.5673 
G01 X-45.8150 Y41.6044 
G01 X-45.6250 Y41.6044 
G01 X-45.4387 Y41.5673 
G01 X-45.2632 Y41.4946 
G01 X-45.1052 Y41.3891 
G01 X-44.9709 Y41.2548 
G01 X-44.8654 Y41.0968 
G01 X-44.7927 Y40.9213 
G01 X-44.7556 Y40.7350 
G01 X-44.7556 Y40.5450 
G01 X-44.7927 Y40.3587 
G01 X-44.8654 Y40.1832 
G01 X-44.9709 Y40.0252 
G01 X-45.1052 Y39.8909 
G01 X-45.2632 Y39.7854 
G01 X-45.4387 Y39.7127 
G01 X-45.4414 Y39.7121 
G01 X-45.4414 Y28.6653 
G01 X-45.4604 Y28.5945 
G01 X-45.4971 Y28.5309 
G01 X-45.5489 Y28.4791 
G01 X-45.6125 Y28.4424 
G01 X-45.6833 Y28.4234 
G01 X-45.7567 Y28.4234 
G01 X-45.8275 Y28.4424 
G01 X-45.8826 Y28.4742 
G01 X-48.8022 Y28.4742 
G01 X-48.8022 Y24.9928 
G01 X-38.9437 Y24.9928 
G01 X-38.8600 Y24.9581 
G01 X-38.7959 Y24.8940 
G01 X-38.7612 Y24.8103 
G01 X-38.7612 Y24.3578 
G01 X-28.9298 Y24.3578 
G01 X-28.9298 Y27.4773 
G01 X-28.8951 Y27.5610 
G01 X-28.8310 Y27.6251 
G01 X-28.7473 Y27.6598 
G01 X-16.4647 Y27.6598 
G01 X-16.3810 Y27.6251 
G01 X-16.3169 Y27.5610 
G01 X-16.2822 Y27.4773 
G01 X-16.2822 Y25.0680 
G01 X-16.2287 Y25.0573 
G01 X-16.0532 Y24.9846 
G01 X-15.8952 Y24.8791 
G01 X-15.7609 Y24.7448 
G01 X-15.6554 Y24.5868 
G01 X-15.5827 Y24.4113 
G01 X-15.5456 Y24.2250 
G01 X-15.5456 Y24.0350 
G01 X-15.5827 Y23.8487 
G01 X-15.6554 Y23.6732 
G01 X-15.7609 Y23.5152 
G00 Z2.5400 
G00 X-18.1449 Y23.5252 
G01 Z-0.0800 F254.00 
G01 X-17.9824 Y23.9176 F254.00 
G01 X-17.9824 Y24.3424 
G01 X-18.1449 Y24.7348 
G01 X-18.4452 Y25.0351 
G01 X-18.8376 Y25.1976 
G01 X-19.2624 Y25.1976 
G01 X-19.6547 Y25.0351 
G01 X-19.9551 Y24.7348 
G01 X-20.1176 Y24.3424 
G01 X-20.1176 Y23.9176 
G01 X-19.9551 Y23.5252 
G01 X-19.6548 Y23.2249 
G01 X-19.2624 Y23.0624 
G01 X-18.8376 Y23.0624 
G01 X-18.4452 Y23.2249 
G01 X-18.1449 Y23.5252 
G00 Z2.5400 
G00 X-18.3009 Y23.5152 
G01 Z-0.0800 F254.00 
G01 X-18.4352 Y23.3809 F254.00 
G01 X-18.5932 Y23.2754 
G01 X-18.7687 Y23.2027 
G01 X-18.9550 Y23.1656 
G01 X-19.1450 Y23.1656 
G01 X-19.3313 Y23.2027 
G01 X-19.5068 Y23.2754 
G01 X-19.6648 Y23.3809 
G01 X-19.7991 Y23.5152 
G01 X-19.9046 Y23.6732 
G01 X-19.9773 Y23.8487 
G01 X-20.0144 Y24.0350 
G01 X-20.0144 Y24.2250 
G01 X-19.9773 Y24.4113 
G01 X-19.9046 Y24.5868 
G01 X-19.7991 Y24.7448 
G01 X-19.6648 Y24.8791 
G01 X-19.5068 Y24.9846 
G01 X-19.3313 Y25.0573 
G01 X-19.1450 Y25.0944 
G01 X-18.9550 Y25.0944 
G01 X-18.7687 Y25.0573 
G01 X-18.5932 Y24.9846 
G01 X-18.4352 Y24.8791 
G01 X-18.3009 Y24.7448 
G01 X-18.1954 Y24.5868 
G01 X-18.1227 Y24.4113 
G01 X-18.0856 Y24.2250 
G01 X-18.0856 Y24.0350 
G01 X-18.1227 Y23.8487 
G01 X-18.1954 Y23.6732 
G01 X-18.3009 Y23.5152 
G00 Z2.5400 
G00 X-20.6849 Y23.5252 
G01 Z-0.0800 F254.00 
G01 X-20.5224 Y23.9176 F254.00 
G01 X-20.5224 Y24.3424 
G01 X-20.6849 Y24.7348 
G01 X-20.9852 Y25.0351 
G01 X-21.3776 Y25.1976 
G01 X-21.8024 Y25.1976 
G01 X-22.1948 Y25.0351 
G01 X-22.4951 Y24.7348 
G01 X-22.6576 Y24.3424 
G01 X-22.6576 Y23.9176 
G01 X-22.4951 Y23.5252 
G01 X-22.1948 Y23.2249 
G01 X-21.8024 Y23.0624 
G01 X-21.3776 Y23.0624 
G01 X-20.9852 Y23.2249 
G01 X-20.6849 Y23.5252 
G00 Z2.5400 
G00 X-20.8409 Y23.5152 
G01 Z-0.0800 F254.00 
G01 X-20.9752 Y23.3809 F254.00 
G01 X-21.1332 Y23.2754 
G01 X-21.3087 Y23.2027 
G01 X-21.4950 Y23.1656 
G01 X-21.6850 Y23.1656 
G01 X-21.8713 Y23.2027 
G01 X-22.0468 Y23.2754 
G01 X-22.2048 Y23.3809 
G01 X-22.3391 Y23.5152 
G01 X-22.4446 Y23.6732 
G01 X-22.5173 Y23.8487 
G01 X-22.5544 Y24.0350 
G01 X-22.5544 Y24.2250 
G01 X-22.5173 Y24.4113 
G01 X-22.4446 Y24.5868 
G01 X-22.3391 Y24.7448 
G01 X-22.2048 Y24.8791 
G01 X-22.0468 Y24.9846 
G01 X-21.8713 Y25.0573 
G01 X-21.6850 Y25.0944 
G01 X-21.4950 Y25.0944 
G01 X-21.3087 Y25.0573 
G01 X-21.1332 Y24.9846 
G01 X-20.9752 Y24.8791 
G01 X-20.8409 Y24.7448 
G01 X-20.7354 Y24.5868 
G01 X-20.6627 Y24.4113 
G01 X-20.6256 Y24.2250 
G01 X-20.6256 Y24.0350 
G01 X-20.6627 Y23.8487 
G01 X-20.7354 Y23.6732 
G01 X-20.8409 Y23.5152 
G00 Z2.5400 
G00 X-20.9248 Y21.2251 
G01 Z-0.0800 F254.00 
G01 X-21.2251 Y20.9248 F254.00 
G01 X-21.3876 Y20.5324 
G01 X-21.3876 Y20.1076 
G01 X-21.2251 Y19.7152 
G01 X-20.9248 Y19.4149 
G01 X-20.5324 Y19.2524 
G01 X-20.1076 Y19.2524 
G01 X-19.7152 Y19.4149 
G01 X-19.4149 Y19.7152 
G01 X-19.2524 Y20.1076 
G01 X-19.2524 Y20.5324 
G01 X-19.4149 Y20.9248 
G01 X-19.7152 Y21.2251 
G01 X-20.1076 Y21.3876 
G01 X-20.5324 Y21.3876 
G01 X-20.9248 Y21.2251 
G00 Z2.5400 
G00 X-20.9348 Y21.0691 
G01 Z-0.0800 F254.00 
G01 X-20.7768 Y21.1746 F254.00 
G01 X-20.6013 Y21.2473 
G01 X-20.4150 Y21.2844 
G01 X-20.2250 Y21.2844 
G01 X-20.0387 Y21.2473 
G01 X-19.8632 Y21.1746 
G01 X-19.7052 Y21.0691 
G01 X-19.5709 Y20.9348 
G01 X-19.4654 Y20.7768 
G01 X-19.3927 Y20.6013 
G01 X-19.3556 Y20.4150 
G01 X-19.3556 Y20.2250 
G01 X-19.3927 Y20.0387 
G01 X-19.4654 Y19.8632 
G01 X-19.5709 Y19.7052 
G01 X-19.7052 Y19.5709 
G01 X-19.8632 Y19.4654 
G01 X-20.0387 Y19.3927 
G01 X-20.2250 Y19.3556 
G01 X-20.4150 Y19.3556 
G01 X-20.6013 Y19.3927 
G01 X-20.7768 Y19.4654 
G01 X-20.9348 Y19.5709 
G01 X-21.0691 Y19.7052 
G01 X-21.1746 Y19.8632 
G01 X-21.2473 Y20.0387 
G01 X-21.2844 Y20.2250 
G01 X-21.2844 Y20.4150 
G01 X-21.2473 Y20.6013 
G01 X-21.1746 Y20.7768 
G01 X-21.0691 Y20.9348 
G01 X-20.9348 Y21.0691 
G00 Z2.5400 
G00 X-21.9549 Y20.9248 
G01 Z-0.0800 F254.00 
G01 X-22.2552 Y21.2251 F254.00 
G01 X-22.6476 Y21.3876 
G01 X-23.0724 Y21.3876 
G01 X-23.4648 Y21.2251 
G01 X-23.7651 Y20.9248 
G01 X-23.9276 Y20.5324 
G01 X-23.9276 Y20.1076 
G01 X-23.7651 Y19.7152 
G01 X-23.4648 Y19.4149 
G01 X-23.0724 Y19.2524 
G01 X-22.6476 Y19.2524 
G01 X-22.2552 Y19.4149 
G01 X-21.9549 Y19.7152 
G01 X-21.7924 Y20.1076 
G01 X-21.7924 Y20.5324 
G01 X-21.9549 Y20.9248 
G00 Z2.5400 
G00 X-22.1109 Y20.9348 
G01 Z-0.0800 F254.00 
G01 X-22.0054 Y20.7768 F254.00 
G01 X-21.9327 Y20.6013 
G01 X-21.8956 Y20.4150 
G01 X-21.8956 Y20.2250 
G01 X-21.9327 Y20.0387 
G01 X-22.0054 Y19.8632 
G01 X-22.1109 Y19.7052 
G01 X-22.2452 Y19.5709 
G01 X-22.4032 Y19.4654 
G01 X-22.5787 Y19.3927 
G01 X-22.7650 Y19.3556 
G01 X-22.9550 Y19.3556 
G01 X-23.1413 Y19.3927 
G01 X-23.3168 Y19.4654 
G01 X-23.4748 Y19.5709 
G01 X-23.6091 Y19.7052 
G01 X-23.7146 Y19.8632 
G01 X-23.7873 Y20.0387 
G01 X-23.8244 Y20.2250 
G01 X-23.8244 Y20.4150 
G01 X-23.7873 Y20.6013 
G01 X-23.7146 Y20.7768 
G01 X-23.6091 Y20.9348 
G01 X-23.4748 Y21.0691 
G01 X-23.3168 Y21.1746 
G01 X-23.1413 Y21.2473 
G01 X-22.9550 Y21.2844 
G01 X-22.7650 Y21.2844 
G01 X-22.5787 Y21.2473 
G01 X-22.4032 Y21.1746 
G01 X-22.2452 Y21.0691 
G01 X-22.1109 Y20.9348 
G00 Z2.5400 
G00 X-24.4949 Y20.9248 
G01 Z-0.0800 F254.00 
G01 X-24.7952 Y21.2251 F254.00 
G01 X-25.1876 Y21.3876 
G01 X-25.6124 Y21.3876 
G01 X-26.0048 Y21.2251 
G01 X-26.3051 Y20.9248 
G01 X-26.4676 Y20.5324 
G01 X-26.4676 Y20.1076 
G01 X-26.3051 Y19.7152 
G01 X-26.0048 Y19.4149 
G01 X-25.6124 Y19.2524 
G01 X-25.1876 Y19.2524 
G01 X-24.7952 Y19.4149 
G01 X-24.4949 Y19.7152 
G01 X-24.3324 Y20.1076 
G01 X-24.3324 Y20.5324 
G01 X-24.4949 Y20.9248 
G00 Z2.5400 
G00 X-24.6509 Y20.9348 
G01 Z-0.0800 F254.00 
G01 X-24.5454 Y20.7768 F254.00 
G01 X-24.4727 Y20.6013 
G01 X-24.4356 Y20.4150 
G01 X-24.4356 Y20.2250 
G01 X-24.4727 Y20.0387 
G01 X-24.5454 Y19.8632 
G01 X-24.6509 Y19.7052 
G01 X-24.7852 Y19.5709 
G01 X-24.9432 Y19.4654 
G01 X-25.1187 Y19.3927 
G01 X-25.3050 Y19.3556 
G01 X-25.4950 Y19.3556 
G01 X-25.6813 Y19.3927 
G01 X-25.8568 Y19.4654 
G01 X-26.0148 Y19.5709 
G01 X-26.1491 Y19.7052 
G01 X-26.2546 Y19.8632 
G01 X-26.3273 Y20.0387 
G01 X-26.3644 Y20.2250 
G01 X-26.3644 Y20.4150 
G01 X-26.3273 Y20.6013 
G01 X-26.2546 Y20.7768 
G01 X-26.1491 Y20.9348 
G01 X-26.0148 Y21.0691 
G01 X-25.8568 Y21.1746 
G01 X-25.6813 Y21.2473 
G01 X-25.4950 Y21.2844 
G01 X-25.3050 Y21.2844 
G01 X-25.1187 Y21.2473 
G01 X-24.9432 Y21.1746 
G01 X-24.7852 Y21.0691 
G01 X-24.6509 Y20.9348 
G00 Z2.5400 
G00 X-24.7348 Y23.2249 
G01 Z-0.0800 F254.00 
G01 X-24.3424 Y23.0624 F254.00 
G01 X-23.9176 Y23.0624 
G01 X-23.5252 Y23.2249 
G01 X-23.2249 Y23.5252 
G01 X-23.0624 Y23.9176 
G01 X-23.0624 Y24.3424 
G01 X-23.2249 Y24.7347 
G01 X-23.5252 Y25.0351 
G01 X-23.9176 Y25.1976 
G01 X-24.3424 Y25.1976 
G01 X-24.7348 Y25.0351 
G01 X-25.0351 Y24.7348 
G01 X-25.1976 Y24.3424 
G01 X-25.1976 Y23.9176 
G01 X-25.0351 Y23.5252 
G01 X-24.7348 Y23.2249 
G00 Z2.5400 
G00 X-24.7448 Y23.3809 
G01 Z-0.0800 F254.00 
G01 X-24.8791 Y23.5152 F254.00 
G01 X-24.9846 Y23.6732 
G01 X-25.0573 Y23.8487 
G01 X-25.0944 Y24.0350 
G01 X-25.0944 Y24.2250 
G01 X-25.0573 Y24.4113 
G01 X-24.9846 Y24.5868 
G01 X-24.8791 Y24.7448 
G01 X-24.7448 Y24.8791 
G01 X-24.5868 Y24.9846 
G01 X-24.4113 Y25.0573 
G01 X-24.2250 Y25.0944 
G01 X-24.0350 Y25.0944 
G01 X-23.8487 Y25.0573 
G01 X-23.6732 Y24.9846 
G01 X-23.5152 Y24.8791 
G01 X-23.3809 Y24.7448 
G01 X-23.2754 Y24.5868 
G01 X-23.2027 Y24.4113 
G01 X-23.1656 Y24.2250 
G01 X-23.1656 Y24.0350 
G01 X-23.2027 Y23.8487 
G01 X-23.2754 Y23.6732 
G01 X-23.3809 Y23.5152 
G01 X-23.5152 Y23.3809 
G01 X-23.6732 Y23.2754 
G01 X-23.8487 Y23.2027 
G01 X-24.0350 Y23.1656 
G01 X-24.2250 Y23.1656 
G01 X-24.4113 Y23.2027 
G01 X-24.5868 Y23.2754 
G01 X-24.7448 Y23.3809 
G00 Z2.5400 
G00 X-25.7649 Y23.5252 
G01 Z-0.0800 F254.00 
G01 X-25.6024 Y23.9176 F254.00 
G01 X-25.6024 Y24.3424 
G01 X-25.7649 Y24.7348 
G01 X-26.0652 Y25.0351 
G01 X-26.4576 Y25.1976 
G01 X-26.8824 Y25.1976 
G01 X-27.2748 Y25.0351 
G01 X-27.5751 Y24.7348 
G01 X-27.7376 Y24.3424 
G01 X-27.7376 Y23.9176 
G01 X-27.5751 Y23.5252 
G01 X-27.2748 Y23.2249 
G01 X-26.8824 Y23.0624 
G01 X-26.4576 Y23.0624 
G01 X-26.0652 Y23.2249 
G01 X-25.7649 Y23.5252 
G00 Z2.5400 
G00 X-25.9209 Y23.5152 
G01 Z-0.0800 F254.00 
G01 X-26.0552 Y23.3809 F254.00 
G01 X-26.2132 Y23.2754 
G01 X-26.3887 Y23.2027 
G01 X-26.5750 Y23.1656 
G01 X-26.7650 Y23.1656 
G01 X-26.9513 Y23.2027 
G01 X-27.1268 Y23.2754 
G01 X-27.2848 Y23.3809 
G01 X-27.4191 Y23.5152 
G01 X-27.5246 Y23.6732 
G01 X-27.5973 Y23.8487 
G01 X-27.6344 Y24.0350 
G01 X-27.6344 Y24.2250 
G01 X-27.5973 Y24.4113 
G01 X-27.5246 Y24.5868 
G01 X-27.4191 Y24.7448 
G01 X-27.2848 Y24.8791 
G01 X-27.1268 Y24.9846 
G01 X-26.9513 Y25.0573 
G01 X-26.7650 Y25.0944 
G01 X-26.5750 Y25.0944 
G01 X-26.3887 Y25.0573 
G01 X-26.2132 Y24.9846 
G01 X-26.0552 Y24.8791 
G01 X-25.9209 Y24.7448 
G01 X-25.8154 Y24.5868 
G01 X-25.7427 Y24.4113 
G01 X-25.7056 Y24.2250 
G01 X-25.7056 Y24.0350 
G01 X-25.7427 Y23.8487 
G01 X-25.8154 Y23.6732 
G01 X-25.9209 Y23.5152 
G00 Z2.5400 
G00 X-27.0349 Y20.9248 
G01 Z-0.0800 F254.00 
G01 X-27.3352 Y21.2251 F254.00 
G01 X-27.7276 Y21.3876 
G01 X-28.1524 Y21.3876 
G01 X-28.5448 Y21.2251 
G01 X-28.8451 Y20.9248 
G01 X-29.0076 Y20.5324 
G01 X-29.0076 Y20.1076 
G01 X-28.8451 Y19.7152 
G01 X-28.5448 Y19.4149 
G01 X-28.1524 Y19.2524 
G01 X-27.7276 Y19.2524 
G01 X-27.3352 Y19.4149 
G01 X-27.0349 Y19.7152 
G01 X-26.8724 Y20.1076 
G01 X-26.8724 Y20.5324 
G01 X-27.0349 Y20.9248 
G00 Z2.5400 
G00 X-27.1909 Y20.9348 
G01 Z-0.0800 F254.00 
G01 X-27.0854 Y20.7768 F254.00 
G01 X-27.0127 Y20.6013 
G01 X-26.9756 Y20.4150 
G01 X-26.9756 Y20.2250 
G01 X-27.0127 Y20.0387 
G01 X-27.0854 Y19.8632 
G01 X-27.1909 Y19.7052 
G01 X-27.3252 Y19.5709 
G01 X-27.4832 Y19.4654 
G01 X-27.6587 Y19.3927 
G01 X-27.8450 Y19.3556 
G01 X-28.0350 Y19.3556 
G01 X-28.2213 Y19.3927 
G01 X-28.3968 Y19.4654 
G01 X-28.5548 Y19.5709 
G01 X-28.6891 Y19.7052 
G01 X-28.7946 Y19.8632 
G01 X-28.8673 Y20.0387 
G01 X-28.9044 Y20.2250 
G01 X-28.9044 Y20.4150 
G01 X-28.8673 Y20.6013 
G01 X-28.7946 Y20.7768 
G01 X-28.6891 Y20.9348 
G01 X-28.5548 Y21.0691 
G01 X-28.3968 Y21.1746 
G01 X-28.2213 Y21.2473 
G01 X-28.0350 Y21.2844 
G01 X-27.8450 Y21.2844 
G01 X-27.6587 Y21.2473 
G01 X-27.4832 Y21.1746 
G01 X-27.3252 Y21.0691 
G01 X-27.1909 Y20.9348 
G00 Z2.5400 
G00 X-29.5749 Y20.9248 
G01 Z-0.0800 F254.00 
G01 X-29.8752 Y21.2251 F254.00 
G01 X-30.2676 Y21.3876 
G01 X-30.6924 Y21.3876 
G01 X-31.0848 Y21.2251 
G01 X-31.3851 Y20.9248 
G01 X-31.5476 Y20.5324 
G01 X-31.5476 Y20.1076 
G01 X-31.3851 Y19.7152 
G01 X-31.0848 Y19.4149 
G01 X-30.6924 Y19.2524 
G01 X-30.2676 Y19.2524 
G01 X-29.8752 Y19.4149 
G01 X-29.5749 Y19.7152 
G01 X-29.4124 Y20.1076 
G01 X-29.4124 Y20.5324 
G01 X-29.5749 Y20.9248 
G00 Z2.5400 
G00 X-29.7309 Y20.9348 
G01 Z-0.0800 F254.00 
G01 X-29.6254 Y20.7768 F254.00 
G01 X-29.5527 Y20.6013 
G01 X-29.5156 Y20.4150 
G01 X-29.5156 Y20.2250 
G01 X-29.5527 Y20.0387 
G01 X-29.6254 Y19.8632 
G01 X-29.7309 Y19.7052 
G01 X-29.8652 Y19.5709 
G01 X-30.0232 Y19.4654 
G01 X-30.1987 Y19.3927 
G01 X-30.3850 Y19.3556 
G01 X-30.5750 Y19.3556 
G01 X-30.7613 Y19.3927 
G01 X-30.9368 Y19.4654 
G01 X-31.0948 Y19.5709 
G01 X-31.2291 Y19.7052 
G01 X-31.3346 Y19.8632 
G01 X-31.4073 Y20.0387 
G01 X-31.4444 Y20.2250 
G01 X-31.4444 Y20.4150 
G01 X-31.4073 Y20.6013 
G01 X-31.3346 Y20.7768 
G01 X-31.2291 Y20.9348 
G01 X-31.0948 Y21.0691 
G01 X-30.9368 Y21.1746 
G01 X-30.7613 Y21.2473 
G01 X-30.5750 Y21.2844 
G01 X-30.3850 Y21.2844 
G01 X-30.1987 Y21.2473 
G01 X-30.0232 Y21.1746 
G01 X-29.8652 Y21.0691 
G01 X-29.7309 Y20.9348 
G00 Z2.5400 
G00 X-32.1149 Y20.9248 
G01 Z-0.0800 F254.00 
G01 X-32.4152 Y21.2251 F254.00 
G01 X-32.8076 Y21.3876 
G01 X-33.2324 Y21.3876 
G01 X-33.6248 Y21.2251 
G01 X-33.9251 Y20.9248 
G01 X-34.0876 Y20.5324 
G01 X-34.0876 Y20.1076 
G01 X-33.9251 Y19.7152 
G01 X-33.6248 Y19.4149 
G01 X-33.2324 Y19.2524 
G01 X-32.8076 Y19.2524 
G01 X-32.4152 Y19.4149 
G01 X-32.1149 Y19.7152 
G01 X-31.9524 Y20.1076 
G01 X-31.9524 Y20.5324 
G01 X-32.1149 Y20.9248 
G00 Z2.5400 
G00 X-32.2709 Y20.9348 
G01 Z-0.0800 F254.00 
G01 X-32.1654 Y20.7768 F254.00 
G01 X-32.0927 Y20.6013 
G01 X-32.0556 Y20.4150 
G01 X-32.0556 Y20.2250 
G01 X-32.0927 Y20.0387 
G01 X-32.1654 Y19.8632 
G01 X-32.2709 Y19.7052 
G01 X-32.4052 Y19.5709 
G01 X-32.5632 Y19.4654 
G01 X-32.7387 Y19.3927 
G01 X-32.9250 Y19.3556 
G01 X-33.1150 Y19.3556 
G01 X-33.3013 Y19.3927 
G01 X-33.4768 Y19.4654 
G01 X-33.6348 Y19.5709 
G01 X-33.7691 Y19.7052 
G01 X-33.8746 Y19.8632 
G01 X-33.9473 Y20.0387 
G01 X-33.9844 Y20.2250 
G01 X-33.9844 Y20.4150 
G01 X-33.9473 Y20.6013 
G01 X-33.8746 Y20.7768 
G01 X-33.7691 Y20.9348 
G01 X-33.6348 Y21.0691 
G01 X-33.4768 Y21.1746 
G01 X-33.3013 Y21.2473 
G01 X-33.1150 Y21.2844 
G01 X-32.9250 Y21.2844 
G01 X-32.7387 Y21.2473 
G01 X-32.5632 Y21.1746 
G01 X-32.4052 Y21.0691 
G01 X-32.2709 Y20.9348 
G00 Z2.5400 
G00 X-34.6549 Y20.9248 
G01 Z-0.0800 F254.00 
G01 X-34.9552 Y21.2251 F254.00 
G01 X-35.3476 Y21.3876 
G01 X-35.7724 Y21.3876 
G01 X-36.1648 Y21.2251 
G01 X-36.4651 Y20.9248 
G01 X-36.6276 Y20.5324 
G01 X-36.6276 Y20.1076 
G01 X-36.4651 Y19.7152 
G01 X-36.1648 Y19.4149 
G01 X-35.7724 Y19.2524 
G01 X-35.3476 Y19.2524 
G01 X-34.9552 Y19.4149 
G01 X-34.6549 Y19.7152 
G01 X-34.4924 Y20.1076 
G01 X-34.4924 Y20.5324 
G01 X-34.6549 Y20.9248 
G00 Z2.5400 
G00 X-34.8109 Y20.9348 
G01 Z-0.0800 F254.00 
G01 X-34.7054 Y20.7768 F254.00 
G01 X-34.6327 Y20.6013 
G01 X-34.5956 Y20.4150 
G01 X-34.5956 Y20.2250 
G01 X-34.6327 Y20.0387 
G01 X-34.7054 Y19.8632 
G01 X-34.8109 Y19.7052 
G01 X-34.9452 Y19.5709 
G01 X-35.1032 Y19.4654 
G01 X-35.2787 Y19.3927 
G01 X-35.4650 Y19.3556 
G01 X-35.6550 Y19.3556 
G01 X-35.8413 Y19.3927 
G01 X-36.0168 Y19.4654 
G01 X-36.1748 Y19.5709 
G01 X-36.3091 Y19.7052 
G01 X-36.4146 Y19.8632 
G01 X-36.4873 Y20.0387 
G01 X-36.5244 Y20.2250 
G01 X-36.5244 Y20.4150 
G01 X-36.4873 Y20.6013 
G01 X-36.4146 Y20.7768 
G01 X-36.3091 Y20.9348 
G01 X-36.1748 Y21.0691 
G01 X-36.0168 Y21.1746 
G01 X-35.8413 Y21.2473 
G01 X-35.6550 Y21.2844 
G01 X-35.4650 Y21.2844 
G01 X-35.2787 Y21.2473 
G01 X-35.1032 Y21.1746 
G01 X-34.9452 Y21.0691 
G01 X-34.8109 Y20.9348 
G00 Z2.5400 
G00 X-37.1949 Y20.9248 
G01 Z-0.0800 F254.00 
G01 X-37.4952 Y21.2251 F254.00 
G01 X-37.8876 Y21.3876 
G01 X-38.3124 Y21.3876 
G01 X-38.7048 Y21.2251 
G01 X-39.0051 Y20.9248 
G01 X-39.1676 Y20.5324 
G01 X-39.1676 Y20.1076 
G01 X-39.0051 Y19.7152 
G01 X-38.7048 Y19.4149 
G01 X-38.3124 Y19.2524 
G01 X-37.8876 Y19.2524 
G01 X-37.4952 Y19.4149 
G01 X-37.1949 Y19.7152 
G01 X-37.0324 Y20.1076 
G01 X-37.0324 Y20.5324 
G01 X-37.1949 Y20.9248 
G00 Z2.5400 
G00 X-37.3509 Y20.9348 
G01 Z-0.0800 F254.00 
G01 X-37.2454 Y20.7768 F254.00 
G01 X-37.1727 Y20.6013 
G01 X-37.1356 Y20.4150 
G01 X-37.1356 Y20.2250 
G01 X-37.1727 Y20.0387 
G01 X-37.2454 Y19.8632 
G01 X-37.3509 Y19.7052 
G01 X-37.4852 Y19.5709 
G01 X-37.6432 Y19.4654 
G01 X-37.8187 Y19.3927 
G01 X-38.0050 Y19.3556 
G01 X-38.1950 Y19.3556 
G01 X-38.3813 Y19.3927 
G01 X-38.5568 Y19.4654 
G01 X-38.7148 Y19.5709 
G01 X-38.8491 Y19.7052 
G01 X-38.9546 Y19.8632 
G01 X-39.0273 Y20.0387 
G01 X-39.0644 Y20.2250 
G01 X-39.0644 Y20.4150 
G01 X-39.0273 Y20.6013 
G01 X-38.9546 Y20.7768 
G01 X-38.8491 Y20.9348 
G01 X-38.7148 Y21.0691 
G01 X-38.5568 Y21.1746 
G01 X-38.3813 Y21.2473 
G01 X-38.1950 Y21.2844 
G01 X-38.0050 Y21.2844 
G01 X-37.8187 Y21.2473 
G01 X-37.6432 Y21.1746 
G01 X-37.4852 Y21.0691 
G01 X-37.3509 Y20.9348 
G00 Z2.5400 
G00 X-39.7349 Y20.9248 
G01 Z-0.0800 F254.00 
G01 X-40.0352 Y21.2251 F254.00 
G01 X-40.4276 Y21.3876 
G01 X-40.8524 Y21.3876 
G01 X-41.2448 Y21.2251 
G01 X-41.5451 Y20.9248 
G01 X-41.7076 Y20.5324 
G01 X-41.7076 Y20.1076 
G01 X-41.5451 Y19.7152 
G01 X-41.2448 Y19.4149 
G01 X-40.8524 Y19.2524 
G01 X-40.4276 Y19.2524 
G01 X-40.0352 Y19.4149 
G01 X-39.7349 Y19.7152 
G01 X-39.5724 Y20.1076 
G01 X-39.5724 Y20.5324 
G01 X-39.7349 Y20.9248 
G00 Z2.5400 
G00 X-39.8909 Y20.9348 
G01 Z-0.0800 F254.00 
G01 X-39.7854 Y20.7768 F254.00 
G01 X-39.7127 Y20.6013 
G01 X-39.6756 Y20.4150 
G01 X-39.6756 Y20.2250 
G01 X-39.7127 Y20.0387 
G01 X-39.7854 Y19.8632 
G01 X-39.8909 Y19.7052 
G01 X-40.0252 Y19.5709 
G01 X-40.1832 Y19.4654 
G01 X-40.3587 Y19.3927 
G01 X-40.5450 Y19.3556 
G01 X-40.7350 Y19.3556 
G01 X-40.9213 Y19.3927 
G01 X-41.0968 Y19.4654 
G01 X-41.2548 Y19.5709 
G01 X-41.3891 Y19.7052 
G01 X-41.4946 Y19.8632 
G01 X-41.5673 Y20.0387 
G01 X-41.6044 Y20.2250 
G01 X-41.6044 Y20.4150 
G01 X-41.5673 Y20.6013 
G01 X-41.4946 Y20.7768 
G01 X-41.3891 Y20.9348 
G01 X-41.2548 Y21.0691 
G01 X-41.0968 Y21.1746 
G01 X-40.9213 Y21.2473 
G01 X-40.7350 Y21.2844 
G01 X-40.5450 Y21.2844 
G01 X-40.3587 Y21.2473 
G01 X-40.1832 Y21.1746 
G01 X-40.0252 Y21.0691 
G01 X-39.8909 Y20.9348 
G00 Z2.5400 
G00 X-42.2749 Y20.9248 
G01 Z-0.0800 F254.00 
G01 X-42.5752 Y21.2251 F254.00 
G01 X-42.9676 Y21.3876 
G01 X-43.3924 Y21.3876 
G01 X-43.7848 Y21.2251 
G01 X-44.0851 Y20.9248 
G01 X-44.2476 Y20.5324 
G01 X-44.2476 Y20.1076 
G01 X-44.0851 Y19.7152 
G01 X-43.7848 Y19.4149 
G01 X-43.3924 Y19.2524 
G01 X-42.9676 Y19.2524 
G01 X-42.5752 Y19.4149 
G01 X-42.2749 Y19.7152 
G01 X-42.1124 Y20.1076 
G01 X-42.1124 Y20.5324 
G01 X-42.2749 Y20.9248 
G00 Z2.5400 
G00 X-42.4309 Y20.9348 
G01 Z-0.0800 F254.00 
G01 X-42.3254 Y20.7768 F254.00 
G01 X-42.2527 Y20.6013 
G01 X-42.2156 Y20.4150 
G01 X-42.2156 Y20.2250 
G01 X-42.2527 Y20.0387 
G01 X-42.3254 Y19.8632 
G01 X-42.4309 Y19.7052 
G01 X-42.5652 Y19.5709 
G01 X-42.7232 Y19.4654 
G01 X-42.8987 Y19.3927 
G01 X-43.0850 Y19.3556 
G01 X-43.2750 Y19.3556 
G01 X-43.4613 Y19.3927 
G01 X-43.6368 Y19.4654 
G01 X-43.7948 Y19.5709 
G01 X-43.9291 Y19.7052 
G01 X-44.0346 Y19.8632 
G01 X-44.1073 Y20.0387 
G01 X-44.1444 Y20.2250 
G01 X-44.1444 Y20.4150 
G01 X-44.1073 Y20.6013 
G01 X-44.0346 Y20.7768 
G01 X-43.9291 Y20.9348 
G01 X-43.7948 Y21.0691 
G01 X-43.6368 Y21.1746 
G01 X-43.4613 Y21.2473 
G01 X-43.2750 Y21.2844 
G01 X-43.0850 Y21.2844 
G01 X-42.8987 Y21.2473 
G01 X-42.7232 Y21.1746 
G01 X-42.5652 Y21.0691 
G01 X-42.4309 Y20.9348 
G00 Z2.5400 
G00 X-44.8149 Y20.9248 
G01 Z-0.0800 F254.00 
G01 X-45.1152 Y21.2251 F254.00 
G01 X-45.5076 Y21.3876 
G01 X-45.9324 Y21.3876 
G01 X-46.3248 Y21.2251 
G01 X-46.6251 Y20.9248 
G01 X-46.7876 Y20.5324 
G01 X-46.7876 Y20.1076 
G01 X-46.6251 Y19.7152 
G01 X-46.3248 Y19.4149 
G01 X-45.9324 Y19.2524 
G01 X-45.5076 Y19.2524 
G01 X-45.1152 Y19.4149 
G01 X-44.8149 Y19.7152 
G01 X-44.6524 Y20.1076 
G01 X-44.6524 Y20.5324 
G01 X-44.8149 Y20.9248 
G00 Z2.5400 
G00 X-44.9709 Y20.9348 
G01 Z-0.0800 F254.00 
G01 X-44.8654 Y20.7768 F254.00 
G01 X-44.7927 Y20.6013 
G01 X-44.7556 Y20.4150 
G01 X-44.7556 Y20.2250 
G01 X-44.7927 Y20.0387 
G01 X-44.8654 Y19.8632 
G01 X-44.9709 Y19.7052 
G01 X-45.1052 Y19.5709 
G01 X-45.2632 Y19.4654 
G01 X-45.4387 Y19.3927 
G01 X-45.6250 Y19.3556 
G01 X-45.8150 Y19.3556 
G01 X-46.0013 Y19.3927 
G01 X-46.1768 Y19.4654 
G01 X-46.3348 Y19.5709 
G01 X-46.4691 Y19.7052 
G01 X-46.5746 Y19.8632 
G01 X-46.6473 Y20.0387 
G01 X-46.6844 Y20.2250 
G01 X-46.6844 Y20.4150 
G01 X-46.6473 Y20.6013 
G01 X-46.5746 Y20.7768 
G01 X-46.4691 Y20.9348 
G01 X-46.3348 Y21.0691 
G01 X-46.1768 Y21.1746 
G01 X-46.0013 Y21.2473 
G01 X-45.8150 Y21.2844 
G01 X-45.6250 Y21.2844 
G01 X-45.4387 Y21.2473 
G01 X-45.2632 Y21.1746 
G01 X-45.1052 Y21.0691 
G01 X-44.9709 Y20.9348 
G00 Z2.5400 
G00 X-44.7850 Y22.6196 
G01 Z-0.0800 F254.00 
G01 X-46.1150 Y22.6196 F254.00 
G01 X-46.1427 Y22.6311 
G01 X-46.1639 Y22.6523 
G01 X-46.1754 Y22.6800 
G01 X-46.1754 Y23.6282 
G01 X-46.5764 Y24.0292 
G01 X-49.4483 Y24.0292 
G01 X-49.5320 Y24.0639 
G01 X-49.6590 Y24.1909 
G01 X-49.7231 Y24.2550 
G01 X-49.7578 Y24.3387 
G01 X-49.7578 Y29.3823 
G01 X-49.7231 Y29.4660 
G01 X-49.6590 Y29.5301 
G01 X-49.5753 Y29.5648 
G01 X-47.2686 Y29.5648 
G01 X-47.2686 Y37.1400 
G01 X-50.4145 Y33.9942 
G01 X-50.5042 Y33.9045 
G01 X-50.6140 Y33.8410 
G01 X-50.7366 Y33.8082 
G01 X-52.8588 Y33.8082 
G01 X-52.9524 Y33.6682 
G01 X-53.0882 Y33.5324 
G01 X-53.2480 Y33.4256 
G01 X-53.4255 Y33.3521 
G01 X-53.6139 Y33.3146 
G01 X-55.6061 Y33.3146 
G01 X-55.7945 Y33.3521 
G01 X-55.9720 Y33.4256 
G01 X-56.1318 Y33.5324 
G01 X-56.2676 Y33.6682 
G01 X-56.3744 Y33.8280 
G01 X-56.4479 Y34.0055 
G01 X-56.4854 Y34.1939 
G01 X-56.4854 Y34.3861 
G01 X-56.4479 Y34.5745 
G01 X-56.3744 Y34.7520 
G01 X-56.2676 Y34.9118 
G01 X-56.1318 Y35.0476 
G01 X-55.9720 Y35.1544 
G01 X-55.7945 Y35.2279 
G01 X-55.6061 Y35.2654 
G01 X-53.6139 Y35.2654 
G01 X-53.4255 Y35.2279 
G01 X-53.2480 Y35.1544 
G01 X-53.0882 Y35.0476 
G01 X-52.9524 Y34.9118 
G01 X-52.8588 Y34.7718 
G01 X-50.9996 Y34.7718 
G01 X-47.6686 Y38.1028 
G01 X-47.6686 Y38.7182 
G01 X-47.6571 Y38.7459 
G01 X-47.6359 Y38.7671 
G01 X-47.6082 Y38.7786 
G01 X-46.3718 Y38.7786 
G01 X-46.3441 Y38.7671 
G01 X-46.3229 Y38.7459 
G01 X-46.3114 Y38.7182 
G01 X-46.3114 Y37.4818 
G01 X-46.3229 Y37.4541 
G01 X-46.3441 Y37.4329 
G01 X-46.3718 Y37.4214 
G01 X-46.7114 Y37.4214 
G01 X-46.7114 Y29.3003 
G01 X-46.7304 Y29.2295 
G01 X-46.7671 Y29.1659 
G01 X-46.8189 Y29.1141 
G01 X-46.8825 Y29.0774 
G01 X-46.9533 Y29.0584 
G01 X-47.0267 Y29.0584 
G01 X-47.0975 Y29.0774 
G01 X-47.1526 Y29.1092 
G01 X-49.3022 Y29.1092 
G01 X-49.3022 Y24.4848 
G01 X-46.4367 Y24.4848 
G01 X-46.3530 Y24.4501 
G01 X-46.2889 Y24.3860 
G01 X-46.1754 Y24.2725 
G01 X-46.1754 Y24.3100 
G01 X-46.1639 Y24.3377 
G01 X-46.1427 Y24.3589 
G01 X-46.1150 Y24.3704 
G01 X-44.7850 Y24.3704 
G01 X-44.7573 Y24.3589 
G01 X-44.7361 Y24.3377 
G01 X-44.7246 Y24.3100 
G01 X-44.7246 Y22.6800 
G01 X-44.7361 Y22.6523 
G01 X-44.7573 Y22.6311 
G01 X-44.7850 Y22.6196 
G00 Z2.5400 
G00 X-49.8369 Y24.0010 
G01 Z-0.0800 F254.00 
G01 X-49.9010 Y23.9369 F254.00 
G01 X-49.9847 Y23.9022 
G01 X-52.7608 Y23.9022 
G01 X-52.7721 Y23.8455 
G01 X-52.8456 Y23.6680 
G01 X-52.9524 Y23.5082 
G01 X-53.0882 Y23.3724 
G01 X-53.2480 Y23.2656 
G01 X-53.4255 Y23.1921 
G01 X-53.6139 Y23.1546 
G01 X-55.6061 Y23.1546 
G01 X-55.7945 Y23.1921 
G01 X-55.9720 Y23.2656 
G01 X-56.1318 Y23.3724 
G01 X-56.2676 Y23.5082 
G01 X-56.3744 Y23.6680 
G01 X-56.4479 Y23.8455 
G01 X-56.4491 Y23.8514 
G01 X-56.9476 Y23.8514 
G01 X-56.9476 Y23.5235 
G01 X-56.9657 Y23.4559 
G01 X-57.0007 Y23.3952 
G01 X-57.0502 Y23.3457 
G01 X-57.1109 Y23.3107 
G01 X-57.1785 Y23.2926 
G01 X-58.5461 Y23.2926 
G01 X-58.5653 Y23.2923 
G01 X-58.5847 Y23.2999 
G01 X-58.6026 Y23.3070 
G01 X-58.6176 Y23.3214 
G01 X-58.6314 Y23.3348 
G01 X-58.6398 Y23.3540 
G01 X-58.6474 Y23.3716 
G01 X-58.6478 Y23.3925 
G01 X-58.6481 Y23.4117 
G01 X-58.6405 Y23.4311 
G01 X-58.6334 Y23.4490 
G01 X-58.6190 Y23.4639 
G01 X-57.9759 Y24.1300 
G01 X-58.6190 Y24.7960 
G01 X-58.6324 Y24.8095 
G01 X-58.6405 Y24.8289 
G01 X-58.6478 Y24.8465 
G01 X-58.6478 Y24.8675 
G01 X-58.6478 Y24.8866 
G01 X-58.6398 Y24.9060 
G01 X-58.6324 Y24.9237 
G01 X-58.6176 Y24.9386 
G01 X-58.6041 Y24.9520 
G01 X-58.5847 Y24.9601 
G01 X-58.5671 Y24.9674 
G01 X-58.5461 Y24.9674 
G01 X-57.1785 Y24.9674 
G01 X-57.1109 Y24.9493 
G01 X-57.0502 Y24.9143 
G01 X-57.0007 Y24.8648 
G01 X-56.9657 Y24.8041 
G01 X-56.9476 Y24.7365 
G01 X-56.9476 Y24.4086 
G01 X-56.4491 Y24.4086 
G01 X-56.4479 Y24.4145 
G01 X-56.3744 Y24.5920 
G01 X-56.2676 Y24.7518 
G01 X-56.1318 Y24.8876 
G01 X-55.9720 Y24.9944 
G01 X-55.7945 Y25.0679 
G01 X-55.6061 Y25.1054 
G01 X-53.6139 Y25.1054 
G01 X-53.4255 Y25.0679 
G01 X-53.2480 Y24.9944 
G01 X-53.0882 Y24.8876 
G01 X-52.9524 Y24.7518 
G01 X-52.8456 Y24.5920 
G01 X-52.7721 Y24.4145 
G01 X-52.7608 Y24.3578 
G01 X-50.2578 Y24.3578 
G01 X-50.2578 Y26.5072 
G01 X-50.2304 Y26.5734 
G01 X-50.2304 Y26.9769 
G01 X-50.2189 Y27.0046 
G01 X-50.1977 Y27.0258 
G01 X-50.1700 Y27.0373 
G01 X-49.8900 Y27.0373 
G01 X-49.8623 Y27.0258 
G01 X-49.8411 Y27.0046 
G01 X-49.8296 Y26.9769 
G01 X-49.8296 Y26.5734 
G01 X-49.8022 Y26.5072 
G01 X-49.8022 Y24.0847 
G01 X-49.8369 Y24.0010 
G00 Z2.5400 
G00 X-50.3411 Y25.9192 
G01 Z-0.0800 F254.00 
G01 X-50.3623 Y25.8980 F254.00 
G01 X-50.3900 Y25.8865 
G01 X-50.6700 Y25.8865 
G01 X-50.6977 Y25.8980 
G01 X-50.7189 Y25.9192 
G01 X-50.7304 Y25.9469 
G01 X-50.7304 Y26.3530 
G01 X-50.7848 Y26.4422 
G01 X-52.7608 Y26.4422 
G01 X-52.7721 Y26.3855 
G01 X-52.8456 Y26.2080 
G01 X-52.9524 Y26.0482 
G01 X-53.0882 Y25.9124 
G01 X-53.2480 Y25.8056 
G01 X-53.4255 Y25.7321 
G01 X-53.6139 Y25.6946 
G01 X-55.6061 Y25.6946 
G01 X-55.7945 Y25.7321 
G01 X-55.9720 Y25.8056 
G01 X-56.1318 Y25.9124 
G01 X-56.2676 Y26.0482 
G01 X-56.3744 Y26.2080 
G01 X-56.4479 Y26.3855 
G01 X-56.4491 Y26.3914 
G01 X-56.9476 Y26.3914 
G01 X-56.9476 Y26.0635 
G01 X-56.9657 Y25.9959 
G01 X-57.0007 Y25.9352 
G01 X-57.0502 Y25.8857 
G01 X-57.1109 Y25.8507 
G01 X-57.1785 Y25.8326 
G01 X-58.5461 Y25.8326 
G01 X-58.5653 Y25.8323 
G01 X-58.5847 Y25.8399 
G01 X-58.6026 Y25.8470 
G01 X-58.6176 Y25.8614 
G01 X-58.6314 Y25.8748 
G01 X-58.6398 Y25.8940 
G01 X-58.6474 Y25.9116 
G01 X-58.6478 Y25.9325 
G01 X-58.6481 Y25.9517 
G01 X-58.6405 Y25.9711 
G01 X-58.6334 Y25.9890 
G01 X-58.6190 Y26.0039 
G01 X-57.9759 Y26.6700 
G01 X-58.6190 Y27.3360 
G01 X-58.6324 Y27.3495 
G01 X-58.6405 Y27.3689 
G01 X-58.6478 Y27.3865 
G01 X-58.6478 Y27.4075 
G01 X-58.6478 Y27.4266 
G01 X-58.6398 Y27.4460 
G01 X-58.6324 Y27.4637 
G01 X-58.6176 Y27.4786 
G01 X-58.6041 Y27.4920 
G01 X-58.5847 Y27.5001 
G01 X-58.5671 Y27.5074 
G01 X-58.5461 Y27.5074 
G01 X-57.1785 Y27.5074 
G01 X-57.1109 Y27.4893 
G01 X-57.0502 Y27.4543 
G01 X-57.0007 Y27.4048 
G01 X-56.9657 Y27.3441 
G01 X-56.9476 Y27.2765 
G01 X-56.9476 Y26.9486 
G01 X-56.4491 Y26.9486 
G01 X-56.4479 Y26.9545 
G01 X-56.3744 Y27.1320 
G01 X-56.2676 Y27.2918 
G01 X-56.1318 Y27.4276 
G01 X-55.9720 Y27.5344 
G01 X-55.7945 Y27.6079 
G01 X-55.6061 Y27.6454 
G01 X-53.6139 Y27.6454 
G01 X-53.4255 Y27.6079 
G01 X-53.2480 Y27.5344 
G01 X-53.0882 Y27.4276 
G01 X-52.9524 Y27.2918 
G01 X-52.8456 Y27.1320 
G01 X-52.7721 Y26.9545 
G01 X-52.7608 Y26.8978 
G01 X-50.7304 Y26.8978 
G01 X-50.7304 Y26.9769 
G01 X-50.7189 Y27.0046 
G01 X-50.6977 Y27.0258 
G01 X-50.6700 Y27.0373 
G01 X-50.3900 Y27.0373 
G01 X-50.3623 Y27.0258 
G01 X-50.3411 Y27.0046 
G01 X-50.3296 Y26.9769 
G01 X-50.3296 Y26.5708 
G01 X-50.3119 Y26.5419 
G01 X-50.2979 Y26.4524 
G01 X-50.3192 Y26.3643 
G01 X-50.3296 Y26.3501 
G01 X-50.3296 Y25.9469 
G01 X-50.3411 Y25.9192 
G00 Z2.5400 
G00 X-50.3929 Y28.8790 
G01 Z-0.0800 F254.00 
G01 X-50.1990 Y29.0729 F254.00 
G01 X-50.1990 Y29.9491 
G01 X-50.1875 Y29.9768 
G01 X-50.1663 Y29.9980 
G01 X-50.1386 Y30.0095 
G01 X-49.8310 Y30.0095 
G01 X-49.7264 Y30.1141 
G01 X-49.7264 Y30.1634 
G01 X-49.7304 Y30.1731 
G01 X-49.7304 Y31.2031 
G01 X-49.7189 Y31.2308 
G01 X-49.6990 Y31.2508 
G01 X-49.6990 Y31.8871 
G01 X-49.8929 Y32.0810 
G01 X-52.6442 Y32.0810 
G01 X-52.6720 Y32.0925 
G01 X-52.6932 Y32.1137 
G01 X-52.7956 Y32.3610 
G01 X-53.0990 Y32.6644 
G01 X-53.4954 Y32.8286 
G01 X-55.7245 Y32.8286 
G01 X-56.1210 Y32.6644 
G01 X-56.4244 Y32.3610 
G01 X-56.5058 Y32.1645 
G01 X-56.5270 Y32.1433 
G01 X-56.5547 Y32.1318 
G01 X-56.7840 Y32.1318 
G01 X-56.8117 Y32.1433 
G01 X-56.8329 Y32.1645 
G01 X-56.8444 Y32.1922 
G01 X-56.8444 Y32.4744 
G01 X-57.0606 Y32.6906 
G01 X-58.5302 Y32.6906 
G01 X-58.5451 Y32.6906 
G01 X-58.5595 Y32.6906 
G01 X-58.6300 Y32.6921 
G01 X-58.6794 Y32.6427 
G01 X-58.6900 Y32.6321 
G01 X-58.7001 Y32.6220 
G01 X-58.7510 Y32.5732 
G01 X-58.7510 Y32.5034 
G01 X-58.7510 Y32.4885 
G01 X-58.7510 Y32.4741 
G01 X-58.7525 Y32.4036 
G01 X-58.7031 Y32.3542 
G01 X-58.6925 Y32.3436 
G01 X-58.6824 Y32.3335 
G01 X-58.3166 Y31.9542 
G01 X-58.1978 Y31.8355 
G01 X-58.1694 Y31.8071 
G01 X-58.1659 Y31.7985 
G01 X-58.1610 Y31.7938 
G01 X-58.1546 Y31.7789 
G01 X-58.1491 Y31.7663 
G01 X-58.1486 Y31.7637 
G01 X-58.1488 Y31.7500 
G01 X-58.1486 Y31.7363 
G01 X-58.1491 Y31.7337 
G01 X-58.1546 Y31.7211 
G01 X-58.1595 Y31.7084 
G01 X-58.1659 Y31.7015 
G01 X-58.1694 Y31.6929 
G01 X-58.3166 Y31.5458 
G01 X-58.6822 Y31.1671 
G01 X-58.6925 Y31.1564 
G01 X-58.7025 Y31.1461 
G01 X-58.7525 Y31.0964 
G01 X-58.7513 Y31.0265 
G01 X-58.7510 Y31.0115 
G01 X-58.7508 Y30.9972 
G01 X-58.7510 Y30.9268 
G01 X-58.7007 Y30.8782 
G01 X-58.6900 Y30.8678 
G01 X-58.6796 Y30.8579 
G01 X-58.6300 Y30.8079 
G01 X-58.5601 Y30.8091 
G01 X-58.5451 Y30.8094 
G01 X-58.5308 Y30.8096 
G01 X-57.0606 Y30.8094 
G01 X-56.8444 Y31.0256 
G01 X-56.8444 Y31.3078 
G01 X-56.8329 Y31.3355 
G01 X-56.8117 Y31.3567 
G01 X-56.7840 Y31.3682 
G01 X-56.5547 Y31.3682 
G01 X-56.5270 Y31.3567 
G01 X-56.5058 Y31.3355 
G01 X-56.4244 Y31.1390 
G01 X-56.1210 Y30.8356 
G01 X-55.7245 Y30.6714 
G01 X-53.4954 Y30.6714 
G01 X-53.0990 Y30.8356 
G01 X-52.7956 Y31.1390 
G01 X-52.6932 Y31.3863 
G01 X-52.6720 Y31.4075 
G01 X-52.6442 Y31.4190 
G01 X-50.8437 Y31.4190 
G01 X-50.8359 Y31.4157 
G01 X-50.8160 Y31.4075 
G01 X-50.7948 Y31.3863 
G01 X-50.7833 Y31.3586 
G01 X-50.7833 Y31.3286 
G01 X-50.7866 Y31.3207 
G01 X-50.7948 Y31.3009 
G01 X-50.8160 Y31.2797 
G01 X-50.8336 Y31.2621 
G01 X-50.8336 Y30.8688 
G01 X-50.8451 Y30.8411 
G01 X-50.8610 Y30.8252 
G01 X-50.8610 Y29.6014 
G01 X-50.8725 Y29.5737 
G01 X-50.8937 Y29.5525 
G01 X-50.9214 Y29.5410 
G01 X-52.6442 Y29.5410 
G01 X-52.6720 Y29.5525 
G01 X-52.6932 Y29.5737 
G01 X-52.7956 Y29.8210 
G01 X-53.0990 Y30.1244 
G01 X-53.4954 Y30.2886 
G01 X-55.7245 Y30.2886 
G01 X-56.1210 Y30.1244 
G01 X-56.4244 Y29.8210 
G01 X-56.5058 Y29.6245 
G01 X-56.5270 Y29.6033 
G01 X-56.5547 Y29.5918 
G01 X-56.7840 Y29.5918 
G01 X-56.8117 Y29.6033 
G01 X-56.8329 Y29.6245 
G01 X-56.8444 Y29.6522 
G01 X-56.8444 Y29.9344 
G01 X-57.0606 Y30.1506 
G01 X-58.5302 Y30.1506 
G01 X-58.5451 Y30.1506 
G01 X-58.5595 Y30.1506 
G01 X-58.6300 Y30.1521 
G01 X-58.6794 Y30.1028 
G01 X-58.6900 Y30.0921 
G01 X-58.7001 Y30.0820 
G01 X-58.7510 Y30.0332 
G01 X-58.7510 Y29.9634 
G01 X-58.7510 Y29.9485 
G01 X-58.7510 Y29.9341 
G01 X-58.7525 Y29.8636 
G01 X-58.7031 Y29.8142 
G01 X-58.6925 Y29.8036 
G01 X-58.6824 Y29.7935 
G01 X-58.3166 Y29.4142 
G01 X-58.1978 Y29.2954 
G01 X-58.1694 Y29.2671 
G01 X-58.1659 Y29.2585 
G01 X-58.1610 Y29.2538 
G01 X-58.1546 Y29.2389 
G01 X-58.1491 Y29.2263 
G01 X-58.1486 Y29.2237 
G01 X-58.1488 Y29.2100 
G01 X-58.1486 Y29.1963 
G01 X-58.1491 Y29.1937 
G01 X-58.1546 Y29.1811 
G01 X-58.1595 Y29.1684 
G01 X-58.1659 Y29.1615 
G01 X-58.1694 Y29.1529 
G01 X-58.3166 Y29.0058 
G01 X-58.6821 Y28.6271 
G01 X-58.6925 Y28.6164 
G01 X-58.7025 Y28.6061 
G01 X-58.7525 Y28.5564 
G01 X-58.7513 Y28.4865 
G01 X-58.7510 Y28.4715 
G01 X-58.7508 Y28.4572 
G01 X-58.7510 Y28.3868 
G01 X-58.7007 Y28.3382 
G01 X-58.6900 Y28.3279 
G01 X-58.6796 Y28.3179 
G01 X-58.6300 Y28.2679 
G01 X-58.5601 Y28.2691 
G01 X-58.5451 Y28.2694 
G01 X-58.5308 Y28.2696 
G01 X-57.0606 Y28.2694 
G01 X-56.8444 Y28.4856 
G01 X-56.8444 Y28.7678 
G01 X-56.8329 Y28.7955 
G01 X-56.8117 Y28.8167 
G01 X-56.7840 Y28.8282 
G01 X-56.5547 Y28.8282 
G01 X-56.5270 Y28.8167 
G01 X-56.5058 Y28.7955 
G01 X-56.4244 Y28.5990 
G01 X-56.1210 Y28.2956 
G01 X-55.7245 Y28.1314 
G01 X-53.4954 Y28.1314 
G01 X-53.0990 Y28.2956 
G01 X-52.7956 Y28.5990 
G01 X-52.6932 Y28.8463 
G01 X-52.6720 Y28.8675 
G01 X-52.6442 Y28.8790 
G01 X-50.3929 Y28.8790 
G00 Z2.5400 
G00 X-50.4010 Y29.0169 
G01 Z-0.0800 F254.00 
G01 X-50.4847 Y28.9822 F254.00 
G01 X-52.7608 Y28.9822 
G01 X-52.7721 Y28.9255 
G01 X-52.8456 Y28.7480 
G01 X-52.9524 Y28.5882 
G01 X-53.0882 Y28.4524 
G01 X-53.2480 Y28.3456 
G01 X-53.4255 Y28.2721 
G01 X-53.6139 Y28.2346 
G01 X-55.6061 Y28.2346 
G01 X-55.7945 Y28.2721 
G01 X-55.9720 Y28.3456 
G01 X-56.1318 Y28.4524 
G01 X-56.2676 Y28.5882 
G01 X-56.3744 Y28.7480 
G01 X-56.4479 Y28.9255 
G01 X-56.4491 Y28.9314 
G01 X-56.9476 Y28.9314 
G01 X-56.9476 Y28.6035 
G01 X-56.9657 Y28.5359 
G01 X-57.0007 Y28.4752 
G01 X-57.0502 Y28.4257 
G01 X-57.1109 Y28.3907 
G01 X-57.1785 Y28.3726 
G01 X-58.5461 Y28.3726 
G01 X-58.5653 Y28.3723 
G01 X-58.5847 Y28.3799 
G01 X-58.6026 Y28.3870 
G01 X-58.6176 Y28.4014 
G01 X-58.6314 Y28.4148 
G01 X-58.6398 Y28.4340 
G01 X-58.6474 Y28.4516 
G01 X-58.6478 Y28.4725 
G01 X-58.6481 Y28.4917 
G01 X-58.6405 Y28.5111 
G01 X-58.6334 Y28.5290 
G01 X-58.6190 Y28.5439 
G01 X-57.9759 Y29.2100 
G01 X-58.6190 Y29.8761 
G01 X-58.6324 Y29.8895 
G01 X-58.6405 Y29.9090 
G01 X-58.6478 Y29.9265 
G01 X-58.6478 Y29.9475 
G01 X-58.6478 Y29.9667 
G01 X-58.6397 Y29.9861 
G01 X-58.6324 Y30.0037 
G01 X-58.6175 Y30.0186 
G01 X-58.6041 Y30.0321 
G01 X-58.5846 Y30.0401 
G01 X-58.5671 Y30.0474 
G01 X-58.5461 Y30.0474 
G01 X-57.1785 Y30.0474 
G01 X-57.1109 Y30.0293 
G01 X-57.0502 Y29.9943 
G01 X-57.0007 Y29.9448 
G01 X-56.9657 Y29.8841 
G01 X-56.9476 Y29.8165 
G01 X-56.9476 Y29.4886 
G01 X-56.4491 Y29.4886 
G01 X-56.4479 Y29.4945 
G01 X-56.3744 Y29.6720 
G01 X-56.2676 Y29.8318 
G01 X-56.1318 Y29.9676 
G01 X-55.9720 Y30.0744 
G01 X-55.7945 Y30.1479 
G01 X-55.6061 Y30.1854 
G01 X-53.6139 Y30.1854 
G01 X-53.4255 Y30.1479 
G01 X-53.2480 Y30.0744 
G01 X-53.0882 Y29.9676 
G01 X-52.9524 Y29.8318 
G01 X-52.8456 Y29.6720 
G01 X-52.7721 Y29.4945 
G01 X-52.7608 Y29.4378 
G01 X-50.7578 Y29.4378 
G01 X-50.7578 Y30.7334 
G01 X-50.7304 Y30.7996 
G01 X-50.7304 Y31.2031 
G01 X-50.7189 Y31.2308 
G01 X-50.6977 Y31.2520 
G01 X-50.6700 Y31.2635 
G01 X-50.3900 Y31.2635 
G01 X-50.3623 Y31.2520 
G01 X-50.3411 Y31.2308 
G01 X-50.3296 Y31.2031 
G01 X-50.3296 Y30.7996 
G01 X-50.3022 Y30.7334 
G01 X-50.3022 Y29.1647 
G01 X-50.3369 Y29.0810 
G01 X-50.4010 Y29.0169 
G00 Z2.5400 
G00 X-50.1977 Y30.1242 
G01 Z-0.0800 F254.00 
G01 X-50.2189 Y30.1454 F254.00 
G01 X-50.2304 Y30.1731 
G01 X-50.2304 Y30.5766 
G01 X-50.2578 Y30.6428 
G01 X-50.2578 Y31.5222 
G01 X-52.7608 Y31.5222 
G01 X-52.7721 Y31.4655 
G01 X-52.8456 Y31.2880 
G01 X-52.9524 Y31.1282 
G01 X-53.0882 Y30.9924 
G01 X-53.2480 Y30.8856 
G01 X-53.4255 Y30.8121 
G01 X-53.6139 Y30.7746 
G01 X-55.6061 Y30.7746 
G01 X-55.7945 Y30.8121 
G01 X-55.9720 Y30.8856 
G01 X-56.1318 Y30.9924 
G01 X-56.2676 Y31.1282 
G01 X-56.3744 Y31.2880 
G01 X-56.4479 Y31.4655 
G01 X-56.4491 Y31.4714 
G01 X-56.9476 Y31.4714 
G01 X-56.9476 Y31.1435 
G01 X-56.9657 Y31.0759 
G01 X-57.0007 Y31.0152 
G01 X-57.0502 Y30.9657 
G01 X-57.1109 Y30.9307 
G01 X-57.1785 Y30.9126 
G01 X-58.5461 Y30.9126 
G01 X-58.5653 Y30.9123 
G01 X-58.5847 Y30.9199 
G01 X-58.6026 Y30.9270 
G01 X-58.6176 Y30.9414 
G01 X-58.6314 Y30.9548 
G01 X-58.6398 Y30.9740 
G01 X-58.6474 Y30.9916 
G01 X-58.6478 Y31.0125 
G01 X-58.6481 Y31.0317 
G01 X-58.6405 Y31.0511 
G01 X-58.6334 Y31.0690 
G01 X-58.6190 Y31.0839 
G01 X-57.9759 Y31.7500 
G01 X-58.6190 Y32.4160 
G01 X-58.6324 Y32.4295 
G01 X-58.6405 Y32.4489 
G01 X-58.6478 Y32.4665 
G01 X-58.6478 Y32.4875 
G01 X-58.6478 Y32.5067 
G01 X-58.6398 Y32.5260 
G01 X-58.6324 Y32.5437 
G01 X-58.6176 Y32.5586 
G01 X-58.6041 Y32.5720 
G01 X-58.5847 Y32.5801 
G01 X-58.5671 Y32.5874 
G01 X-58.5461 Y32.5874 
G01 X-57.1785 Y32.5874 
G01 X-57.1109 Y32.5693 
G01 X-57.0502 Y32.5343 
G01 X-57.0007 Y32.4848 
G01 X-56.9657 Y32.4241 
G01 X-56.9476 Y32.3565 
G01 X-56.9476 Y32.0286 
G01 X-56.4491 Y32.0286 
G01 X-56.4479 Y32.0345 
G01 X-56.3744 Y32.2120 
G01 X-56.2676 Y32.3718 
G01 X-56.1318 Y32.5076 
G01 X-55.9720 Y32.6144 
G01 X-55.7945 Y32.6879 
G01 X-55.6061 Y32.7254 
G01 X-53.6139 Y32.7254 
G01 X-53.4255 Y32.6879 
G01 X-53.2480 Y32.6144 
G01 X-53.0882 Y32.5076 
G01 X-52.9524 Y32.3718 
G01 X-52.8456 Y32.2120 
G01 X-52.7721 Y32.0345 
G01 X-52.7608 Y31.9778 
G01 X-49.9847 Y31.9778 
G01 X-49.9010 Y31.9431 
G01 X-49.8369 Y31.8790 
G01 X-49.8022 Y31.7953 
G01 X-49.8022 Y30.6428 
G01 X-49.8296 Y30.5766 
G01 X-49.8296 Y30.1731 
G01 X-49.8411 Y30.1454 
G01 X-49.8623 Y30.1242 
G01 X-49.8900 Y30.1127 
G01 X-50.1700 Y30.1127 
G01 X-50.1977 Y30.1242 
G00 Z2.5400 
G00 X-49.3336 Y30.1141 
G01 Z-0.0800 F254.00 
G01 X-49.2290 Y30.0095 F254.00 
G01 X-48.8310 Y30.0095 
G01 X-48.7264 Y30.1141 
G01 X-48.7264 Y30.1634 
G01 X-48.7304 Y30.1731 
G01 X-48.7304 Y31.2031 
G01 X-48.7264 Y31.2128 
G01 X-48.7264 Y31.2621 
G01 X-48.8310 Y31.3667 
G01 X-49.2290 Y31.3667 
G01 X-49.3336 Y31.2621 
G01 X-49.3336 Y31.2128 
G01 X-49.3296 Y31.2031 
G01 X-49.3296 Y30.1731 
G01 X-49.3336 Y30.1634 
G01 X-49.3336 Y30.1141 
G00 Z2.5400 
G00 X-49.1977 Y30.1242 
G01 Z-0.0800 F254.00 
G01 X-49.2189 Y30.1454 F254.00 
G01 X-49.2304 Y30.1731 
G01 X-49.2304 Y31.2031 
G01 X-49.2189 Y31.2308 
G01 X-49.1977 Y31.2520 
G01 X-49.1700 Y31.2635 
G01 X-48.8900 Y31.2635 
G01 X-48.8623 Y31.2520 
G01 X-48.8411 Y31.2308 
G01 X-48.8296 Y31.2031 
G01 X-48.8296 Y30.1731 
G01 X-48.8411 Y30.1454 
G01 X-48.8623 Y30.1242 
G01 X-48.8900 Y30.1127 
G01 X-49.1700 Y30.1127 
G01 X-49.1977 Y30.1242 
G00 Z2.5400 
G00 X-38.4818 Y31.5918 
G01 Z-0.0800 F254.00 
G01 X-38.2582 Y31.3682 F254.00 
G01 X-33.4073 Y31.3682 
G01 X-33.3804 Y31.3570 
G01 X-33.3584 Y31.3355 
G01 X-33.3469 Y31.3078 
G01 X-33.3094 Y31.2172 
G01 X-33.0448 Y30.9526 
G01 X-32.6991 Y30.8094 
G01 X-30.8009 Y30.8094 
G01 X-30.4552 Y30.9526 
G01 X-30.1906 Y31.2172 
G01 X-30.0474 Y31.5629 
G01 X-30.0474 Y31.9371 
G01 X-30.1906 Y32.2828 
G01 X-30.4552 Y32.5474 
G01 X-30.8009 Y32.6906 
G01 X-32.6991 Y32.6906 
G01 X-33.0448 Y32.5474 
G01 X-33.3094 Y32.2828 
G01 X-33.3469 Y32.1922 
G01 X-33.3584 Y32.1645 
G01 X-33.3793 Y32.1436 
G01 X-33.4073 Y32.1318 
G01 X-37.6578 Y32.1318 
G01 X-37.6855 Y32.1433 
G01 X-37.7067 Y32.1645 
G01 X-37.7182 Y32.1922 
G01 X-37.7182 Y39.6072 
G01 X-37.7067 Y39.6349 
G01 X-37.6855 Y39.6561 
G01 X-37.4952 Y39.7349 
G01 X-37.1949 Y40.0352 
G01 X-37.0324 Y40.4276 
G01 X-37.0324 Y40.8524 
G01 X-37.1949 Y41.2448 
G01 X-37.4952 Y41.5451 
G01 X-37.8876 Y41.7076 
G01 X-38.3124 Y41.7076 
G01 X-38.7047 Y41.5451 
G01 X-39.0051 Y41.2448 
G01 X-39.1676 Y40.8524 
G01 X-39.1676 Y40.4276 
G01 X-39.0051 Y40.0352 
G01 X-38.7048 Y39.7349 
G01 X-38.5145 Y39.6561 
G01 X-38.4933 Y39.6349 
G01 X-38.4818 Y39.6072 
G01 X-38.4818 Y31.5918 
G00 Z2.5400 
G00 X-38.3229 Y31.5789 
G01 Z-0.0800 F254.00 
G01 X-38.3596 Y31.6425 F254.00 
G01 X-38.3786 Y31.7133 
G01 X-38.3786 Y39.7121 
G01 X-38.3813 Y39.7127 
G01 X-38.5568 Y39.7854 
G01 X-38.7148 Y39.8909 
G01 X-38.8491 Y40.0252 
G01 X-38.9546 Y40.1832 
G01 X-39.0273 Y40.3587 
G01 X-39.0644 Y40.5450 
G01 X-39.0644 Y40.7350 
G01 X-39.0273 Y40.9213 
G01 X-38.9546 Y41.0968 
G01 X-38.8491 Y41.2548 
G01 X-38.7148 Y41.3891 
G01 X-38.5568 Y41.4946 
G01 X-38.3813 Y41.5673 
G01 X-38.1950 Y41.6044 
G01 X-38.0050 Y41.6044 
G01 X-37.8187 Y41.5673 
G01 X-37.6432 Y41.4946 
G01 X-37.4852 Y41.3891 
G01 X-37.3509 Y41.2548 
G01 X-37.2454 Y41.0968 
G01 X-37.1727 Y40.9213 
G01 X-37.1356 Y40.7350 
G01 X-37.1356 Y40.5450 
G01 X-37.1727 Y40.3587 
G01 X-37.2454 Y40.1832 
G01 X-37.3509 Y40.0252 
G01 X-37.4852 Y39.8909 
G01 X-37.6432 Y39.7854 
G01 X-37.8187 Y39.7127 
G01 X-37.8214 Y39.7121 
G01 X-37.8214 Y32.0286 
G01 X-33.3030 Y32.0286 
G01 X-33.2541 Y32.1467 
G01 X-33.1624 Y32.2838 
G01 X-33.0458 Y32.4004 
G01 X-32.9087 Y32.4921 
G01 X-32.7563 Y32.5552 
G01 X-32.5945 Y32.5874 
G01 X-30.9055 Y32.5874 
G01 X-30.7437 Y32.5552 
G01 X-30.5913 Y32.4921 
G01 X-30.4542 Y32.4004 
G01 X-30.3375 Y32.2838 
G01 X-30.2459 Y32.1467 
G01 X-30.1828 Y31.9943 
G01 X-30.1506 Y31.8325 
G01 X-30.1506 Y31.6675 
G01 X-30.1828 Y31.5057 
G01 X-30.2459 Y31.3533 
G01 X-30.3375 Y31.2162 
G01 X-30.4542 Y31.0995 
G01 X-30.5913 Y31.0079 
G01 X-30.7437 Y30.9448 
G01 X-30.9055 Y30.9126 
G01 X-32.5945 Y30.9126 
G01 X-32.7563 Y30.9448 
G01 X-32.9087 Y31.0079 
G01 X-33.0458 Y31.0995 
G01 X-33.1624 Y31.2162 
G01 X-33.2541 Y31.3533 
G01 X-33.3030 Y31.4714 
G01 X-38.1367 Y31.4714 
G01 X-38.2075 Y31.4904 
G01 X-38.2711 Y31.5271 
G01 X-38.3229 Y31.5789 
G00 Z2.5400 
G00 X-33.0448 Y30.0074 
G01 Z-0.0800 F254.00 
G01 X-33.3094 Y29.7428 F254.00 
G01 X-33.4526 Y29.3971 
G01 X-33.4526 Y29.0229 
G01 X-33.3094 Y28.6772 
G01 X-33.0448 Y28.4126 
G01 X-32.6991 Y28.2694 
G01 X-30.8009 Y28.2694 
G01 X-30.4552 Y28.4126 
G01 X-30.1906 Y28.6772 
G01 X-30.1531 Y28.7678 
G01 X-30.1416 Y28.7955 
G01 X-30.1207 Y28.8164 
G01 X-30.0927 Y28.8282 
G01 X-26.5118 Y28.8282 
G01 X-26.2882 Y29.0518 
G01 X-26.2882 Y38.2582 
G01 X-26.5118 Y38.4818 
G01 X-32.5778 Y38.4818 
G01 X-32.6055 Y38.4933 
G01 X-32.6267 Y38.5145 
G01 X-32.6382 Y38.5422 
G01 X-32.6382 Y39.6072 
G01 X-32.6267 Y39.6349 
G01 X-32.6055 Y39.6561 
G01 X-32.4152 Y39.7349 
G01 X-32.1149 Y40.0352 
G01 X-31.9524 Y40.4276 
G01 X-31.9524 Y40.8524 
G01 X-32.1149 Y41.2448 
G01 X-32.4152 Y41.5451 
G01 X-32.8076 Y41.7076 
G01 X-33.2324 Y41.7076 
G01 X-33.6248 Y41.5451 
G01 X-33.9251 Y41.2448 
G01 X-34.0876 Y40.8524 
G01 X-34.0876 Y40.4276 
G01 X-33.9251 Y40.0352 
G01 X-33.6248 Y39.7349 
G01 X-33.4345 Y39.6561 
G01 X-33.4133 Y39.6349 
G01 X-33.4018 Y39.6072 
G01 X-33.4018 Y37.9418 
G01 X-33.1782 Y37.7182 
G01 X-27.1122 Y37.7182 
G01 X-27.0845 Y37.7067 
G01 X-27.0633 Y37.6855 
G01 X-27.0518 Y37.6578 
G01 X-27.0518 Y29.6522 
G01 X-27.0633 Y29.6245 
G01 X-27.0845 Y29.6033 
G01 X-27.1122 Y29.5918 
G01 X-30.0927 Y29.5918 
G01 X-30.1196 Y29.6030 
G01 X-30.1416 Y29.6245 
G01 X-30.1531 Y29.6522 
G01 X-30.1906 Y29.7428 
G01 X-30.4552 Y30.0074 
G01 X-30.8009 Y30.1506 
G01 X-32.6991 Y30.1506 
G01 X-33.0448 Y30.0074 
G00 Z2.5400 
G00 X-33.0458 Y29.8605 
G01 Z-0.0800 F254.00 
G01 X-32.9087 Y29.9521 F254.00 
G01 X-32.7563 Y30.0152 
G01 X-32.5945 Y30.0474 
G01 X-30.9055 Y30.0474 
G01 X-30.7437 Y30.0152 
G01 X-30.5913 Y29.9521 
G01 X-30.4542 Y29.8605 
G01 X-30.3375 Y29.7438 
G01 X-30.2459 Y29.6067 
G01 X-30.1970 Y29.4886 
G01 X-26.9486 Y29.4886 
G01 X-26.9486 Y37.8214 
G01 X-33.0567 Y37.8214 
G01 X-33.1275 Y37.8404 
G01 X-33.1911 Y37.8771 
G01 X-33.2429 Y37.9289 
G01 X-33.2796 Y37.9925 
G01 X-33.2986 Y38.0633 
G01 X-33.2986 Y39.7121 
G01 X-33.3013 Y39.7127 
G01 X-33.4768 Y39.7854 
G01 X-33.6348 Y39.8909 
G01 X-33.7691 Y40.0252 
G01 X-33.8746 Y40.1832 
G01 X-33.9473 Y40.3587 
G01 X-33.9844 Y40.5450 
G01 X-33.9844 Y40.7350 
G01 X-33.9473 Y40.9213 
G01 X-33.8746 Y41.0968 
G01 X-33.7691 Y41.2548 
G01 X-33.6348 Y41.3891 
G01 X-33.4768 Y41.4946 
G01 X-33.3013 Y41.5673 
G01 X-33.1150 Y41.6044 
G01 X-32.9250 Y41.6044 
G01 X-32.7387 Y41.5673 
G01 X-32.5632 Y41.4946 
G01 X-32.4052 Y41.3891 
G01 X-32.2709 Y41.2548 
G01 X-32.1654 Y41.0968 
G01 X-32.0927 Y40.9213 
G01 X-32.0556 Y40.7350 
G01 X-32.0556 Y40.5450 
G01 X-32.0927 Y40.3587 
G01 X-32.1654 Y40.1832 
G01 X-32.2709 Y40.0252 
G01 X-32.4052 Y39.8909 
G01 X-32.5632 Y39.7854 
G01 X-32.7387 Y39.7127 
G01 X-32.7414 Y39.7121 
G01 X-32.7414 Y38.3786 
G01 X-26.6333 Y38.3786 
G01 X-26.5625 Y38.3596 
G01 X-26.4989 Y38.3229 
G01 X-26.4471 Y38.2711 
G01 X-26.4104 Y38.2075 
G01 X-26.3914 Y38.1367 
G01 X-26.3914 Y29.1733 
G01 X-26.4104 Y29.1025 
G01 X-26.4471 Y29.0389 
G01 X-26.4989 Y28.9871 
G01 X-26.5625 Y28.9504 
G01 X-26.6333 Y28.9314 
G01 X-30.1970 Y28.9314 
G01 X-30.2459 Y28.8133 
G01 X-30.3375 Y28.6762 
G01 X-30.4542 Y28.5595 
G01 X-30.5913 Y28.4679 
G01 X-30.7437 Y28.4048 
G01 X-30.9055 Y28.3726 
G01 X-32.5945 Y28.3726 
G01 X-32.7563 Y28.4048 
G01 X-32.9087 Y28.4679 
G01 X-33.0458 Y28.5595 
G01 X-33.1624 Y28.6762 
G01 X-33.2541 Y28.8133 
G01 X-33.3172 Y28.9657 
G01 X-33.3494 Y29.1275 
G01 X-33.3494 Y29.2925 
G01 X-33.3172 Y29.4543 
G01 X-33.2541 Y29.6067 
G01 X-33.1624 Y29.7438 
G01 X-33.0458 Y29.8605 
G00 Z2.5400 
G00 X-33.0448 Y33.4926 
G01 Z-0.0800 F254.00 
G01 X-32.6991 Y33.3494 F254.00 
G01 X-30.8009 Y33.3494 
G01 X-30.4552 Y33.4926 
G01 X-30.2543 Y33.6935 
G01 X-30.2265 Y33.7050 
G01 X-30.0522 Y33.7050 
G01 X-30.0245 Y33.6935 
G01 X-30.0033 Y33.6723 
G01 X-29.9918 Y33.6446 
G01 X-29.9918 Y33.6128 
G01 X-29.8872 Y33.5082 
G01 X-28.5328 Y33.5082 
G01 X-28.4282 Y33.6128 
G01 X-28.4282 Y34.9672 
G01 X-28.5328 Y35.0718 
G01 X-29.8872 Y35.0718 
G01 X-29.9918 Y34.9672 
G01 X-29.9918 Y34.9354 
G01 X-30.0033 Y34.9077 
G01 X-30.0245 Y34.8865 
G01 X-30.0522 Y34.8750 
G01 X-30.2265 Y34.8750 
G01 X-30.2543 Y34.8865 
G01 X-30.2755 Y34.9077 
G01 X-30.4552 Y35.0874 
G01 X-30.8009 Y35.2306 
G01 X-31.8470 Y35.2306 
G01 X-31.8748 Y35.2421 
G01 X-31.8960 Y35.2633 
G01 X-34.7667 Y38.1340 
G01 X-34.7782 Y38.1618 
G01 X-34.7782 Y38.7772 
G01 X-34.8828 Y38.8818 
G01 X-36.2372 Y38.8818 
G01 X-36.3418 Y38.7772 
G01 X-36.3418 Y37.4228 
G01 X-36.2372 Y37.3182 
G01 X-35.6218 Y37.3182 
G01 X-35.5940 Y37.3067 
G01 X-35.5728 Y37.2855 
G01 X-33.2737 Y34.9864 
G01 X-33.2622 Y34.9748 
G01 X-33.2525 Y34.9652 
G01 X-33.2410 Y34.9374 
G01 X-33.2410 Y34.9074 
G01 X-33.2525 Y34.8797 
G01 X-33.2736 Y34.8587 
G01 X-33.3094 Y34.8228 
G01 X-33.4526 Y34.4771 
G01 X-33.4526 Y34.1029 
G01 X-33.3094 Y33.7572 
G01 X-33.0448 Y33.4926 
G00 Z2.5400 
G00 X-33.0458 Y33.6395 
G01 Z-0.0800 F254.00 
G01 X-33.1624 Y33.7562 F254.00 
G01 X-33.2541 Y33.8933 
G01 X-33.3172 Y34.0457 
G01 X-33.3494 Y34.2075 
G01 X-33.3494 Y34.3725 
G01 X-33.3172 Y34.5343 
G01 X-33.2541 Y34.6867 
G01 X-33.1624 Y34.8238 
G01 X-33.0638 Y34.9224 
G01 X-35.5628 Y37.4214 
G01 X-36.1782 Y37.4214 
G01 X-36.2059 Y37.4329 
G01 X-36.2271 Y37.4541 
G01 X-36.2386 Y37.4818 
G01 X-36.2386 Y38.7182 
G01 X-36.2271 Y38.7459 
G01 X-36.2059 Y38.7671 
G01 X-36.1782 Y38.7786 
G01 X-34.9418 Y38.7786 
G01 X-34.9141 Y38.7671 
G01 X-34.8929 Y38.7459 
G01 X-34.8814 Y38.7182 
G01 X-34.8814 Y38.1028 
G01 X-31.9060 Y35.1274 
G01 X-30.9055 Y35.1274 
G01 X-30.7437 Y35.0952 
G01 X-30.5913 Y35.0321 
G01 X-30.4542 Y34.9404 
G01 X-30.3375 Y34.8238 
G01 X-30.3028 Y34.7718 
G01 X-29.8886 Y34.7718 
G01 X-29.8886 Y34.9082 
G01 X-29.8771 Y34.9359 
G01 X-29.8559 Y34.9571 
G01 X-29.8282 Y34.9686 
G01 X-28.5918 Y34.9686 
G01 X-28.5641 Y34.9571 
G01 X-28.5429 Y34.9359 
G01 X-28.5314 Y34.9082 
G01 X-28.5314 Y33.6718 
G01 X-28.5429 Y33.6441 
G01 X-28.5641 Y33.6229 
G01 X-28.5918 Y33.6114 
G01 X-29.8282 Y33.6114 
G01 X-29.8559 Y33.6229 
G01 X-29.8771 Y33.6441 
G01 X-29.8886 Y33.6718 
G01 X-29.8886 Y33.8082 
G01 X-30.3028 Y33.8082 
G01 X-30.3375 Y33.7562 
G01 X-30.4542 Y33.6395 
G01 X-30.5913 Y33.5479 
G01 X-30.7437 Y33.4848 
G01 X-30.9055 Y33.4526 
G01 X-32.5945 Y33.4526 
G01 X-32.7563 Y33.4848 
G01 X-32.9087 Y33.5479 
G01 X-33.0458 Y33.6395 
G00 Z2.5400 
G00 X-34.9552 Y39.7349 
G01 Z-0.0800 F254.00 
G01 X-34.6549 Y40.0352 F254.00 
G01 X-34.4924 Y40.4276 
G01 X-34.4924 Y40.8524 
G01 X-34.6549 Y41.2448 
G01 X-34.9552 Y41.5451 
G01 X-35.3476 Y41.7076 
G01 X-35.7724 Y41.7076 
G01 X-36.1648 Y41.5451 
G01 X-36.4651 Y41.2448 
G01 X-36.6276 Y40.8524 
G01 X-36.6276 Y40.4276 
G01 X-36.4651 Y40.0352 
G01 X-36.1648 Y39.7349 
G01 X-35.7724 Y39.5724 
G01 X-35.3476 Y39.5724 
G01 X-34.9552 Y39.7349 
G00 Z2.5400 
G00 X-34.9452 Y39.8909 
G01 Z-0.0800 F254.00 
G01 X-35.1032 Y39.7854 F254.00 
G01 X-35.2787 Y39.7127 
G01 X-35.4650 Y39.6756 
G01 X-35.6550 Y39.6756 
G01 X-35.8413 Y39.7127 
G01 X-36.0168 Y39.7854 
G01 X-36.1748 Y39.8909 
G01 X-36.3091 Y40.0252 
G01 X-36.4146 Y40.1832 
G01 X-36.4873 Y40.3587 
G01 X-36.5244 Y40.5450 
G01 X-36.5244 Y40.7350 
G01 X-36.4873 Y40.9213 
G01 X-36.4146 Y41.0968 
G01 X-36.3091 Y41.2548 
G01 X-36.1748 Y41.3891 
G01 X-36.0168 Y41.4946 
G01 X-35.8413 Y41.5673 
G01 X-35.6550 Y41.6044 
G01 X-35.4650 Y41.6044 
G01 X-35.2787 Y41.5673 
G01 X-35.1032 Y41.4946 
G01 X-34.9452 Y41.3891 
G01 X-34.8109 Y41.2548 
G01 X-34.7054 Y41.0968 
G01 X-34.6327 Y40.9213 
G01 X-34.5956 Y40.7350 
G01 X-34.5956 Y40.5450 
G01 X-34.6327 Y40.3587 
G01 X-34.7054 Y40.1832 
G01 X-34.8109 Y40.0252 
G01 X-34.9452 Y39.8909 
G00 Z2.5400 
G00 X-31.3851 Y40.0352 
G01 Z-0.0800 F254.00 
G01 X-31.0848 Y39.7349 F254.00 
G01 X-30.6924 Y39.5724 
G01 X-30.2676 Y39.5724 
G01 X-29.8752 Y39.7349 
G01 X-29.5749 Y40.0352 
G01 X-29.4124 Y40.4276 
G01 X-29.4124 Y40.8524 
G01 X-29.5749 Y41.2448 
G01 X-29.8752 Y41.5451 
G01 X-30.2676 Y41.7076 
G01 X-30.6924 Y41.7076 
G01 X-31.0848 Y41.5451 
G01 X-31.3851 Y41.2448 
G01 X-31.5476 Y40.8524 
G01 X-31.5476 Y40.4276 
G01 X-31.3851 Y40.0352 
G00 Z2.5400 
G00 X-31.2291 Y40.0252 
G01 Z-0.0800 F254.00 
G01 X-31.3346 Y40.1832 F254.00 
G01 X-31.4073 Y40.3587 
G01 X-31.4444 Y40.5450 
G01 X-31.4444 Y40.7350 
G01 X-31.4073 Y40.9213 
G01 X-31.3346 Y41.0968 
G01 X-31.2291 Y41.2548 
G01 X-31.0948 Y41.3891 
G01 X-30.9368 Y41.4946 
G01 X-30.7613 Y41.5673 
G01 X-30.5750 Y41.6044 
G01 X-30.3850 Y41.6044 
G01 X-30.1987 Y41.5673 
G01 X-30.0232 Y41.4946 
G01 X-29.8652 Y41.3891 
G01 X-29.7309 Y41.2548 
G01 X-29.6254 Y41.0968 
G01 X-29.5527 Y40.9213 
G01 X-29.5156 Y40.7350 
G01 X-29.5156 Y40.5450 
G01 X-29.5527 Y40.3587 
G01 X-29.6254 Y40.1832 
G01 X-29.7309 Y40.0252 
G01 X-29.8652 Y39.8909 
G01 X-30.0232 Y39.7854 
G01 X-30.1987 Y39.7127 
G01 X-30.3850 Y39.6756 
G01 X-30.5750 Y39.6756 
G01 X-30.7613 Y39.7127 
G01 X-30.9368 Y39.7854 
G01 X-31.0948 Y39.8909 
G01 X-31.2291 Y40.0252 
G00 Z2.5400 
G00 X-28.8451 Y40.0352 
G01 Z-0.0800 F254.00 
G01 X-28.5448 Y39.7349 F254.00 
G01 X-28.1524 Y39.5724 
G01 X-27.7276 Y39.5724 
G01 X-27.3352 Y39.7349 
G01 X-27.0349 Y40.0352 
G01 X-26.8724 Y40.4276 
G01 X-26.8724 Y40.8524 
G01 X-27.0349 Y41.2448 
G01 X-27.3352 Y41.5451 
G01 X-27.7276 Y41.7076 
G01 X-28.1524 Y41.7076 
G01 X-28.5448 Y41.5451 
G01 X-28.8451 Y41.2448 
G01 X-29.0076 Y40.8524 
G01 X-29.0076 Y40.4276 
G01 X-28.8451 Y40.0352 
G00 Z2.5400 
G00 X-28.6891 Y40.0252 
G01 Z-0.0800 F254.00 
G01 X-28.7946 Y40.1832 F254.00 
G01 X-28.8673 Y40.3587 
G01 X-28.9044 Y40.5450 
G01 X-28.9044 Y40.7350 
G01 X-28.8673 Y40.9213 
G01 X-28.7946 Y41.0968 
G01 X-28.6891 Y41.2548 
G01 X-28.5548 Y41.3891 
G01 X-28.3968 Y41.4946 
G01 X-28.2213 Y41.5673 
G01 X-28.0350 Y41.6044 
G01 X-27.8450 Y41.6044 
G01 X-27.6587 Y41.5673 
G01 X-27.4832 Y41.4946 
G01 X-27.3252 Y41.3891 
G01 X-27.1909 Y41.2548 
G01 X-27.0854 Y41.0968 
G01 X-27.0127 Y40.9213 
G01 X-26.9756 Y40.7350 
G01 X-26.9756 Y40.5450 
G01 X-27.0127 Y40.3587 
G01 X-27.0854 Y40.1832 
G01 X-27.1909 Y40.0252 
G01 X-27.3252 Y39.8909 
G01 X-27.4832 Y39.7854 
G01 X-27.6587 Y39.7127 
G01 X-27.8450 Y39.6756 
G01 X-28.0350 Y39.6756 
G01 X-28.2213 Y39.7127 
G01 X-28.3968 Y39.7854 
G01 X-28.5548 Y39.8909 
G01 X-28.6891 Y40.0252 
G00 Z2.5400 
G00 X-26.3051 Y40.0352 
G01 Z-0.0800 F254.00 
G01 X-26.0048 Y39.7349 F254.00 
G01 X-25.6124 Y39.5724 
G01 X-25.1876 Y39.5724 
G01 X-24.7952 Y39.7349 
G01 X-24.4949 Y40.0352 
G01 X-24.3324 Y40.4276 
G01 X-24.3324 Y40.8524 
G01 X-24.4949 Y41.2448 
G01 X-24.7952 Y41.5451 
G01 X-25.1876 Y41.7076 
G01 X-25.6124 Y41.7076 
G01 X-26.0048 Y41.5451 
G01 X-26.3051 Y41.2448 
G01 X-26.4676 Y40.8524 
G01 X-26.4676 Y40.4276 
G01 X-26.3051 Y40.0352 
G00 Z2.5400 
G00 X-26.1491 Y40.0252 
G01 Z-0.0800 F254.00 
G01 X-26.2546 Y40.1832 F254.00 
G01 X-26.3273 Y40.3587 
G01 X-26.3644 Y40.5450 
G01 X-26.3644 Y40.7350 
G01 X-26.3273 Y40.9213 
G01 X-26.2546 Y41.0968 
G01 X-26.1491 Y41.2548 
G01 X-26.0148 Y41.3891 
G01 X-25.8568 Y41.4946 
G01 X-25.6813 Y41.5673 
G01 X-25.4950 Y41.6044 
G01 X-25.3050 Y41.6044 
G01 X-25.1187 Y41.5673 
G01 X-24.9432 Y41.4946 
G01 X-24.7852 Y41.3891 
G01 X-24.6509 Y41.2548 
G01 X-24.5454 Y41.0968 
G01 X-24.4727 Y40.9213 
G01 X-24.4356 Y40.7350 
G01 X-24.4356 Y40.5450 
G01 X-24.4727 Y40.3587 
G01 X-24.5454 Y40.1832 
G01 X-24.6509 Y40.0252 
G01 X-24.7852 Y39.8909 
G01 X-24.9432 Y39.7854 
G01 X-25.1187 Y39.7127 
G01 X-25.3050 Y39.6756 
G01 X-25.4950 Y39.6756 
G01 X-25.6813 Y39.7127 
G01 X-25.8568 Y39.7854 
G01 X-26.0148 Y39.8909 
G01 X-26.1491 Y40.0252 
G00 Z2.5400 
G00 X-23.7651 Y40.0352 
G01 Z-0.0800 F254.00 
G01 X-23.4648 Y39.7349 F254.00 
G01 X-23.0724 Y39.5724 
G01 X-22.6476 Y39.5724 
G01 X-22.2552 Y39.7349 
G01 X-21.9549 Y40.0352 
G01 X-21.7924 Y40.4276 
G01 X-21.7924 Y40.8524 
G01 X-21.9549 Y41.2448 
G01 X-22.2552 Y41.5451 
G01 X-22.6476 Y41.7076 
G01 X-23.0724 Y41.7076 
G01 X-23.4648 Y41.5451 
G01 X-23.7651 Y41.2448 
G01 X-23.9276 Y40.8524 
G01 X-23.9276 Y40.4276 
G01 X-23.7651 Y40.0352 
G00 Z2.5400 
G00 X-23.6091 Y40.0252 
G01 Z-0.0800 F254.00 
G01 X-23.7146 Y40.1832 F254.00 
G01 X-23.7873 Y40.3587 
G01 X-23.8244 Y40.5450 
G01 X-23.8244 Y40.7350 
G01 X-23.7873 Y40.9213 
G01 X-23.7146 Y41.0968 
G01 X-23.6091 Y41.2548 
G01 X-23.4748 Y41.3891 
G01 X-23.3168 Y41.4946 
G01 X-23.1413 Y41.5673 
G01 X-22.9550 Y41.6044 
G01 X-22.7650 Y41.6044 
G01 X-22.5787 Y41.5673 
G01 X-22.4032 Y41.4946 
G01 X-22.2452 Y41.3891 
G01 X-22.1109 Y41.2548 
G01 X-22.0054 Y41.0968 
G01 X-21.9327 Y40.9213 
G01 X-21.8956 Y40.7350 
G01 X-21.8956 Y40.5450 
G01 X-21.9327 Y40.3587 
G01 X-22.0054 Y40.1832 
G01 X-22.1109 Y40.0252 
G01 X-22.2452 Y39.8909 
G01 X-22.4032 Y39.7854 
G01 X-22.5787 Y39.7127 
G01 X-22.7650 Y39.6756 
G01 X-22.9550 Y39.6756 
G01 X-23.1413 Y39.7127 
G01 X-23.3168 Y39.7854 
G01 X-23.4748 Y39.8909 
G01 X-23.6091 Y40.0252 
G00 Z2.5400 
G00 X-21.2251 Y40.0352 
G01 Z-0.0800 F254.00 
G01 X-20.9248 Y39.7349 F254.00 
G01 X-20.5324 Y39.5724 
G01 X-20.1076 Y39.5724 
G01 X-19.7152 Y39.7349 
G01 X-19.4149 Y40.0352 
G01 X-19.2524 Y40.4276 
G01 X-19.2524 Y40.8524 
G01 X-19.4149 Y41.2448 
G01 X-19.7152 Y41.5451 
G01 X-20.1076 Y41.7076 
G01 X-20.5324 Y41.7076 
G01 X-20.9248 Y41.5451 
G01 X-21.2251 Y41.2448 
G01 X-21.3876 Y40.8524 
G01 X-21.3876 Y40.4276 
G01 X-21.2251 Y40.0352 
G00 Z2.5400 
G00 X-21.0691 Y40.0252 
G01 Z-0.0800 F254.00 
G01 X-21.1746 Y40.1832 F254.00 
G01 X-21.2473 Y40.3587 
G01 X-21.2844 Y40.5450 
G01 X-21.2844 Y40.7350 
G01 X-21.2473 Y40.9213 
G01 X-21.1746 Y41.0968 
G01 X-21.0691 Y41.2548 
G01 X-20.9348 Y41.3891 
G01 X-20.7768 Y41.4946 
G01 X-20.6013 Y41.5673 
G01 X-20.4150 Y41.6044 
G01 X-20.2250 Y41.6044 
G01 X-20.0387 Y41.5673 
G01 X-19.8632 Y41.4946 
G01 X-19.7052 Y41.3891 
G01 X-19.5709 Y41.2548 
G01 X-19.4654 Y41.0968 
G01 X-19.3927 Y40.9213 
G01 X-19.3556 Y40.7350 
G01 X-19.3556 Y40.5450 
G01 X-19.3927 Y40.3587 
G01 X-19.4654 Y40.1832 
G01 X-19.5709 Y40.0252 
G01 X-19.7052 Y39.8909 
G01 X-19.8632 Y39.7854 
G01 X-20.0387 Y39.7127 
G01 X-20.2250 Y39.6756 
G01 X-20.4150 Y39.6756 
G01 X-20.6013 Y39.7127 
G01 X-20.7768 Y39.7854 
G01 X-20.9348 Y39.8909 
G01 X-21.0691 Y40.0252 
G00 Z2.5400 
G00 X-18.6851 Y40.0352 
G01 Z-0.0800 F254.00 
G01 X-18.3848 Y39.7349 F254.00 
G01 X-18.1945 Y39.6561 
G01 X-18.1733 Y39.6349 
G01 X-18.1618 Y39.6072 
G01 X-18.1618 Y38.6690 
G01 X-18.1733 Y38.6413 
G01 X-18.1945 Y38.6201 
G01 X-18.2222 Y38.6086 
G01 X-18.6540 Y38.6086 
G01 X-18.7586 Y38.5040 
G01 X-18.7586 Y37.0560 
G01 X-18.6540 Y36.9514 
G01 X-16.9060 Y36.9514 
G01 X-16.8014 Y37.0560 
G01 X-16.8014 Y38.5040 
G01 X-16.9060 Y38.6086 
G01 X-17.3378 Y38.6086 
G01 X-17.3655 Y38.6201 
G01 X-17.3867 Y38.6413 
G01 X-17.3982 Y38.6690 
G01 X-17.3982 Y39.6072 
G01 X-17.3867 Y39.6349 
G01 X-17.3655 Y39.6561 
G01 X-17.1752 Y39.7349 
G01 X-16.8749 Y40.0352 
G01 X-16.7124 Y40.4276 
G01 X-16.7124 Y40.8524 
G01 X-16.8749 Y41.2448 
G01 X-17.1752 Y41.5451 
G01 X-17.5676 Y41.7076 
G01 X-17.9924 Y41.7076 
G01 X-18.3848 Y41.5451 
G01 X-18.6851 Y41.2448 
G01 X-18.8476 Y40.8524 
G01 X-18.8476 Y40.4276 
G01 X-18.6851 Y40.0352 
G00 Z2.5400 
G00 X-18.5291 Y40.0252 
G01 Z-0.0800 F254.00 
G01 X-18.6346 Y40.1832 F254.00 
G01 X-18.7073 Y40.3587 
G01 X-18.7444 Y40.5450 
G01 X-18.7444 Y40.7350 
G01 X-18.7073 Y40.9213 
G01 X-18.6346 Y41.0968 
G01 X-18.5291 Y41.2548 
G01 X-18.3948 Y41.3891 
G01 X-18.2368 Y41.4946 
G01 X-18.0613 Y41.5673 
G01 X-17.8750 Y41.6044 
G01 X-17.6850 Y41.6044 
G01 X-17.4987 Y41.5673 
G01 X-17.3232 Y41.4946 
G01 X-17.1652 Y41.3891 
G01 X-17.0309 Y41.2548 
G01 X-16.9254 Y41.0968 
G01 X-16.8527 Y40.9213 
G01 X-16.8156 Y40.7350 
G01 X-16.8156 Y40.5450 
G01 X-16.8527 Y40.3587 
G01 X-16.9254 Y40.1832 
G01 X-17.0309 Y40.0252 
G01 X-17.1652 Y39.8909 
G01 X-17.3232 Y39.7854 
G01 X-17.4987 Y39.7127 
G01 X-17.5014 Y39.7121 
G01 X-17.5014 Y38.5054 
G01 X-16.9650 Y38.5054 
G01 X-16.9373 Y38.4939 
G01 X-16.9161 Y38.4727 
G01 X-16.9046 Y38.4450 
G01 X-16.9046 Y37.1150 
G01 X-16.9161 Y37.0873 
G01 X-16.9373 Y37.0661 
G01 X-16.9650 Y37.0546 
G01 X-18.5950 Y37.0546 
G01 X-18.6227 Y37.0661 
G01 X-18.6439 Y37.0873 
G01 X-18.6554 Y37.1150 
G01 X-18.6554 Y38.4450 
G01 X-18.6439 Y38.4727 
G01 X-18.6227 Y38.4939 
G01 X-18.5950 Y38.5054 
G01 X-18.0586 Y38.5054 
G01 X-18.0586 Y39.7121 
G01 X-18.0613 Y39.7127 
G01 X-18.2368 Y39.7854 
G01 X-18.3948 Y39.8909 
G01 X-18.5291 Y40.0252 
G00 Z2.5400 
G00 X-5.6893 Y40.0079 
G01 Z-0.0800 F254.00 
G01 X-5.5900 Y40.2478 F254.00 
G01 X-5.4602 Y40.4726 
G01 X-5.3021 Y40.6786 
G01 X-5.1186 Y40.8621 
G01 X-4.9126 Y41.0202 
G01 X-4.6878 Y41.1500 
G01 X-4.4479 Y41.2493 
G01 X-4.1972 Y41.3165 
G01 X-3.9398 Y41.3504 
G01 X-3.6802 Y41.3504 
G01 X-3.4228 Y41.3165 
G01 X-3.1721 Y41.2493 
G01 X-2.9322 Y41.1500 
G01 X-2.7074 Y41.0202 
G01 X-2.5014 Y40.8621 
G01 X-2.3179 Y40.6786 
G01 X-2.1598 Y40.4726 
G01 X-2.0300 Y40.2478 
G01 X-1.9307 Y40.0079 
G01 X-1.8635 Y39.7572 
G01 X-1.8296 Y39.4998 
G01 X-1.8296 Y39.2402 
G01 X-1.8635 Y38.9828 
G01 X-1.9307 Y38.7321 
G01 X-2.0300 Y38.4922 
G01 X-2.1598 Y38.2674 
G01 X-2.3179 Y38.0614 
G01 X-2.5014 Y37.8779 
G01 X-2.7074 Y37.7198 
G01 X-2.9322 Y37.5900 
G01 X-3.1721 Y37.4907 
G01 X-3.4228 Y37.4235 
G01 X-3.6802 Y37.3896 
G01 X-3.9398 Y37.3896 
G01 X-4.1972 Y37.4235 
G01 X-4.4479 Y37.4907 
G01 X-4.6878 Y37.5900 
G01 X-4.9126 Y37.7198 
G01 X-5.1186 Y37.8779 
G01 X-5.3021 Y38.0614 
G01 X-5.4602 Y38.2674 
G01 X-5.5900 Y38.4922 
G01 X-5.6893 Y38.7321 
G01 X-5.7565 Y38.9828 
G01 X-5.7904 Y39.2402 
G01 X-5.7904 Y39.4998 
G01 X-5.7565 Y39.7572 
G01 X-5.6893 Y40.0079 
G00 Z2.5400 
G00 X-5.8936 Y39.7845 
G01 Z-0.0800 F254.00 
G01 X-5.8936 Y38.9555 F254.00 
G01 X-5.5764 Y38.1897 
G01 X-4.9903 Y37.6036 
G01 X-4.2245 Y37.2864 
G01 X-3.3955 Y37.2864 
G01 X-2.6297 Y37.6036 
G01 X-2.0436 Y38.1897 
G01 X-1.7264 Y38.9555 
G01 X-1.7264 Y39.7845 
G01 X-2.0436 Y40.5503 
G01 X-2.6297 Y41.1364 
G01 X-3.3955 Y41.4536 
G01 X-4.2245 Y41.4536 
G01 X-4.9903 Y41.1364 
G01 X-5.5764 Y40.5503 
G01 X-5.8936 Y39.7845 
G00 Z2.5400 
G00 X-39.7349 Y40.0352 
G01 Z-0.0800 F254.00 
G01 X-39.5724 Y40.4276 F254.00 
G01 X-39.5724 Y40.8524 
G01 X-39.7349 Y41.2448 
G01 X-40.0352 Y41.5451 
G01 X-40.4276 Y41.7076 
G01 X-40.8524 Y41.7076 
G01 X-41.2448 Y41.5451 
G01 X-41.5451 Y41.2448 
G01 X-41.7076 Y40.8524 
G01 X-41.7076 Y40.4276 
G01 X-41.5451 Y40.0352 
G01 X-41.2448 Y39.7349 
G01 X-40.8524 Y39.5724 
G01 X-40.4276 Y39.5724 
G01 X-40.0352 Y39.7349 
G01 X-39.7349 Y40.0352 
G00 Z2.5400 
G00 X-39.8909 Y40.0252 
G01 Z-0.0800 F254.00 
G01 X-40.0252 Y39.8909 F254.00 
G01 X-40.1832 Y39.7854 
G01 X-40.3587 Y39.7127 
G01 X-40.5450 Y39.6756 
G01 X-40.7350 Y39.6756 
G01 X-40.9213 Y39.7127 
G01 X-41.0968 Y39.7854 
G01 X-41.2548 Y39.8909 
G01 X-41.3891 Y40.0252 
G01 X-41.4946 Y40.1832 
G01 X-41.5673 Y40.3587 
G01 X-41.6044 Y40.5450 
G01 X-41.6044 Y40.7350 
G01 X-41.5673 Y40.9213 
G01 X-41.4946 Y41.0968 
G01 X-41.3891 Y41.2548 
G01 X-41.2548 Y41.3891 
G01 X-41.0968 Y41.4946 
G01 X-40.9213 Y41.5673 
G01 X-40.7350 Y41.6044 
G01 X-40.5450 Y41.6044 
G01 X-40.3587 Y41.5673 
G01 X-40.1832 Y41.4946 
G01 X-40.0252 Y41.3891 
G01 X-39.8909 Y41.2548 
G01 X-39.7854 Y41.0968 
G01 X-39.7127 Y40.9213 
G01 X-39.6756 Y40.7350 
G01 X-39.6756 Y40.5450 
G01 X-39.7127 Y40.3587 
G01 X-39.7854 Y40.1832 
G01 X-39.8909 Y40.0252 
G00 Z2.5400 
G00 X-2.6441 Y19.8451 
G01 Z-0.0800 F254.00 
G01 X-2.0651 Y20.4241 F254.00 
G01 X-1.7518 Y21.1806 
G01 X-1.7518 Y21.9994 
G01 X-2.0651 Y22.7559 
G01 X-2.6441 Y23.3349 
G01 X-3.4006 Y23.6482 
G01 X-4.2194 Y23.6482 
G01 X-4.9759 Y23.3349 
G01 X-5.5549 Y22.7559 
G01 X-5.8682 Y21.9994 
G01 X-5.8682 Y21.1806 
G01 X-5.5549 Y20.4241 
G01 X-4.9759 Y19.8451 
G01 X-4.2194 Y19.5318 
G01 X-3.4006 Y19.5318 
G01 X-2.6441 Y19.8451 
G00 Z2.5400 
G00 X-2.6932 Y19.9187 
G01 Z-0.0800 F254.00 
G01 X-2.9210 Y19.7872 F254.00 
G01 X-3.1639 Y19.6866 
G01 X-3.4178 Y19.6185 
G01 X-3.6785 Y19.5842 
G01 X-3.9415 Y19.5842 
G01 X-4.2021 Y19.6185 
G01 X-4.4561 Y19.6866 
G01 X-4.6990 Y19.7872 
G01 X-4.9268 Y19.9187 
G01 X-5.1353 Y20.0787 
G01 X-5.3213 Y20.2646 
G01 X-5.4813 Y20.4732 
G01 X-5.6128 Y20.7010 
G01 X-5.7134 Y20.9439 
G01 X-5.7815 Y21.1978 
G01 X-5.8158 Y21.4585 
G01 X-5.8158 Y21.7215 
G01 X-5.7815 Y21.9822 
G01 X-5.7134 Y22.2361 
G01 X-5.6128 Y22.4790 
G01 X-5.4813 Y22.7068 
G01 X-5.3213 Y22.9154 
G01 X-5.1353 Y23.1013 
G01 X-4.9268 Y23.2613 
G01 X-4.6990 Y23.3928 
G01 X-4.4561 Y23.4934 
G01 X-4.2021 Y23.5615 
G01 X-3.9415 Y23.5958 
G01 X-3.6785 Y23.5958 
G01 X-3.4178 Y23.5615 
G01 X-3.1639 Y23.4934 
G01 X-2.9210 Y23.3928 
G01 X-2.6932 Y23.2613 
G01 X-2.4846 Y23.1013 
G01 X-2.2987 Y22.9154 
G01 X-2.1387 Y22.7068 
G01 X-2.0072 Y22.4790 
G01 X-1.9066 Y22.2361 
G01 X-1.8385 Y21.9822 
G01 X-1.8042 Y21.7215 
G01 X-1.8042 Y21.4585 
G01 X-1.8385 Y21.1978 
G01 X-1.9066 Y20.9439 
G01 X-2.0072 Y20.7010 
G01 X-2.1387 Y20.4732 
G01 X-2.2987 Y20.2646 
G01 X-2.4846 Y20.0787 
G01 X-2.6932 Y19.9187 
G00 Z2.5400 
G00 X-6.5778 Y20.1127 
G01 Z-0.0800 F254.00 
G01 X-6.5778 Y20.5273 F254.00 
G01 X-6.7364 Y20.9104 
G01 X-7.0296 Y21.2035 
G01 X-7.4127 Y21.3622 
G01 X-7.8273 Y21.3622 
G01 X-8.2104 Y21.2035 
G01 X-8.5035 Y20.9104 
G01 X-8.6622 Y20.5273 
G01 X-8.6622 Y20.1127 
G01 X-8.5035 Y19.7296 
G01 X-8.2104 Y19.4364 
G01 X-7.8273 Y19.2778 
G01 X-7.4127 Y19.2778 
G01 X-7.0296 Y19.4364 
G01 X-6.7364 Y19.7296 
G01 X-6.5778 Y20.1127 
G00 Z2.5400 
G00 X-6.6302 Y20.2225 
G01 Z-0.0800 F254.00 
G01 X-6.6682 Y20.0313 F254.00 
G01 X-6.7428 Y19.8512 
G01 X-6.8512 Y19.6890 
G01 X-6.9890 Y19.5512 
G01 X-7.1512 Y19.4428 
G01 X-7.3313 Y19.3682 
G01 X-7.5225 Y19.3302 
G01 X-7.7175 Y19.3302 
G01 X-7.9087 Y19.3682 
G01 X-8.0888 Y19.4428 
G01 X-8.2510 Y19.5512 
G01 X-8.3888 Y19.6890 
G01 X-8.4971 Y19.8512 
G01 X-8.5718 Y20.0313 
G01 X-8.6098 Y20.2225 
G01 X-8.6098 Y20.4175 
G01 X-8.5718 Y20.6087 
G01 X-8.4971 Y20.7888 
G01 X-8.3888 Y20.9510 
G01 X-8.2510 Y21.0888 
G01 X-8.0888 Y21.1971 
G01 X-7.9087 Y21.2718 
G01 X-7.7175 Y21.3098 
G01 X-7.5225 Y21.3098 
G01 X-7.3313 Y21.2718 
G01 X-7.1512 Y21.1971 
G01 X-6.9890 Y21.0888 
G01 X-6.8512 Y20.9510 
G01 X-6.7428 Y20.7888 
G01 X-6.6682 Y20.6087 
G01 X-6.6302 Y20.4175 
G01 X-6.6302 Y20.2225 
G00 Z2.5400 
G00 X-9.1702 Y20.2225 
G01 Z-0.0800 F254.00 
G01 X-9.2082 Y20.0313 F254.00 
G01 X-9.2828 Y19.8512 
G01 X-9.3912 Y19.6890 
G01 X-9.5290 Y19.5512 
G01 X-9.6912 Y19.4428 
G01 X-9.8713 Y19.3682 
G01 X-10.0625 Y19.3302 
G01 X-10.2575 Y19.3302 
G01 X-10.4487 Y19.3682 
G01 X-10.6288 Y19.4428 
G01 X-10.7910 Y19.5512 
G01 X-10.9288 Y19.6890 
G01 X-11.0371 Y19.8512 
G01 X-11.1118 Y20.0313 
G01 X-11.1498 Y20.2225 
G01 X-11.1498 Y20.4175 
G01 X-11.1118 Y20.6087 
G01 X-11.0371 Y20.7888 
G01 X-10.9288 Y20.9510 
G01 X-10.7910 Y21.0888 
G01 X-10.6672 Y21.1715 
G01 X-10.6672 Y21.6568 
G01 X-10.6326 Y21.7858 
G01 X-10.5659 Y21.9014 
G01 X-10.4714 Y21.9959 
G01 X-9.3972 Y23.0701 
G01 X-9.3972 Y23.2785 
G01 X-9.5210 Y23.3612 
G01 X-9.6588 Y23.4990 
G01 X-9.7671 Y23.6612 
G01 X-9.8418 Y23.8413 
G01 X-9.8798 Y24.0325 
G01 X-9.8798 Y24.2275 
G01 X-9.8418 Y24.4187 
G01 X-9.7671 Y24.5988 
G01 X-9.6588 Y24.7610 
G01 X-9.5210 Y24.8988 
G01 X-9.3972 Y24.9815 
G01 X-9.3972 Y33.5860 
G01 X-9.5132 Y33.5860 
G01 X-9.5503 Y33.6013 
G01 X-9.5786 Y33.6297 
G01 X-9.5940 Y33.6667 
G01 X-9.5940 Y34.9132 
G01 X-9.5786 Y34.9503 
G01 X-9.5503 Y34.9787 
G01 X-9.5132 Y34.9940 
G01 X-8.2667 Y34.9940 
G01 X-8.2297 Y34.9787 
G01 X-8.2013 Y34.9503 
G01 X-8.1860 Y34.9132 
G01 X-8.1860 Y33.6667 
G01 X-8.2013 Y33.6297 
G01 X-8.2297 Y33.6013 
G01 X-8.2667 Y33.5860 
G01 X-8.3828 Y33.5860 
G01 X-8.3828 Y24.9815 
G01 X-8.2590 Y24.8988 
G01 X-8.1212 Y24.7610 
G01 X-8.0129 Y24.5988 
G01 X-7.9382 Y24.4187 
G01 X-7.9002 Y24.2275 
G01 X-7.9002 Y24.0325 
G01 X-7.9382 Y23.8413 
G01 X-8.0129 Y23.6612 
G01 X-8.1212 Y23.4990 
G01 X-8.2590 Y23.3612 
G01 X-8.3828 Y23.2785 
G01 X-8.3828 Y22.7932 
G01 X-8.4174 Y22.6642 
G01 X-8.4841 Y22.5486 
G01 X-9.6528 Y21.3799 
G01 X-9.6528 Y21.1715 
G01 X-9.5290 Y21.0888 
G01 X-9.3912 Y20.9510 
G01 X-9.2828 Y20.7888 
G01 X-9.2082 Y20.6087 
G01 X-9.1702 Y20.4175 
G01 X-9.1702 Y20.2225 
G00 Z2.5400 
G00 X-9.1178 Y20.1127 
G01 Z-0.0800 F254.00 
G01 X-9.1178 Y20.5273 F254.00 
G01 X-9.2764 Y20.9104 
G01 X-9.5850 Y21.2190 
G01 X-9.6004 Y21.2560 
G01 X-9.6004 Y21.3365 
G01 X-9.5850 Y21.3735 
G01 X-9.5567 Y21.4019 
G01 X-8.4156 Y22.5430 
G01 X-8.3304 Y22.7487 
G01 X-8.3304 Y23.1940 
G01 X-8.3150 Y23.2310 
G01 X-8.2867 Y23.2594 
G01 X-8.0064 Y23.5396 
G01 X-7.8478 Y23.9227 
G01 X-7.8478 Y24.3373 
G01 X-8.0064 Y24.7204 
G01 X-8.3150 Y25.0289 
G01 X-8.3304 Y25.0660 
G01 X-8.3304 Y33.4528 
G01 X-8.3150 Y33.4899 
G01 X-8.2867 Y33.5182 
G01 X-8.2496 Y33.5336 
G01 X-8.2233 Y33.5336 
G01 X-8.1336 Y33.6233 
G01 X-8.1336 Y34.9567 
G01 X-8.2233 Y35.0464 
G01 X-9.5567 Y35.0464 
G01 X-9.6464 Y34.9567 
G01 X-9.6464 Y33.6233 
G01 X-9.5567 Y33.5336 
G01 X-9.5304 Y33.5336 
G01 X-9.4933 Y33.5182 
G01 X-9.4650 Y33.4899 
G01 X-9.4496 Y33.4528 
G01 X-9.4496 Y25.0660 
G01 X-9.4650 Y25.0289 
G01 X-9.4933 Y25.0006 
G01 X-9.7736 Y24.7204 
G01 X-9.9322 Y24.3373 
G01 X-9.9322 Y23.9227 
G01 X-9.7736 Y23.5396 
G01 X-9.4650 Y23.2310 
G01 X-9.4496 Y23.1940 
G01 X-9.4496 Y23.1135 
G01 X-9.4650 Y23.0765 
G01 X-9.4933 Y23.0481 
G01 X-10.4770 Y22.0644 
G01 X-10.6344 Y21.9070 
G01 X-10.7196 Y21.7013 
G01 X-10.7196 Y21.2560 
G01 X-10.7350 Y21.2190 
G01 X-10.7633 Y21.1906 
G01 X-11.0435 Y20.9104 
G01 X-11.2022 Y20.5273 
G01 X-11.2022 Y20.1127 
G01 X-11.0435 Y19.7296 
G01 X-10.7504 Y19.4364 
G01 X-10.3673 Y19.2778 
G01 X-9.9527 Y19.2778 
G01 X-9.5696 Y19.4364 
G01 X-9.2764 Y19.7296 
G01 X-9.1178 Y20.1127 
G00 Z2.5400 
G00 X-11.6578 Y20.1127 
G01 Z-0.0800 F254.00 
G01 X-11.6578 Y20.5273 F254.00 
G01 X-11.8164 Y20.9104 
G01 X-12.1096 Y21.2035 
G01 X-12.4927 Y21.3622 
G01 X-12.9073 Y21.3622 
G01 X-13.2904 Y21.2035 
G01 X-13.5835 Y20.9104 
G01 X-13.7422 Y20.5273 
G01 X-13.7422 Y20.1127 
G01 X-13.5835 Y19.7296 
G01 X-13.2904 Y19.4364 
G01 X-12.9073 Y19.2778 
G01 X-12.4927 Y19.2778 
G01 X-12.1096 Y19.4364 
G01 X-11.8164 Y19.7296 
G01 X-11.6578 Y20.1127 
G00 Z2.5400 
G00 X-11.7102 Y20.2225 
G01 Z-0.0800 F254.00 
G01 X-11.7482 Y20.0313 F254.00 
G01 X-11.8229 Y19.8512 
G01 X-11.9312 Y19.6890 
G01 X-12.0690 Y19.5512 
G01 X-12.2312 Y19.4428 
G01 X-12.4113 Y19.3682 
G01 X-12.6025 Y19.3302 
G01 X-12.7975 Y19.3302 
G01 X-12.9887 Y19.3682 
G01 X-13.1688 Y19.4428 
G01 X-13.3310 Y19.5512 
G01 X-13.4688 Y19.6890 
G01 X-13.5771 Y19.8512 
G01 X-13.6518 Y20.0313 
G01 X-13.6898 Y20.2225 
G01 X-13.6898 Y20.4175 
G01 X-13.6518 Y20.6087 
G01 X-13.5771 Y20.7888 
G01 X-13.4688 Y20.9510 
G01 X-13.3310 Y21.0888 
G01 X-13.1688 Y21.1971 
G01 X-12.9887 Y21.2718 
G01 X-12.7975 Y21.3098 
G01 X-12.6025 Y21.3098 
G01 X-12.4113 Y21.2718 
G01 X-12.2312 Y21.1971 
G01 X-12.0690 Y21.0888 
G01 X-11.9312 Y20.9510 
G01 X-11.8229 Y20.7888 
G01 X-11.7482 Y20.6087 
G01 X-11.7102 Y20.4175 
G01 X-11.7102 Y20.2225 
G00 Z2.5400 
G00 X-12.5524 Y21.8686 
G01 Z-0.0800 F254.00 
G01 X-12.3436 Y22.0774 F254.00 
G01 X-12.3436 Y23.7491 
G01 X-12.3818 Y23.8413 
G01 X-12.3960 Y23.9129 
G01 X-12.3960 Y22.1850 
G01 X-12.4167 Y22.1077 
G01 X-12.4567 Y22.0383 
G01 X-12.5133 Y21.9817 
G01 X-12.5827 Y21.9417 
G01 X-12.6600 Y21.9210 
G01 X-15.7491 Y21.9210 
G01 X-16.8965 Y20.7736 
G01 X-16.8282 Y20.6087 
