(.../pcb-gcode-3.6.2.4/pcb-gcode.ulp)
(Copyright 2005 - 2012 by John Johnson)
(See readme.txt for licensing terms.)
(This file generated from the board:)
(.../eagle/object_1/object_1_milling.brd)
(Current profile is .../pcb-gcode-3.6.2.4/profiles/turbocnc.pp  )
(This file generated 06/11/2018 12:14)
(Settings from pcb-machine.h)
(spindle on time = 3.0000)
(spindle speed = 15000.0000)
(milling depth = -1.6000)
(tool change at 0.0000 0.0000 25.4000 )
(feed rate xy = F254.00 )
(feed rate z  = F127.00 )
(Z Axis Settings)
(  High     Up        Down     Drill)
(12.7000 	2.5400 	-0.0800 	-2.0000 )
(Settings from pcb-defaults.h)
(isolate min = 0.0254)
(isolate max = 0.2000)
(isolate step = 0.0254)
(Generated bottom outlines, bottom drill, )
(Unit of measure: mm)
(Metric Mode)
G21
(Absolute Coordinates)
G90
G97 S15000
G00 Z12.7000 
G00 X0.0000 Y0.0000 
M03
G04 P3.000000
G00 Z2.5400 
G00 X7.3124 Y13.4335 
G01 Z-1.6000 F127.00 
G01 X7.8322 Y13.4335 F254.00 
G01 X7.8322 Y13.2801 
G01 X8.3351 Y13.2801 
G01 X8.3351 Y13.1863 
G01 X9.5747 Y13.1863 
G01 X9.5747 Y13.2140 
G01 X9.9725 Y13.2140 
G01 X9.9725 Y13.2582 
G01 X10.6059 Y13.2582 
G01 X10.6059 Y13.4645 
G01 X11.0920 Y13.4645 
G01 X11.0920 Y13.7002 
G01 X11.6665 Y13.7002 
G01 X11.6665 Y14.1126 
G01 X12.0200 Y14.1126 
G01 X12.0200 Y14.4515 
G01 X12.3588 Y14.4515 
G01 X12.3588 Y14.8787 
G01 X12.5797 Y14.8787 
G01 X12.5797 Y15.2470 
G01 X12.8596 Y15.2470 
G01 X12.8596 Y15.9992 
G01 X54.4421 Y15.9992 
G01 X54.4421 Y15.8883 
G01 X54.4591 Y15.8883 
G01 X54.4591 Y15.5048 
G01 X54.5955 Y15.5048 
G01 X54.5955 Y15.0956 
G01 X54.8000 Y15.0956 
G01 X54.8000 Y14.7547 
G01 X55.0216 Y14.7547 
G01 X55.0216 Y14.3455 
G01 X55.3540 Y14.3455 
G01 X55.3540 Y14.0643 
G01 X55.6778 Y14.0643 
G01 X55.6778 Y13.8085 
G01 X56.0102 Y13.8085 
G01 X56.0102 Y13.6125 
G01 X56.3426 Y13.6125 
G01 X56.3426 Y13.4591 
G01 X56.6835 Y13.4591 
G01 X56.6835 Y13.3397 
G01 X57.0329 Y13.3397 
G01 X57.0329 Y13.2460 
G01 X57.3994 Y13.2460 
G01 X57.3994 Y13.1778 
G01 X58.5158 Y13.1778 
G01 X58.5158 Y13.1863 
G01 X58.8994 Y13.1863 
G01 X58.8994 Y13.2545 
G01 X59.3425 Y13.2545 
G01 X59.3425 Y13.3738 
G01 X59.6664 Y13.3738 
G01 X59.6664 Y13.4932 
G01 X59.9903 Y13.4932 
G01 X59.9903 Y13.6636 
G01 X60.4436 Y13.6636 
G01 X60.4436 Y13.9705 
G01 X60.7504 Y13.9705 
G01 X60.7504 Y14.2177 
G01 X61.1595 Y14.2177 
G01 X61.1595 Y14.6780 
G01 X61.5430 Y14.6780 
G01 X61.5430 Y15.2832 
G01 X61.7731 Y15.2832 
G01 X61.7731 Y15.8713 
G01 X61.8839 Y15.8713 
G01 X61.8839 Y16.2890 
G01 X61.9592 Y16.2890 
G01 X61.9592 Y44.0066 
G00 Z2.5400 
G00 X61.9419 Y43.9742 
G01 Z-1.6000 F127.00 
G01 X61.9419 Y44.6476 F254.00 
G01 X61.8993 Y44.6476 
G01 X61.8993 Y45.0227 
G01 X61.8311 Y45.0227 
G01 X61.8311 Y45.4062 
G01 X61.7203 Y45.4062 
G01 X61.7203 Y45.8580 
G01 X61.5328 Y45.8580 
G01 X61.5328 Y46.1989 
G01 X61.3453 Y46.1989 
G01 X61.3453 Y46.5910 
G01 X61.0556 Y46.5910 
G01 X61.0556 Y46.9746 
G01 X60.6891 Y46.9746 
G01 X60.6891 Y47.2729 
G01 X60.3312 Y47.2729 
G01 X60.3312 Y47.4860 
G01 X59.9647 Y47.4860 
G01 X59.9647 Y47.6736 
G01 X59.5641 Y47.6736 
G01 X59.5641 Y47.8270 
G01 X59.1210 Y47.8270 
G01 X59.1210 Y47.8952 
G01 X58.8653 Y47.8952 
G01 X58.8653 Y47.9653 
G01 X57.4958 Y47.9653 
G01 X57.4958 Y47.9156 
G01 X56.8922 Y47.9156 
G01 X56.8922 Y47.7593 
G01 X56.4093 Y47.7593 
G01 X56.4093 Y47.5604 
G01 X55.9477 Y47.5604 
G01 X55.9477 Y47.2905 
G01 X55.5002 Y47.2905 
G01 X55.5002 Y46.9354 
G01 X55.0812 Y46.9354 
G01 X55.0812 Y46.4666 
G01 X54.7048 Y46.4666 
G01 X54.7048 Y45.8700 
G01 X54.4140 Y45.8700 
G01 X54.4140 Y45.1335 
G01 X12.8605 Y45.1335 
G01 X12.8605 Y45.4574 
G01 X12.7583 Y45.4574 
G01 X12.7583 Y45.8239 
G01 X12.6049 Y45.8239 
G01 X12.6049 Y46.2501 
G01 X12.3577 Y46.2501 
G01 X12.3577 Y46.6166 
G01 X12.0850 Y46.6166 
G01 X12.0850 Y46.9576 
G01 X11.7441 Y46.9576 
G01 X11.7441 Y47.1792 
G01 X11.4799 Y47.1792 
G01 X11.4799 Y47.4434 
G01 X11.0708 Y47.4434 
G01 X11.0708 Y47.6309 
G01 X10.7128 Y47.6309 
G01 X10.7128 Y47.7673 
G01 X10.3293 Y47.7673 
G01 X10.3293 Y47.8440 
G01 X10.0481 Y47.8440 
G01 X10.0481 Y47.9548 
G01 X8.9742 Y47.9548 
G01 X8.9742 Y47.9463 
G01 X8.5737 Y47.9463 
G01 X8.5737 Y47.8952 
G01 X8.1646 Y47.8952 
G01 X8.1646 Y47.8014 
G01 X7.7640 Y47.8014 
G01 X7.7640 Y47.6736 
G01 X7.3294 Y47.6736 
G01 X7.3294 Y47.4690 
G01 X6.8436 Y47.4690 
G01 X6.8436 Y47.1536 
G01 X6.3919 Y47.1536 
G01 X6.3919 Y46.7445 
G01 X6.0681 Y46.7445 
G01 X6.0681 Y46.3524 
G01 X5.7442 Y46.3524 
G01 X5.7442 Y45.7813 
G01 X5.4885 Y45.7813 
G01 X5.4885 Y45.1420 
G01 X5.3436 Y45.1420 
G01 X5.3436 Y16.4159 
G01 X5.3899 Y16.4159 
G01 X5.3899 Y15.8628 
G01 X5.5311 Y15.8628 
G01 X5.5311 Y15.4792 
G01 X5.6675 Y15.4792 
G01 X5.6675 Y15.0701 
G01 X5.8806 Y15.0701 
G01 X5.8806 Y14.6353 
G01 X6.1874 Y14.6353 
G01 X6.1874 Y14.2347 
G01 X6.5538 Y14.2347 
G01 X6.5538 Y13.9449 
G01 X6.8947 Y13.9449 
G01 X6.8947 Y13.6722 
G01 X7.3124 Y13.6722 
G01 X7.3124 Y13.4335 
G00 Z12.7000 
M05
M02
